graphics/cube/apply-utf8TextType.cube
TITLE "title"

# cube file created by iccApplyToLink version 2.3.2.1+219f0bf
#
# Profiles applied (by profile description):
# - [31mPOC[0m

LUT_3D_SIZE 2

0.000000 0.000000 0.000000
-12.885228 0.319194 1.386239
-39.729450 1.775265 -5.271579
-52.614677 1.792050 1.263066
2.243681 -25.043680 0.367593
2.089121 -23.969965 1.417373
1.703325 1.296922 -3.833876
1.467083 1.322401 1.298224
