graphics/cube/dbz-poc-generated.cube
TITLE "DBZ PoC cube"

# cube file created by iccApplyToLink version 2.3.2.0+061f425
#
# Profiles applied (by profile description):
# - DBZ CAM JabToXYZ PoC AAAAAAAA 0x4141

LUT_3D_SIZE 2

0.000000 0.000000 0.000000
0.000000 0.000000 1.999969
0.000000 1.999969 0.000000
0.000000 1.999969 1.999969
1.999969 0.000000 0.000000
1.999969 0.000000 1.999969
1.999969 1.999969 0.000000
1.999969 1.999969 1.999969
