graphics/cube/Lab_float-IllumA_2deg-Part2_102.cube
TITLE "QA_Lab_float-IllumA_2deg-Part2_102"
# Copyright (c) 2026 @xsscx David H Hoyt LLC
# https://xss.cx
# Profiles applied (by profile description):
# - Float encoding of CIELAB for standard 2deg observer under Illuminant A using Wpt based non-linear CAT
LUT_3D_SIZE 6
LUT_3D_INPUT_RANGE 0.108500 0.862500
0.001085 0.502701 0.502562
0.001085 0.502701 0.502694
0.001085 0.502701 0.502694
0.001085 0.502701 0.502694
0.001085 0.502701 0.502694
0.001085 0.502701 0.502694
0.001085 0.503375 0.502562
0.001085 0.503375 0.502694
0.001085 0.503375 0.502694
0.001085 0.503375 0.502694
0.001085 0.503375 0.502694
0.001085 0.503375 0.502694
0.001085 0.504048 0.502562
0.001085 0.504048 0.502694
0.001085 0.504048 0.502694
0.001085 0.504048 0.502694
0.001085 0.504048 0.502694
0.001085 0.504048 0.502694
0.001085 0.504722 0.502562
0.001085 0.504722 0.502694
0.001085 0.504722 0.502694
0.001085 0.504722 0.502694
0.001085 0.504722 0.502694
0.001085 0.504722 0.502694
0.001085 0.505396 0.502562
0.001085 0.505396 0.502694
0.001085 0.505396 0.502694
0.001085 0.505396 0.502694
0.001085 0.505396 0.502694
0.001085 0.505396 0.502694
0.001085 0.506070 0.502562
0.001085 0.506070 0.502694
0.001085 0.506070 0.502694
0.001085 0.506070 0.502694
0.001085 0.506070 0.502694
0.001085 0.506070 0.502694
0.002593 0.503056 0.503141
0.002593 0.503056 0.503396
0.002593 0.503056 0.503651
0.002593 0.503056 0.503714
0.002593 0.503056 0.503714
0.002593 0.503056 0.503714
0.002593 0.503730 0.503141
0.002593 0.503730 0.503396
0.002593 0.503730 0.503651
0.002593 0.503730 0.503714
0.002593 0.503730 0.503714
0.002593 0.503730 0.503714
0.002593 0.504403 0.503141
0.002593 0.504403 0.503396
0.002593 0.504403 0.503651
0.002593 0.504403 0.503714
0.002593 0.504403 0.503714
0.002593 0.504403 0.503714
0.002593 0.505077 0.503141
0.002593 0.505077 0.503396
0.002593 0.505077 0.503651
0.002593 0.505077 0.503714
0.002593 0.505077 0.503714
0.002593 0.505077 0.503714
0.002593 0.505751 0.503141
0.002593 0.505751 0.503396
0.002593 0.505751 0.503651
0.002593 0.505751 0.503714
0.002593 0.505751 0.503714
0.002593 0.505751 0.503714
0.002593 0.506425 0.503141
0.002593 0.506425 0.503396
0.002593 0.506425 0.503651
0.002593 0.506425 0.503714
0.002593 0.506425 0.503714
0.002593 0.506425 0.503714
0.004101 0.503411 0.503721
0.004101 0.503411 0.503976
0.004101 0.503411 0.504231
0.004101 0.503411 0.504486
0.004101 0.503411 0.504734
0.004101 0.503411 0.504734
0.004101 0.504085 0.503721
0.004101 0.504085 0.503976
0.004101 0.504085 0.504231
0.004101 0.504085 0.504486
0.004101 0.504085 0.504734
0.004101 0.504085 0.504734
0.004101 0.504758 0.503721
0.004101 0.504758 0.503976
0.004101 0.504758 0.504231
0.004101 0.504758 0.504486
0.004101 0.504758 0.504734
0.004101 0.504758 0.504734
0.004101 0.505432 0.503721
0.004101 0.505432 0.503976
0.004101 0.505432 0.504231
0.004101 0.505432 0.504486
0.004101 0.505432 0.504734
0.004101 0.505432 0.504734
0.004101 0.506106 0.503721
0.004101 0.506106 0.503976
0.004101 0.506106 0.504231
0.004101 0.506106 0.504486
0.004101 0.506106 0.504734
0.004101 0.506106 0.504734
0.004101 0.506780 0.503721
0.004101 0.506780 0.503976
0.004101 0.506780 0.504231
0.004101 0.506780 0.504486
0.004101 0.506780 0.504734
0.004101 0.506780 0.504734
0.005609 0.503766 0.504301
0.005609 0.503766 0.504556
0.005609 0.503766 0.504811
0.005609 0.503766 0.505066
0.005609 0.503766 0.505321
0.005609 0.503766 0.505576
0.005609 0.504440 0.504301
0.005609 0.504440 0.504556
0.005609 0.504440 0.504811
0.005609 0.504440 0.505066
0.005609 0.504440 0.505321
0.005609 0.504440 0.505576
0.005609 0.505114 0.504301
0.005609 0.505114 0.504556
0.005609 0.505114 0.504811
0.005609 0.505114 0.505066
0.005609 0.505114 0.505321
0.005609 0.505114 0.505576
0.005609 0.505787 0.504301
0.005609 0.505787 0.504556
0.005609 0.505787 0.504811
0.005609 0.505787 0.505066
0.005609 0.505787 0.505321
0.005609 0.505787 0.505576
0.005609 0.506461 0.504301
0.005609 0.506461 0.504556
0.005609 0.506461 0.504811
0.005609 0.506461 0.505066
0.005609 0.506461 0.505321
0.005609 0.506461 0.505576
0.005609 0.507135 0.504301
0.005609 0.507135 0.504556
0.005609 0.507135 0.504811
0.005609 0.507135 0.505066
0.005609 0.507135 0.505321
0.005609 0.507135 0.505576
0.007117 0.504121 0.504881
0.007117 0.504121 0.505136
0.007117 0.504121 0.505391
0.007117 0.504121 0.505646
0.007117 0.504121 0.505901
0.007117 0.504121 0.506156
0.007117 0.504795 0.504881
0.007117 0.504795 0.505136
0.007117 0.504795 0.505391
0.007117 0.504795 0.505646
0.007117 0.504795 0.505901
0.007117 0.504795 0.506156
0.007117 0.505469 0.504881
0.007117 0.505469 0.505136
0.007117 0.505469 0.505391
0.007117 0.505469 0.505646
0.007117 0.505469 0.505901
0.007117 0.505469 0.506156
0.007117 0.506142 0.504881
0.007117 0.506142 0.505136
0.007117 0.506142 0.505391
0.007117 0.506142 0.505646
0.007117 0.506142 0.505901
0.007117 0.506142 0.506156
0.007117 0.506816 0.504881
0.007117 0.506816 0.505136
0.007117 0.506816 0.505391
0.007117 0.506816 0.505646
0.007117 0.506816 0.505901
0.007117 0.506816 0.506156
0.007117 0.507490 0.504881
0.007117 0.507490 0.505136
0.007117 0.507490 0.505391
0.007117 0.507490 0.505646
0.007117 0.507490 0.505901
0.007117 0.507490 0.506156
0.008625 0.504476 0.505461
0.008625 0.504476 0.505716
0.008625 0.504476 0.505971
0.008625 0.504476 0.506226
0.008625 0.504476 0.506481
0.008625 0.504476 0.506736
0.008625 0.505150 0.505461
0.008625 0.505150 0.505716
0.008625 0.505150 0.505971
0.008625 0.505150 0.506226
0.008625 0.505150 0.506481
0.008625 0.505150 0.506736
0.008625 0.505824 0.505461
0.008625 0.505824 0.505716
0.008625 0.505824 0.505971
0.008625 0.505824 0.506226
0.008625 0.505824 0.506481
0.008625 0.505824 0.506736
0.008625 0.506497 0.505461
0.008625 0.506497 0.505716
0.008625 0.506497 0.505971
0.008625 0.506497 0.506226
0.008625 0.506497 0.506481
0.008625 0.506497 0.506736
0.008625 0.507171 0.505461
0.008625 0.507171 0.505716
0.008625 0.507171 0.505971
0.008625 0.507171 0.506226
0.008625 0.507171 0.506481
0.008625 0.507171 0.506736
0.008625 0.507845 0.505461
0.008625 0.507845 0.505716
0.008625 0.507845 0.505971
0.008625 0.507845 0.506226
0.008625 0.507845 0.506481
0.008625 0.507845 0.506736
