graphics/cube/Lab_int-IllumA_2deg-MAT_976.cube
TITLE "QA_Lab_int-IllumA_2deg-MAT_976"
# Copyright (c) 2026 @xsscx David H Hoyt LLC
# https://xss.cx
# Profiles applied (by profile description):
# - Level 1 Lab colorimetric PCC profile using Illuminant A with Standard 2deg observer using Wpt based MAT
LUT_3D_SIZE 27
LUT_3D_INPUT_RANGE 0.2442000 0.9179000
0.2442000 0.7471184 0.7471184
0.2442000 0.7471184 0.7731316
0.2442000 0.7471184 0.7991447
0.2442000 0.7471184 0.8251579
0.2442000 0.7471184 0.8511710
0.2442000 0.7471184 0.8771842
0.2442000 0.7471184 0.9031973
0.2442000 0.7471184 0.9292105
0.2442000 0.7471184 0.9552237
0.2442000 0.7471184 0.9812368
0.2442000 0.7471184 1.0072501
0.2442000 0.7471184 1.0332632
0.2442000 0.7471184 1.0592762
0.2442000 0.7471184 1.0852895
0.2442000 0.7471184 1.1113025
0.2442000 0.7471184 1.1373158
0.2442000 0.7471184 1.1633289
0.2442000 0.7471184 1.1893420
0.2442000 0.7471184 1.2153553
0.2442000 0.7471184 1.2413684
0.2442000 0.7471184 1.2673815
0.2442000 0.7471184 1.2933946
0.2442000 0.7471184 1.3194077
0.2442000 0.7471184 1.3454210
0.2442000 0.7471184 1.3714341
0.2442000 0.7471184 1.3974473
0.2442000 0.7471184 1.4234605
0.2442000 0.7731316 0.7471184
0.2442000 0.7731316 0.7731316
0.2442000 0.7731316 0.7991447
0.2442000 0.7731316 0.8251579
0.2442000 0.7731316 0.8511710
0.2442000 0.7731316 0.8771842
0.2442000 0.7731316 0.9031973
0.2442000 0.7731316 0.9292105
0.2442000 0.7731316 0.9552237
0.2442000 0.7731316 0.9812368
0.2442000 0.7731316 1.0072501
0.2442000 0.7731316 1.0332632
0.2442000 0.7731316 1.0592762
0.2442000 0.7731316 1.0852895
0.2442000 0.7731316 1.1113025
0.2442000 0.7731316 1.1373158
0.2442000 0.7731316 1.1633289
0.2442000 0.7731316 1.1893420
0.2442000 0.7731316 1.2153553
0.2442000 0.7731316 1.2413684
0.2442000 0.7731316 1.2673815
0.2442000 0.7731316 1.2933946
0.2442000 0.7731316 1.3194077
0.2442000 0.7731316 1.3454210
0.2442000 0.7731316 1.3714341
0.2442000 0.7731316 1.3974473
0.2442000 0.7731316 1.4234605
0.2442000 0.7991447 0.7471184
0.2442000 0.7991447 0.7731316
0.2442000 0.7991447 0.7991447
0.2442000 0.7991447 0.8251579
0.2442000 0.7991447 0.8511710
0.2442000 0.7991447 0.8771842
0.2442000 0.7991447 0.9031973
0.2442000 0.7991447 0.9292105
0.2442000 0.7991447 0.9552237
0.2442000 0.7991447 0.9812368
0.2442000 0.7991447 1.0072501
0.2442000 0.7991447 1.0332632
0.2442000 0.7991447 1.0592762
0.2442000 0.7991447 1.0852895
0.2442000 0.7991447 1.1113025
0.2442000 0.7991447 1.1373158
0.2442000 0.7991447 1.1633289
0.2442000 0.7991447 1.1893420
0.2442000 0.7991447 1.2153553
0.2442000 0.7991447 1.2413684
0.2442000 0.7991447 1.2673815
0.2442000 0.7991447 1.2933946
0.2442000 0.7991447 1.3194077
0.2442000 0.7991447 1.3454210
0.2442000 0.7991447 1.3714341
0.2442000 0.7991447 1.3974473
0.2442000 0.7991447 1.4234605
0.2442000 0.8251579 0.7471184
0.2442000 0.8251579 0.7731316
0.2442000 0.8251579 0.7991447
0.2442000 0.8251579 0.8251579
0.2442000 0.8251579 0.8511710
0.2442000 0.8251579 0.8771842
0.2442000 0.8251579 0.9031973
0.2442000 0.8251579 0.9292105
0.2442000 0.8251579 0.9552237
0.2442000 0.8251579 0.9812368
0.2442000 0.8251579 1.0072501
0.2442000 0.8251579 1.0332632
0.2442000 0.8251579 1.0592762
0.2442000 0.8251579 1.0852895
0.2442000 0.8251579 1.1113025
0.2442000 0.8251579 1.1373158
0.2442000 0.8251579 1.1633289
0.2442000 0.8251579 1.1893420
0.2442000 0.8251579 1.2153553
0.2442000 0.8251579 1.2413684
0.2442000 0.8251579 1.2673815
0.2442000 0.8251579 1.2933946
0.2442000 0.8251579 1.3194077
0.2442000 0.8251579 1.3454210
0.2442000 0.8251579 1.3714341
0.2442000 0.8251579 1.3974473
0.2442000 0.8251579 1.4234605
0.2442000 0.8511710 0.7471184
0.2442000 0.8511710 0.7731316
0.2442000 0.8511710 0.7991447
0.2442000 0.8511710 0.8251579
0.2442000 0.8511710 0.8511710
0.2442000 0.8511710 0.8771842
0.2442000 0.8511710 0.9031973
0.2442000 0.8511710 0.9292105
0.2442000 0.8511710 0.9552237
0.2442000 0.8511710 0.9812368
0.2442000 0.8511710 1.0072501
0.2442000 0.8511710 1.0332632
0.2442000 0.8511710 1.0592762
0.2442000 0.8511710 1.0852895
0.2442000 0.8511710 1.1113025
0.2442000 0.8511710 1.1373158
0.2442000 0.8511710 1.1633289
0.2442000 0.8511710 1.1893420
0.2442000 0.8511710 1.2153553
0.2442000 0.8511710 1.2413684
0.2442000 0.8511710 1.2673815
0.2442000 0.8511710 1.2933946
0.2442000 0.8511710 1.3194077
0.2442000 0.8511710 1.3454210
0.2442000 0.8511710 1.3714341
0.2442000 0.8511710 1.3974473
0.2442000 0.8511710 1.4234605
0.2442000 0.8771842 0.7471184
0.2442000 0.8771842 0.7731316
0.2442000 0.8771842 0.7991447
0.2442000 0.8771842 0.8251579
0.2442000 0.8771842 0.8511710
0.2442000 0.8771842 0.8771842
0.2442000 0.8771842 0.9031973
0.2442000 0.8771842 0.9292105
0.2442000 0.8771842 0.9552237
0.2442000 0.8771842 0.9812368
0.2442000 0.8771842 1.0072501
0.2442000 0.8771842 1.0332632
0.2442000 0.8771842 1.0592762
0.2442000 0.8771842 1.0852895
0.2442000 0.8771842 1.1113025
0.2442000 0.8771842 1.1373158
0.2442000 0.8771842 1.1633289
0.2442000 0.8771842 1.1893420
0.2442000 0.8771842 1.2153553
0.2442000 0.8771842 1.2413684
0.2442000 0.8771842 1.2673815
0.2442000 0.8771842 1.2933946
0.2442000 0.8771842 1.3194077
0.2442000 0.8771842 1.3454210
0.2442000 0.8771842 1.3714341
0.2442000 0.8771842 1.3974473
0.2442000 0.8771842 1.4234605
0.2442000 0.9031973 0.7471184
0.2442000 0.9031973 0.7731316
0.2442000 0.9031973 0.7991447
0.2442000 0.9031973 0.8251579
0.2442000 0.9031973 0.8511710
0.2442000 0.9031973 0.8771842
0.2442000 0.9031973 0.9031973
0.2442000 0.9031973 0.9292105
0.2442000 0.9031973 0.9552237
0.2442000 0.9031973 0.9812368
0.2442000 0.9031973 1.0072501
0.2442000 0.9031973 1.0332632
0.2442000 0.9031973 1.0592762
0.2442000 0.9031973 1.0852895
0.2442000 0.9031973 1.1113025
0.2442000 0.9031973 1.1373158
0.2442000 0.9031973 1.1633289
0.2442000 0.9031973 1.1893420
0.2442000 0.9031973 1.2153553
0.2442000 0.9031973 1.2413684
0.2442000 0.9031973 1.2673815
0.2442000 0.9031973 1.2933946
0.2442000 0.9031973 1.3194077
0.2442000 0.9031973 1.3454210
0.2442000 0.9031973 1.3714341
0.2442000 0.9031973 1.3974473
0.2442000 0.9031973 1.4234605
0.2442000 0.9292105 0.7471184
0.2442000 0.9292105 0.7731316
0.2442000 0.9292105 0.7991447
0.2442000 0.9292105 0.8251579
0.2442000 0.9292105 0.8511710
0.2442000 0.9292105 0.8771842
0.2442000 0.9292105 0.9031973
0.2442000 0.9292105 0.9292105
0.2442000 0.9292105 0.9552237
0.2442000 0.9292105 0.9812368
0.2442000 0.9292105 1.0072501
0.2442000 0.9292105 1.0332632
0.2442000 0.9292105 1.0592762
0.2442000 0.9292105 1.0852895
0.2442000 0.9292105 1.1113025
0.2442000 0.9292105 1.1373158
0.2442000 0.9292105 1.1633289
0.2442000 0.9292105 1.1893420
0.2442000 0.9292105 1.2153553
0.2442000 0.9292105 1.2413684
0.2442000 0.9292105 1.2673815
0.2442000 0.9292105 1.2933946
0.2442000 0.9292105 1.3194077
0.2442000 0.9292105 1.3454210
0.2442000 0.9292105 1.3714341
0.2442000 0.9292105 1.3974473
0.2442000 0.9292105 1.4234605
0.2442000 0.9552237 0.7471184
0.2442000 0.9552237 0.7731316
0.2442000 0.9552237 0.7991447
0.2442000 0.9552237 0.8251579
0.2442000 0.9552237 0.8511710
0.2442000 0.9552237 0.8771842
0.2442000 0.9552237 0.9031973
0.2442000 0.9552237 0.9292105
0.2442000 0.9552237 0.9552237
0.2442000 0.9552237 0.9812368
0.2442000 0.9552237 1.0072501
0.2442000 0.9552237 1.0332632
0.2442000 0.9552237 1.0592762
0.2442000 0.9552237 1.0852895
0.2442000 0.9552237 1.1113025
0.2442000 0.9552237 1.1373158
0.2442000 0.9552237 1.1633289
0.2442000 0.9552237 1.1893420
0.2442000 0.9552237 1.2153553
0.2442000 0.9552237 1.2413684
0.2442000 0.9552237 1.2673815
0.2442000 0.9552237 1.2933946
0.2442000 0.9552237 1.3194077
0.2442000 0.9552237 1.3454210
0.2442000 0.9552237 1.3714341
0.2442000 0.9552237 1.3974473
0.2442000 0.9552237 1.4234605
0.2442000 0.9812368 0.7471184
0.2442000 0.9812368 0.7731316
0.2442000 0.9812368 0.7991447
0.2442000 0.9812368 0.8251579
0.2442000 0.9812368 0.8511710
0.2442000 0.9812368 0.8771842
0.2442000 0.9812368 0.9031973
0.2442000 0.9812368 0.9292105
0.2442000 0.9812368 0.9552237
0.2442000 0.9812368 0.9812368
0.2442000 0.9812368 1.0072501
0.2442000 0.9812368 1.0332632
0.2442000 0.9812368 1.0592762
0.2442000 0.9812368 1.0852895
0.2442000 0.9812368 1.1113025
0.2442000 0.9812368 1.1373158
0.2442000 0.9812368 1.1633289
0.2442000 0.9812368 1.1893420
0.2442000 0.9812368 1.2153553
0.2442000 0.9812368 1.2413684
0.2442000 0.9812368 1.2673815
0.2442000 0.9812368 1.2933946
0.2442000 0.9812368 1.3194077
0.2442000 0.9812368 1.3454210
0.2442000 0.9812368 1.3714341
0.2442000 0.9812368 1.3974473
0.2442000 0.9812368 1.4234605
0.2442000 1.0072501 0.7471184
0.2442000 1.0072501 0.7731316
0.2442000 1.0072501 0.7991447
0.2442000 1.0072501 0.8251579
0.2442000 1.0072501 0.8511710
0.2442000 1.0072501 0.8771842
0.2442000 1.0072501 0.9031973
0.2442000 1.0072501 0.9292105
0.2442000 1.0072501 0.9552237
0.2442000 1.0072501 0.9812368
0.2442000 1.0072501 1.0072501
0.2442000 1.0072501 1.0332632
0.2442000 1.0072501 1.0592762
0.2442000 1.0072501 1.0852895
0.2442000 1.0072501 1.1113025
0.2442000 1.0072501 1.1373158
0.2442000 1.0072501 1.1633289
0.2442000 1.0072501 1.1893420
0.2442000 1.0072501 1.2153553
0.2442000 1.0072501 1.2413684
0.2442000 1.0072501 1.2673815
0.2442000 1.0072501 1.2933946
0.2442000 1.0072501 1.3194077
0.2442000 1.0072501 1.3454210
0.2442000 1.0072501 1.3714341
0.2442000 1.0072501 1.3974473
0.2442000 1.0072501 1.4234605
0.2442000 1.0332632 0.7471184
0.2442000 1.0332632 0.7731316
0.2442000 1.0332632 0.7991447
0.2442000 1.0332632 0.8251579
0.2442000 1.0332632 0.8511710
0.2442000 1.0332632 0.8771842
0.2442000 1.0332632 0.9031973
0.2442000 1.0332632 0.9292105
0.2442000 1.0332632 0.9552237
0.2442000 1.0332632 0.9812368
0.2442000 1.0332632 1.0072501
0.2442000 1.0332632 1.0332632
0.2442000 1.0332632 1.0592762
0.2442000 1.0332632 1.0852895
0.2442000 1.0332632 1.1113025
0.2442000 1.0332632 1.1373158
0.2442000 1.0332632 1.1633289
0.2442000 1.0332632 1.1893420
0.2442000 1.0332632 1.2153553
0.2442000 1.0332632 1.2413684
0.2442000 1.0332632 1.2673815
0.2442000 1.0332632 1.2933946
0.2442000 1.0332632 1.3194077
0.2442000 1.0332632 1.3454210
0.2442000 1.0332632 1.3714341
0.2442000 1.0332632 1.3974473
0.2442000 1.0332632 1.4234605
0.2442000 1.0592762 0.7471184
0.2442000 1.0592762 0.7731316
0.2442000 1.0592762 0.7991447
0.2442000 1.0592762 0.8251579
0.2442000 1.0592762 0.8511710
0.2442000 1.0592762 0.8771842
0.2442000 1.0592762 0.9031973
0.2442000 1.0592762 0.9292105
0.2442000 1.0592762 0.9552237
0.2442000 1.0592762 0.9812368
0.2442000 1.0592762 1.0072501
0.2442000 1.0592762 1.0332632
0.2442000 1.0592762 1.0592762
0.2442000 1.0592762 1.0852895
0.2442000 1.0592762 1.1113025
0.2442000 1.0592762 1.1373158
0.2442000 1.0592762 1.1633289
0.2442000 1.0592762 1.1893420
0.2442000 1.0592762 1.2153553
0.2442000 1.0592762 1.2413684
0.2442000 1.0592762 1.2673815
0.2442000 1.0592762 1.2933946
0.2442000 1.0592762 1.3194077
0.2442000 1.0592762 1.3454210
0.2442000 1.0592762 1.3714341
0.2442000 1.0592762 1.3974473
0.2442000 1.0592762 1.4234605
0.2442000 1.0852895 0.7471184
0.2442000 1.0852895 0.7731316
0.2442000 1.0852895 0.7991447
0.2442000 1.0852895 0.8251579
0.2442000 1.0852895 0.8511710
0.2442000 1.0852895 0.8771842
0.2442000 1.0852895 0.9031973
0.2442000 1.0852895 0.9292105
0.2442000 1.0852895 0.9552237
0.2442000 1.0852895 0.9812368
0.2442000 1.0852895 1.0072501
0.2442000 1.0852895 1.0332632
0.2442000 1.0852895 1.0592762
0.2442000 1.0852895 1.0852895
0.2442000 1.0852895 1.1113025
0.2442000 1.0852895 1.1373158
0.2442000 1.0852895 1.1633289
0.2442000 1.0852895 1.1893420
0.2442000 1.0852895 1.2153553
0.2442000 1.0852895 1.2413684
0.2442000 1.0852895 1.2673815
0.2442000 1.0852895 1.2933946
0.2442000 1.0852895 1.3194077
0.2442000 1.0852895 1.3454210
0.2442000 1.0852895 1.3714341
0.2442000 1.0852895 1.3974473
0.2442000 1.0852895 1.4234605
0.2442000 1.1113025 0.7471184
0.2442000 1.1113025 0.7731316
0.2442000 1.1113025 0.7991447
0.2442000 1.1113025 0.8251579
0.2442000 1.1113025 0.8511710
0.2442000 1.1113025 0.8771842
0.2442000 1.1113025 0.9031973
0.2442000 1.1113025 0.9292105
0.2442000 1.1113025 0.9552237
0.2442000 1.1113025 0.9812368
0.2442000 1.1113025 1.0072501
0.2442000 1.1113025 1.0332632
0.2442000 1.1113025 1.0592762
0.2442000 1.1113025 1.0852895
0.2442000 1.1113025 1.1113025
0.2442000 1.1113025 1.1373158
0.2442000 1.1113025 1.1633289
0.2442000 1.1113025 1.1893420
0.2442000 1.1113025 1.2153553
0.2442000 1.1113025 1.2413684
0.2442000 1.1113025 1.2673815
0.2442000 1.1113025 1.2933946
0.2442000 1.1113025 1.3194077
0.2442000 1.1113025 1.3454210
0.2442000 1.1113025 1.3714341
0.2442000 1.1113025 1.3974473
0.2442000 1.1113025 1.4234605
0.2442000 1.1373158 0.7471184
0.2442000 1.1373158 0.7731316
0.2442000 1.1373158 0.7991447
0.2442000 1.1373158 0.8251579
0.2442000 1.1373158 0.8511710
0.2442000 1.1373158 0.8771842
0.2442000 1.1373158 0.9031973
0.2442000 1.1373158 0.9292105
0.2442000 1.1373158 0.9552237
0.2442000 1.1373158 0.9812368
0.2442000 1.1373158 1.0072501
0.2442000 1.1373158 1.0332632
0.2442000 1.1373158 1.0592762
0.2442000 1.1373158 1.0852895
0.2442000 1.1373158 1.1113025
0.2442000 1.1373158 1.1373158
0.2442000 1.1373158 1.1633289
0.2442000 1.1373158 1.1893420
0.2442000 1.1373158 1.2153553
0.2442000 1.1373158 1.2413684
0.2442000 1.1373158 1.2673815
0.2442000 1.1373158 1.2933946
0.2442000 1.1373158 1.3194077
0.2442000 1.1373158 1.3454210
0.2442000 1.1373158 1.3714341
0.2442000 1.1373158 1.3974473
0.2442000 1.1373158 1.4234605
0.2442000 1.1633289 0.7471184
0.2442000 1.1633289 0.7731316
0.2442000 1.1633289 0.7991447
0.2442000 1.1633289 0.8251579
0.2442000 1.1633289 0.8511710
0.2442000 1.1633289 0.8771842
0.2442000 1.1633289 0.9031973
0.2442000 1.1633289 0.9292105
0.2442000 1.1633289 0.9552237
0.2442000 1.1633289 0.9812368
0.2442000 1.1633289 1.0072501
0.2442000 1.1633289 1.0332632
0.2442000 1.1633289 1.0592762
0.2442000 1.1633289 1.0852895
0.2442000 1.1633289 1.1113025
0.2442000 1.1633289 1.1373158
0.2442000 1.1633289 1.1633289
0.2442000 1.1633289 1.1893420
0.2442000 1.1633289 1.2153553
0.2442000 1.1633289 1.2413684
0.2442000 1.1633289 1.2673815
0.2442000 1.1633289 1.2933946
0.2442000 1.1633289 1.3194077
0.2442000 1.1633289 1.3454210
0.2442000 1.1633289 1.3714341
0.2442000 1.1633289 1.3974473
0.2442000 1.1633289 1.4234605
0.2442000 1.1893420 0.7471184
0.2442000 1.1893420 0.7731316
0.2442000 1.1893420 0.7991447
0.2442000 1.1893420 0.8251579
0.2442000 1.1893420 0.8511710
0.2442000 1.1893420 0.8771842
0.2442000 1.1893420 0.9031973
0.2442000 1.1893420 0.9292105
0.2442000 1.1893420 0.9552237
0.2442000 1.1893420 0.9812368
0.2442000 1.1893420 1.0072501
0.2442000 1.1893420 1.0332632
0.2442000 1.1893420 1.0592762
0.2442000 1.1893420 1.0852895
0.2442000 1.1893420 1.1113025
0.2442000 1.1893420 1.1373158
0.2442000 1.1893420 1.1633289
0.2442000 1.1893420 1.1893420
0.2442000 1.1893420 1.2153553
0.2442000 1.1893420 1.2413684
0.2442000 1.1893420 1.2673815
0.2442000 1.1893420 1.2933946
0.2442000 1.1893420 1.3194077
0.2442000 1.1893420 1.3454210
0.2442000 1.1893420 1.3714341
0.2442000 1.1893420 1.3974473
0.2442000 1.1893420 1.4234605
0.2442000 1.2153553 0.7471184
0.2442000 1.2153553 0.7731316
0.2442000 1.2153553 0.7991447
0.2442000 1.2153553 0.8251579
0.2442000 1.2153553 0.8511710
0.2442000 1.2153553 0.8771842
0.2442000 1.2153553 0.9031973
0.2442000 1.2153553 0.9292105
0.2442000 1.2153553 0.9552237
0.2442000 1.2153553 0.9812368
0.2442000 1.2153553 1.0072501
0.2442000 1.2153553 1.0332632
0.2442000 1.2153553 1.0592762
0.2442000 1.2153553 1.0852895
0.2442000 1.2153553 1.1113025
0.2442000 1.2153553 1.1373158
0.2442000 1.2153553 1.1633289
0.2442000 1.2153553 1.1893420
0.2442000 1.2153553 1.2153553
0.2442000 1.2153553 1.2413684
0.2442000 1.2153553 1.2673815
0.2442000 1.2153553 1.2933946
0.2442000 1.2153553 1.3194077
0.2442000 1.2153553 1.3454210
0.2442000 1.2153553 1.3714341
0.2442000 1.2153553 1.3974473
0.2442000 1.2153553 1.4234605
0.2442000 1.2413684 0.7471184
0.2442000 1.2413684 0.7731316
0.2442000 1.2413684 0.7991447
0.2442000 1.2413684 0.8251579
0.2442000 1.2413684 0.8511710
0.2442000 1.2413684 0.8771842
0.2442000 1.2413684 0.9031973
0.2442000 1.2413684 0.9292105
0.2442000 1.2413684 0.9552237
0.2442000 1.2413684 0.9812368
0.2442000 1.2413684 1.0072501
0.2442000 1.2413684 1.0332632
0.2442000 1.2413684 1.0592762
0.2442000 1.2413684 1.0852895
0.2442000 1.2413684 1.1113025
0.2442000 1.2413684 1.1373158
0.2442000 1.2413684 1.1633289
0.2442000 1.2413684 1.1893420
0.2442000 1.2413684 1.2153553
0.2442000 1.2413684 1.2413684
0.2442000 1.2413684 1.2673815
0.2442000 1.2413684 1.2933946
0.2442000 1.2413684 1.3194077
0.2442000 1.2413684 1.3454210
0.2442000 1.2413684 1.3714341
0.2442000 1.2413684 1.3974473
0.2442000 1.2413684 1.4234605
0.2442000 1.2673815 0.7471184
0.2442000 1.2673815 0.7731316
0.2442000 1.2673815 0.7991447
0.2442000 1.2673815 0.8251579
0.2442000 1.2673815 0.8511710
0.2442000 1.2673815 0.8771842
0.2442000 1.2673815 0.9031973
0.2442000 1.2673815 0.9292105
0.2442000 1.2673815 0.9552237
0.2442000 1.2673815 0.9812368
0.2442000 1.2673815 1.0072501
0.2442000 1.2673815 1.0332632
0.2442000 1.2673815 1.0592762
0.2442000 1.2673815 1.0852895
0.2442000 1.2673815 1.1113025
0.2442000 1.2673815 1.1373158
0.2442000 1.2673815 1.1633289
0.2442000 1.2673815 1.1893420
0.2442000 1.2673815 1.2153553
0.2442000 1.2673815 1.2413684
0.2442000 1.2673815 1.2673815
0.2442000 1.2673815 1.2933946
0.2442000 1.2673815 1.3194077
0.2442000 1.2673815 1.3454210
0.2442000 1.2673815 1.3714341
0.2442000 1.2673815 1.3974473
0.2442000 1.2673815 1.4234605
0.2442000 1.2933946 0.7471184
0.2442000 1.2933946 0.7731316
0.2442000 1.2933946 0.7991447
0.2442000 1.2933946 0.8251579
0.2442000 1.2933946 0.8511710
0.2442000 1.2933946 0.8771842
0.2442000 1.2933946 0.9031973
0.2442000 1.2933946 0.9292105
0.2442000 1.2933946 0.9552237
0.2442000 1.2933946 0.9812368
0.2442000 1.2933946 1.0072501
0.2442000 1.2933946 1.0332632
0.2442000 1.2933946 1.0592762
0.2442000 1.2933946 1.0852895
0.2442000 1.2933946 1.1113025
0.2442000 1.2933946 1.1373158
0.2442000 1.2933946 1.1633289
0.2442000 1.2933946 1.1893420
0.2442000 1.2933946 1.2153553
0.2442000 1.2933946 1.2413684
0.2442000 1.2933946 1.2673815
0.2442000 1.2933946 1.2933946
0.2442000 1.2933946 1.3194077
0.2442000 1.2933946 1.3454210
0.2442000 1.2933946 1.3714341
0.2442000 1.2933946 1.3974473
0.2442000 1.2933946 1.4234605
0.2442000 1.3194077 0.7471184
0.2442000 1.3194077 0.7731316
0.2442000 1.3194077 0.7991447
0.2442000 1.3194077 0.8251579
0.2442000 1.3194077 0.8511710
0.2442000 1.3194077 0.8771842
0.2442000 1.3194077 0.9031973
0.2442000 1.3194077 0.9292105
0.2442000 1.3194077 0.9552237
0.2442000 1.3194077 0.9812368
0.2442000 1.3194077 1.0072501
0.2442000 1.3194077 1.0332632
0.2442000 1.3194077 1.0592762
0.2442000 1.3194077 1.0852895
0.2442000 1.3194077 1.1113025
0.2442000 1.3194077 1.1373158
0.2442000 1.3194077 1.1633289
0.2442000 1.3194077 1.1893420
0.2442000 1.3194077 1.2153553
0.2442000 1.3194077 1.2413684
0.2442000 1.3194077 1.2673815
0.2442000 1.3194077 1.2933946
0.2442000 1.3194077 1.3194077
0.2442000 1.3194077 1.3454210
0.2442000 1.3194077 1.3714341
0.2442000 1.3194077 1.3974473
0.2442000 1.3194077 1.4234605
0.2442000 1.3454210 0.7471184
0.2442000 1.3454210 0.7731316
0.2442000 1.3454210 0.7991447
0.2442000 1.3454210 0.8251579
0.2442000 1.3454210 0.8511710
0.2442000 1.3454210 0.8771842
0.2442000 1.3454210 0.9031973
0.2442000 1.3454210 0.9292105
0.2442000 1.3454210 0.9552237
0.2442000 1.3454210 0.9812368
0.2442000 1.3454210 1.0072501
0.2442000 1.3454210 1.0332632
0.2442000 1.3454210 1.0592762
0.2442000 1.3454210 1.0852895
0.2442000 1.3454210 1.1113025
0.2442000 1.3454210 1.1373158
0.2442000 1.3454210 1.1633289
0.2442000 1.3454210 1.1893420
0.2442000 1.3454210 1.2153553
0.2442000 1.3454210 1.2413684
0.2442000 1.3454210 1.2673815
0.2442000 1.3454210 1.2933946
0.2442000 1.3454210 1.3194077
0.2442000 1.3454210 1.3454210
0.2442000 1.3454210 1.3714341
0.2442000 1.3454210 1.3974473
0.2442000 1.3454210 1.4234605
0.2442000 1.3714341 0.7471184
0.2442000 1.3714341 0.7731316
0.2442000 1.3714341 0.7991447
0.2442000 1.3714341 0.8251579
0.2442000 1.3714341 0.8511710
0.2442000 1.3714341 0.8771842
0.2442000 1.3714341 0.9031973
0.2442000 1.3714341 0.9292105
0.2442000 1.3714341 0.9552237
0.2442000 1.3714341 0.9812368
0.2442000 1.3714341 1.0072501
0.2442000 1.3714341 1.0332632
0.2442000 1.3714341 1.0592762
0.2442000 1.3714341 1.0852895
0.2442000 1.3714341 1.1113025
0.2442000 1.3714341 1.1373158
0.2442000 1.3714341 1.1633289
0.2442000 1.3714341 1.1893420
0.2442000 1.3714341 1.2153553
0.2442000 1.3714341 1.2413684
0.2442000 1.3714341 1.2673815
0.2442000 1.3714341 1.2933946
0.2442000 1.3714341 1.3194077
0.2442000 1.3714341 1.3454210
0.2442000 1.3714341 1.3714341
0.2442000 1.3714341 1.3974473
0.2442000 1.3714341 1.4234605
0.2442000 1.3974473 0.7471184
0.2442000 1.3974473 0.7731316
0.2442000 1.3974473 0.7991447
0.2442000 1.3974473 0.8251579
0.2442000 1.3974473 0.8511710
0.2442000 1.3974473 0.8771842
0.2442000 1.3974473 0.9031973
0.2442000 1.3974473 0.9292105
0.2442000 1.3974473 0.9552237
0.2442000 1.3974473 0.9812368
0.2442000 1.3974473 1.0072501
0.2442000 1.3974473 1.0332632
0.2442000 1.3974473 1.0592762
0.2442000 1.3974473 1.0852895
0.2442000 1.3974473 1.1113025
0.2442000 1.3974473 1.1373158
0.2442000 1.3974473 1.1633289
0.2442000 1.3974473 1.1893420
0.2442000 1.3974473 1.2153553
0.2442000 1.3974473 1.2413684
0.2442000 1.3974473 1.2673815
0.2442000 1.3974473 1.2933946
0.2442000 1.3974473 1.3194077
0.2442000 1.3974473 1.3454210
0.2442000 1.3974473 1.3714341
0.2442000 1.3974473 1.3974473
0.2442000 1.3974473 1.4234605
0.2442000 1.4234605 0.7471184
0.2442000 1.4234605 0.7731316
0.2442000 1.4234605 0.7991447
0.2442000 1.4234605 0.8251579
0.2442000 1.4234605 0.8511710
0.2442000 1.4234605 0.8771842
0.2442000 1.4234605 0.9031973
0.2442000 1.4234605 0.9292105
0.2442000 1.4234605 0.9552237
0.2442000 1.4234605 0.9812368
0.2442000 1.4234605 1.0072501
0.2442000 1.4234605 1.0332632
0.2442000 1.4234605 1.0592762
0.2442000 1.4234605 1.0852895
0.2442000 1.4234605 1.1113025
0.2442000 1.4234605 1.1373158
0.2442000 1.4234605 1.1633289
0.2442000 1.4234605 1.1893420
0.2442000 1.4234605 1.2153553
0.2442000 1.4234605 1.2413684
0.2442000 1.4234605 1.2673815
0.2442000 1.4234605 1.2933946
0.2442000 1.4234605 1.3194077
0.2442000 1.4234605 1.3454210
0.2442000 1.4234605 1.3714341
0.2442000 1.4234605 1.3974473
0.2442000 1.4234605 1.4234605
0.2701116 0.7471184 0.7471184
0.2701116 0.7471184 0.7731316
0.2701116 0.7471184 0.7991447
0.2701116 0.7471184 0.8251579
0.2701116 0.7471184 0.8511710
0.2701116 0.7471184 0.8771842
0.2701116 0.7471184 0.9031973
0.2701116 0.7471184 0.9292105
0.2701116 0.7471184 0.9552237
0.2701116 0.7471184 0.9812368
0.2701116 0.7471184 1.0072501
0.2701116 0.7471184 1.0332632
0.2701116 0.7471184 1.0592762
0.2701116 0.7471184 1.0852895
0.2701116 0.7471184 1.1113025
0.2701116 0.7471184 1.1373158
0.2701116 0.7471184 1.1633289
0.2701116 0.7471184 1.1893420
0.2701116 0.7471184 1.2153553
0.2701116 0.7471184 1.2413684
0.2701116 0.7471184 1.2673815
0.2701116 0.7471184 1.2933946
0.2701116 0.7471184 1.3194077
0.2701116 0.7471184 1.3454210
0.2701116 0.7471184 1.3714341
0.2701116 0.7471184 1.3974473
0.2701116 0.7471184 1.4234605
0.2701116 0.7731316 0.7471184
0.2701116 0.7731316 0.7731316
0.2701116 0.7731316 0.7991447
0.2701116 0.7731316 0.8251579
0.2701116 0.7731316 0.8511710
0.2701116 0.7731316 0.8771842
0.2701116 0.7731316 0.9031973
0.2701116 0.7731316 0.9292105
0.2701116 0.7731316 0.9552237
0.2701116 0.7731316 0.9812368
0.2701116 0.7731316 1.0072501
0.2701116 0.7731316 1.0332632
0.2701116 0.7731316 1.0592762
0.2701116 0.7731316 1.0852895
0.2701116 0.7731316 1.1113025
0.2701116 0.7731316 1.1373158
0.2701116 0.7731316 1.1633289
0.2701116 0.7731316 1.1893420
0.2701116 0.7731316 1.2153553
0.2701116 0.7731316 1.2413684
0.2701116 0.7731316 1.2673815
0.2701116 0.7731316 1.2933946
0.2701116 0.7731316 1.3194077
0.2701116 0.7731316 1.3454210
0.2701116 0.7731316 1.3714341
0.2701116 0.7731316 1.3974473
0.2701116 0.7731316 1.4234605
0.2701116 0.7991447 0.7471184
0.2701116 0.7991447 0.7731316
0.2701116 0.7991447 0.7991447
0.2701116 0.7991447 0.8251579
0.2701116 0.7991447 0.8511710
0.2701116 0.7991447 0.8771842
