graphics/cube/Lab_float-IllumA_2deg-Part2_102.cube
TITLE "QA_Lab_float-IllumA_2deg-Part2_102"
# Copyright (c) 2026 @xsscx David H Hoyt LLC
# https://xss.cx
# Profiles applied (by profile description):
# - Float encoding of CIELAB for standard 2deg observer under Illuminant A using Wpt based non-linear CAT
LUT_3D_SIZE 16
LUT_3D_INPUT_RANGE 0.108500 0.862500
0.001085 0.502701 0.502562
0.001085 0.502701 0.502647
0.001085 0.502701 0.502694
0.001085 0.502701 0.502694
0.001085 0.502701 0.502694
0.001085 0.502701 0.502694
0.001085 0.502701 0.502694
0.001085 0.502701 0.502694
0.001085 0.502701 0.502694
0.001085 0.502701 0.502694
0.001085 0.502701 0.502694
0.001085 0.502701 0.502694
0.001085 0.502701 0.502694
0.001085 0.502701 0.502694
0.001085 0.502701 0.502694
0.001085 0.502701 0.502694
0.001085 0.502926 0.502562
0.001085 0.502926 0.502647
0.001085 0.502926 0.502694
0.001085 0.502926 0.502694
0.001085 0.502926 0.502694
0.001085 0.502926 0.502694
0.001085 0.502926 0.502694
0.001085 0.502926 0.502694
0.001085 0.502926 0.502694
0.001085 0.502926 0.502694
0.001085 0.502926 0.502694
0.001085 0.502926 0.502694
0.001085 0.502926 0.502694
0.001085 0.502926 0.502694
0.001085 0.502926 0.502694
0.001085 0.502926 0.502694
0.001085 0.503150 0.502562
0.001085 0.503150 0.502647
0.001085 0.503150 0.502694
0.001085 0.503150 0.502694
0.001085 0.503150 0.502694
0.001085 0.503150 0.502694
0.001085 0.503150 0.502694
0.001085 0.503150 0.502694
0.001085 0.503150 0.502694
0.001085 0.503150 0.502694
0.001085 0.503150 0.502694
0.001085 0.503150 0.502694
0.001085 0.503150 0.502694
0.001085 0.503150 0.502694
0.001085 0.503150 0.502694
0.001085 0.503150 0.502694
0.001085 0.503375 0.502562
0.001085 0.503375 0.502647
0.001085 0.503375 0.502694
0.001085 0.503375 0.502694
0.001085 0.503375 0.502694
0.001085 0.503375 0.502694
0.001085 0.503375 0.502694
0.001085 0.503375 0.502694
0.001085 0.503375 0.502694
0.001085 0.503375 0.502694
0.001085 0.503375 0.502694
0.001085 0.503375 0.502694
0.001085 0.503375 0.502694
0.001085 0.503375 0.502694
0.001085 0.503375 0.502694
0.001085 0.503375 0.502694
0.001085 0.503599 0.502562
0.001085 0.503599 0.502647
0.001085 0.503599 0.502694
0.001085 0.503599 0.502694
0.001085 0.503599 0.502694
0.001085 0.503599 0.502694
0.001085 0.503599 0.502694
0.001085 0.503599 0.502694
0.001085 0.503599 0.502694
0.001085 0.503599 0.502694
0.001085 0.503599 0.502694
0.001085 0.503599 0.502694
0.001085 0.503599 0.502694
0.001085 0.503599 0.502694
0.001085 0.503599 0.502694
0.001085 0.503599 0.502694
0.001085 0.503824 0.502562
0.001085 0.503824 0.502647
0.001085 0.503824 0.502694
0.001085 0.503824 0.502694
0.001085 0.503824 0.502694
0.001085 0.503824 0.502694
0.001085 0.503824 0.502694
0.001085 0.503824 0.502694
0.001085 0.503824 0.502694
0.001085 0.503824 0.502694
0.001085 0.503824 0.502694
0.001085 0.503824 0.502694
0.001085 0.503824 0.502694
0.001085 0.503824 0.502694
0.001085 0.503824 0.502694
0.001085 0.503824 0.502694
0.001085 0.504048 0.502562
0.001085 0.504048 0.502647
0.001085 0.504048 0.502694
0.001085 0.504048 0.502694
0.001085 0.504048 0.502694
0.001085 0.504048 0.502694
0.001085 0.504048 0.502694
0.001085 0.504048 0.502694
0.001085 0.504048 0.502694
0.001085 0.504048 0.502694
0.001085 0.504048 0.502694
0.001085 0.504048 0.502694
0.001085 0.504048 0.502694
0.001085 0.504048 0.502694
0.001085 0.504048 0.502694
0.001085 0.504048 0.502694
0.001085 0.504273 0.502562
0.001085 0.504273 0.502647
0.001085 0.504273 0.502694
0.001085 0.504273 0.502694
0.001085 0.504273 0.502694
0.001085 0.504273 0.502694
0.001085 0.504273 0.502694
0.001085 0.504273 0.502694
0.001085 0.504273 0.502694
0.001085 0.504273 0.502694
0.001085 0.504273 0.502694
0.001085 0.504273 0.502694
0.001085 0.504273 0.502694
0.001085 0.504273 0.502694
0.001085 0.504273 0.502694
0.001085 0.504273 0.502694
0.001085 0.504498 0.502562
0.001085 0.504498 0.502647
0.001085 0.504498 0.502694
0.001085 0.504498 0.502694
0.001085 0.504498 0.502694
0.001085 0.504498 0.502694
0.001085 0.504498 0.502694
0.001085 0.504498 0.502694
0.001085 0.504498 0.502694
0.001085 0.504498 0.502694
0.001085 0.504498 0.502694
0.001085 0.504498 0.502694
0.001085 0.504498 0.502694
0.001085 0.504498 0.502694
0.001085 0.504498 0.502694
0.001085 0.504498 0.502694
0.001085 0.504722 0.502562
0.001085 0.504722 0.502647
0.001085 0.504722 0.502694
0.001085 0.504722 0.502694
0.001085 0.504722 0.502694
0.001085 0.504722 0.502694
0.001085 0.504722 0.502694
0.001085 0.504722 0.502694
0.001085 0.504722 0.502694
0.001085 0.504722 0.502694
0.001085 0.504722 0.502694
0.001085 0.504722 0.502694
0.001085 0.504722 0.502694
0.001085 0.504722 0.502694
0.001085 0.504722 0.502694
0.001085 0.504722 0.502694
0.001085 0.504947 0.502562
0.001085 0.504947 0.502647
0.001085 0.504947 0.502694
0.001085 0.504947 0.502694
0.001085 0.504947 0.502694
0.001085 0.504947 0.502694
0.001085 0.504947 0.502694
0.001085 0.504947 0.502694
0.001085 0.504947 0.502694
0.001085 0.504947 0.502694
0.001085 0.504947 0.502694
0.001085 0.504947 0.502694
0.001085 0.504947 0.502694
0.001085 0.504947 0.502694
0.001085 0.504947 0.502694
0.001085 0.504947 0.502694
0.001085 0.505171 0.502562
0.001085 0.505171 0.502647
0.001085 0.505171 0.502694
0.001085 0.505171 0.502694
0.001085 0.505171 0.502694
0.001085 0.505171 0.502694
0.001085 0.505171 0.502694
0.001085 0.505171 0.502694
0.001085 0.505171 0.502694
0.001085 0.505171 0.502694
0.001085 0.505171 0.502694
0.001085 0.505171 0.502694
0.001085 0.505171 0.502694
0.001085 0.505171 0.502694
0.001085 0.505171 0.502694
0.001085 0.505171 0.502694
0.001085 0.505396 0.502562
0.001085 0.505396 0.502647
0.001085 0.505396 0.502694
0.001085 0.505396 0.502694
0.001085 0.505396 0.502694
0.001085 0.505396 0.502694
0.001085 0.505396 0.502694
0.001085 0.505396 0.502694
0.001085 0.505396 0.502694
0.001085 0.505396 0.502694
0.001085 0.505396 0.502694
0.001085 0.505396 0.502694
0.001085 0.505396 0.502694
0.001085 0.505396 0.502694
0.001085 0.505396 0.502694
0.001085 0.505396 0.502694
0.001085 0.505620 0.502562
0.001085 0.505620 0.502647
0.001085 0.505620 0.502694
0.001085 0.505620 0.502694
0.001085 0.505620 0.502694
0.001085 0.505620 0.502694
0.001085 0.505620 0.502694
0.001085 0.505620 0.502694
0.001085 0.505620 0.502694
0.001085 0.505620 0.502694
0.001085 0.505620 0.502694
0.001085 0.505620 0.502694
0.001085 0.505620 0.502694
0.001085 0.505620 0.502694
0.001085 0.505620 0.502694
0.001085 0.505620 0.502694
0.001085 0.505845 0.502562
0.001085 0.505845 0.502647
0.001085 0.505845 0.502694
0.001085 0.505845 0.502694
0.001085 0.505845 0.502694
0.001085 0.505845 0.502694
0.001085 0.505845 0.502694
0.001085 0.505845 0.502694
0.001085 0.505845 0.502694
0.001085 0.505845 0.502694
0.001085 0.505845 0.502694
0.001085 0.505845 0.502694
0.001085 0.505845 0.502694
0.001085 0.505845 0.502694
0.001085 0.505845 0.502694
0.001085 0.505845 0.502694
0.001085 0.506070 0.502562
0.001085 0.506070 0.502647
0.001085 0.506070 0.502694
0.001085 0.506070 0.502694
0.001085 0.506070 0.502694
0.001085 0.506070 0.502694
0.001085 0.506070 0.502694
0.001085 0.506070 0.502694
0.001085 0.506070 0.502694
0.001085 0.506070 0.502694
0.001085 0.506070 0.502694
0.001085 0.506070 0.502694
0.001085 0.506070 0.502694
0.001085 0.506070 0.502694
0.001085 0.506070 0.502694
0.001085 0.506070 0.502694
0.001588 0.502819 0.502755
0.001588 0.502819 0.502840
0.001588 0.502819 0.502925
0.001588 0.502819 0.503010
0.001588 0.502819 0.503034
0.001588 0.502819 0.503034
0.001588 0.502819 0.503034
0.001588 0.502819 0.503034
0.001588 0.502819 0.503034
0.001588 0.502819 0.503034
0.001588 0.502819 0.503034
0.001588 0.502819 0.503034
0.001588 0.502819 0.503034
0.001588 0.502819 0.503034
0.001588 0.502819 0.503034
0.001588 0.502819 0.503034
0.001588 0.503044 0.502755
0.001588 0.503044 0.502840
0.001588 0.503044 0.502925
0.001588 0.503044 0.503010
0.001588 0.503044 0.503034
0.001588 0.503044 0.503034
0.001588 0.503044 0.503034
0.001588 0.503044 0.503034
0.001588 0.503044 0.503034
0.001588 0.503044 0.503034
0.001588 0.503044 0.503034
0.001588 0.503044 0.503034
0.001588 0.503044 0.503034
0.001588 0.503044 0.503034
0.001588 0.503044 0.503034
0.001588 0.503044 0.503034
0.001588 0.503268 0.502755
0.001588 0.503268 0.502840
0.001588 0.503268 0.502925
0.001588 0.503268 0.503010
0.001588 0.503268 0.503034
0.001588 0.503268 0.503034
0.001588 0.503268 0.503034
0.001588 0.503268 0.503034
0.001588 0.503268 0.503034
0.001588 0.503268 0.503034
0.001588 0.503268 0.503034
0.001588 0.503268 0.503034
0.001588 0.503268 0.503034
0.001588 0.503268 0.503034
0.001588 0.503268 0.503034
0.001588 0.503268 0.503034
0.001588 0.503493 0.502755
0.001588 0.503493 0.502840
0.001588 0.503493 0.502925
0.001588 0.503493 0.503010
0.001588 0.503493 0.503034
0.001588 0.503493 0.503034
0.001588 0.503493 0.503034
0.001588 0.503493 0.503034
0.001588 0.503493 0.503034
0.001588 0.503493 0.503034
0.001588 0.503493 0.503034
0.001588 0.503493 0.503034
0.001588 0.503493 0.503034
0.001588 0.503493 0.503034
0.001588 0.503493 0.503034
0.001588 0.503493 0.503034
0.001588 0.503718 0.502755
0.001588 0.503718 0.502840
0.001588 0.503718 0.502925
0.001588 0.503718 0.503010
0.001588 0.503718 0.503034
0.001588 0.503718 0.503034
0.001588 0.503718 0.503034
0.001588 0.503718 0.503034
0.001588 0.503718 0.503034
0.001588 0.503718 0.503034
0.001588 0.503718 0.503034
0.001588 0.503718 0.503034
0.001588 0.503718 0.503034
0.001588 0.503718 0.503034
0.001588 0.503718 0.503034
0.001588 0.503718 0.503034
0.001588 0.503942 0.502755
0.001588 0.503942 0.502840
0.001588 0.503942 0.502925
0.001588 0.503942 0.503010
0.001588 0.503942 0.503034
0.001588 0.503942 0.503034
0.001588 0.503942 0.503034
0.001588 0.503942 0.503034
0.001588 0.503942 0.503034
0.001588 0.503942 0.503034
0.001588 0.503942 0.503034
0.001588 0.503942 0.503034
0.001588 0.503942 0.503034
0.001588 0.503942 0.503034
0.001588 0.503942 0.503034
0.001588 0.503942 0.503034
0.001588 0.504167 0.502755
0.001588 0.504167 0.502840
0.001588 0.504167 0.502925
0.001588 0.504167 0.503010
0.001588 0.504167 0.503034
0.001588 0.504167 0.503034
0.001588 0.504167 0.503034
0.001588 0.504167 0.503034
0.001588 0.504167 0.503034
0.001588 0.504167 0.503034
0.001588 0.504167 0.503034
0.001588 0.504167 0.503034
0.001588 0.504167 0.503034
0.001588 0.504167 0.503034
0.001588 0.504167 0.503034
0.001588 0.504167 0.503034
0.001588 0.504391 0.502755
0.001588 0.504391 0.502840
0.001588 0.504391 0.502925
0.001588 0.504391 0.503010
0.001588 0.504391 0.503034
0.001588 0.504391 0.503034
0.001588 0.504391 0.503034
0.001588 0.504391 0.503034
0.001588 0.504391 0.503034
0.001588 0.504391 0.503034
0.001588 0.504391 0.503034
0.001588 0.504391 0.503034
0.001588 0.504391 0.503034
0.001588 0.504391 0.503034
0.001588 0.504391 0.503034
0.001588 0.504391 0.503034
0.001588 0.504616 0.502755
0.001588 0.504616 0.502840
0.001588 0.504616 0.502925
0.001588 0.504616 0.503010
0.001588 0.504616 0.503034
0.001588 0.504616 0.503034
0.001588 0.504616 0.503034
0.001588 0.504616 0.503034
0.001588 0.504616 0.503034
0.001588 0.504616 0.503034
0.001588 0.504616 0.503034
0.001588 0.504616 0.503034
0.001588 0.504616 0.503034
0.001588 0.504616 0.503034
0.001588 0.504616 0.503034
0.001588 0.504616 0.503034
0.001588 0.504840 0.502755
0.001588 0.504840 0.502840
0.001588 0.504840 0.502925
0.001588 0.504840 0.503010
0.001588 0.504840 0.503034
0.001588 0.504840 0.503034
0.001588 0.504840 0.503034
0.001588 0.504840 0.503034
0.001588 0.504840 0.503034
0.001588 0.504840 0.503034
0.001588 0.504840 0.503034
0.001588 0.504840 0.503034
0.001588 0.504840 0.503034
0.001588 0.504840 0.503034
0.001588 0.504840 0.503034
0.001588 0.504840 0.503034
0.001588 0.505065 0.502755
0.001588 0.505065 0.502840
0.001588 0.505065 0.502925
0.001588 0.505065 0.503010
0.001588 0.505065 0.503034
0.001588 0.505065 0.503034
0.001588 0.505065 0.503034
0.001588 0.505065 0.503034
0.001588 0.505065 0.503034
0.001588 0.505065 0.503034
0.001588 0.505065 0.503034
0.001588 0.505065 0.503034
0.001588 0.505065 0.503034
0.001588 0.505065 0.503034
0.001588 0.505065 0.503034
0.001588 0.505065 0.503034
0.001588 0.505290 0.502755
0.001588 0.505290 0.502840
0.001588 0.505290 0.502925
0.001588 0.505290 0.503010
0.001588 0.505290 0.503034
0.001588 0.505290 0.503034
0.001588 0.505290 0.503034
0.001588 0.505290 0.503034
0.001588 0.505290 0.503034
0.001588 0.505290 0.503034
0.001588 0.505290 0.503034
0.001588 0.505290 0.503034
0.001588 0.505290 0.503034
0.001588 0.505290 0.503034
0.001588 0.505290 0.503034
0.001588 0.505290 0.503034
0.001588 0.505514 0.502755
0.001588 0.505514 0.502840
0.001588 0.505514 0.502925
0.001588 0.505514 0.503010
0.001588 0.505514 0.503034
0.001588 0.505514 0.503034
0.001588 0.505514 0.503034
0.001588 0.505514 0.503034
0.001588 0.505514 0.503034
0.001588 0.505514 0.503034
0.001588 0.505514 0.503034
0.001588 0.505514 0.503034
0.001588 0.505514 0.503034
0.001588 0.505514 0.503034
0.001588 0.505514 0.503034
0.001588 0.505514 0.503034
0.001588 0.505739 0.502755
0.001588 0.505739 0.502840
0.001588 0.505739 0.502925
0.001588 0.505739 0.503010
0.001588 0.505739 0.503034
0.001588 0.505739 0.503034
0.001588 0.505739 0.503034
0.001588 0.505739 0.503034
0.001588 0.505739 0.503034
0.001588 0.505739 0.503034
0.001588 0.505739 0.503034
0.001588 0.505739 0.503034
0.001588 0.505739 0.503034
0.001588 0.505739 0.503034
0.001588 0.505739 0.503034
0.001588 0.505739 0.503034
0.001588 0.505964 0.502755
0.001588 0.505964 0.502840
0.001588 0.505964 0.502925
0.001588 0.505964 0.503010
0.001588 0.505964 0.503034
0.001588 0.505964 0.503034
0.001588 0.505964 0.503034
0.001588 0.505964 0.503034
0.001588 0.505964 0.503034
0.001588 0.505964 0.503034
0.001588 0.505964 0.503034
0.001588 0.505964 0.503034
0.001588 0.505964 0.503034
0.001588 0.505964 0.503034
0.001588 0.505964 0.503034
0.001588 0.505964 0.503034
0.001588 0.506188 0.502755
0.001588 0.506188 0.502840
0.001588 0.506188 0.502925
0.001588 0.506188 0.503010
0.001588 0.506188 0.503034
0.001588 0.506188 0.503034
0.001588 0.506188 0.503034
0.001588 0.506188 0.503034
0.001588 0.506188 0.503034
0.001588 0.506188 0.503034
0.001588 0.506188 0.503034
0.001588 0.506188 0.503034
0.001588 0.506188 0.503034
0.001588 0.506188 0.503034
0.001588 0.506188 0.503034
0.001588 0.506188 0.503034
0.002090 0.502938 0.502948
0.002090 0.502938 0.503033
0.002090 0.502938 0.503118
0.002090 0.502938 0.503203
0.002090 0.502938 0.503288
0.002090 0.502938 0.503373
0.002090 0.502938 0.503374
0.002090 0.502938 0.503374
0.002090 0.502938 0.503374
0.002090 0.502938 0.503374
0.002090 0.502938 0.503374
0.002090 0.502938 0.503374
0.002090 0.502938 0.503374
0.002090 0.502938 0.503374
0.002090 0.502938 0.503374
0.002090 0.502938 0.503374
0.002090 0.503162 0.502948
0.002090 0.503162 0.503033
0.002090 0.503162 0.503118
0.002090 0.503162 0.503203
0.002090 0.503162 0.503288
0.002090 0.503162 0.503373
0.002090 0.503162 0.503374
0.002090 0.503162 0.503374
0.002090 0.503162 0.503374
0.002090 0.503162 0.503374
0.002090 0.503162 0.503374
0.002090 0.503162 0.503374
0.002090 0.503162 0.503374
0.002090 0.503162 0.503374
0.002090 0.503162 0.503374
0.002090 0.503162 0.503374
0.002090 0.503387 0.502948
0.002090 0.503387 0.503033
0.002090 0.503387 0.503118
0.002090 0.503387 0.503203
0.002090 0.503387 0.503288
0.002090 0.503387 0.503373
0.002090 0.503387 0.503374
0.002090 0.503387 0.503374
0.002090 0.503387 0.503374
0.002090 0.503387 0.503374
0.002090 0.503387 0.503374
0.002090 0.503387 0.503374
0.002090 0.503387 0.503374
0.002090 0.503387 0.503374
0.002090 0.503387 0.503374
0.002090 0.503387 0.503374
0.002090 0.503611 0.502948
0.002090 0.503611 0.503033
0.002090 0.503611 0.503118
0.002090 0.503611 0.503203
0.002090 0.503611 0.503288
0.002090 0.503611 0.503373
0.002090 0.503611 0.503374
0.002090 0.503611 0.503374
0.002090 0.503611 0.503374
0.002090 0.503611 0.503374
0.002090 0.503611 0.503374
0.002090 0.503611 0.503374
0.002090 0.503611 0.503374
0.002090 0.503611 0.503374
0.002090 0.503611 0.503374
0.002090 0.503611 0.503374
0.002090 0.503836 0.502948
0.002090 0.503836 0.503033
0.002090 0.503836 0.503118
0.002090 0.503836 0.503203
0.002090 0.503836 0.503288
0.002090 0.503836 0.503373
0.002090 0.503836 0.503374
0.002090 0.503836 0.503374
0.002090 0.503836 0.503374
0.002090 0.503836 0.503374
0.002090 0.503836 0.503374
0.002090 0.503836 0.503374
0.002090 0.503836 0.503374
0.002090 0.503836 0.503374
0.002090 0.503836 0.503374
0.002090 0.503836 0.503374
0.002090 0.504061 0.502948
0.002090 0.504061 0.503033
0.002090 0.504061 0.503118
0.002090 0.504061 0.503203
0.002090 0.504061 0.503288
0.002090 0.504061 0.503373
0.002090 0.504061 0.503374
0.002090 0.504061 0.503374
0.002090 0.504061 0.503374
0.002090 0.504061 0.503374
0.002090 0.504061 0.503374
0.002090 0.504061 0.503374
0.002090 0.504061 0.503374
0.002090 0.504061 0.503374
0.002090 0.504061 0.503374
0.002090 0.504061 0.503374
0.002090 0.504285 0.502948
0.002090 0.504285 0.503033
0.002090 0.504285 0.503118
0.002090 0.504285 0.503203
0.002090 0.504285 0.503288
0.002090 0.504285 0.503373
0.002090 0.504285 0.503374
0.002090 0.504285 0.503374
0.002090 0.504285 0.503374
0.002090 0.504285 0.503374
0.002090 0.504285 0.503374
0.002090 0.504285 0.503374
0.002090 0.504285 0.503374
0.002090 0.504285 0.503374
0.002090 0.504285 0.503374
0.002090 0.504285 0.503374
0.002090 0.504510 0.502948
0.002090 0.504510 0.503033
0.002090 0.504510 0.503118
0.002090 0.504510 0.503203
0.002090 0.504510 0.503288
0.002090 0.504510 0.503373
0.002090 0.504510 0.503374
0.002090 0.504510 0.503374
0.002090 0.504510 0.503374
0.002090 0.504510 0.503374
0.002090 0.504510 0.503374
0.002090 0.504510 0.503374
0.002090 0.504510 0.503374
0.002090 0.504510 0.503374
0.002090 0.504510 0.503374
0.002090 0.504510 0.503374
0.002090 0.504734 0.502948
0.002090 0.504734 0.503033
0.002090 0.504734 0.503118
0.002090 0.504734 0.503203
0.002090 0.504734 0.503288
0.002090 0.504734 0.503373
0.002090 0.504734 0.503374
0.002090 0.504734 0.503374
0.002090 0.504734 0.503374
0.002090 0.504734 0.503374
0.002090 0.504734 0.503374
0.002090 0.504734 0.503374
0.002090 0.504734 0.503374
0.002090 0.504734 0.503374
0.002090 0.504734 0.503374
0.002090 0.504734 0.503374
0.002090 0.504959 0.502948
0.002090 0.504959 0.503033
0.002090 0.504959 0.503118
0.002090 0.504959 0.503203
0.002090 0.504959 0.503288
0.002090 0.504959 0.503373
0.002090 0.504959 0.503374
0.002090 0.504959 0.503374
0.002090 0.504959 0.503374
0.002090 0.504959 0.503374
0.002090 0.504959 0.503374
0.002090 0.504959 0.503374
0.002090 0.504959 0.503374
0.002090 0.504959 0.503374
0.002090 0.504959 0.503374
0.002090 0.504959 0.503374
0.002090 0.505183 0.502948
0.002090 0.505183 0.503033
0.002090 0.505183 0.503118
0.002090 0.505183 0.503203
0.002090 0.505183 0.503288
0.002090 0.505183 0.503373
0.002090 0.505183 0.503374
0.002090 0.505183 0.503374
0.002090 0.505183 0.503374
0.002090 0.505183 0.503374
0.002090 0.505183 0.503374
0.002090 0.505183 0.503374
0.002090 0.505183 0.503374
0.002090 0.505183 0.503374
0.002090 0.505183 0.503374
0.002090 0.505183 0.503374
0.002090 0.505408 0.502948
0.002090 0.505408 0.503033
0.002090 0.505408 0.503118
0.002090 0.505408 0.503203
0.002090 0.505408 0.503288
0.002090 0.505408 0.503373
0.002090 0.505408 0.503374
0.002090 0.505408 0.503374
0.002090 0.505408 0.503374
0.002090 0.505408 0.503374
0.002090 0.505408 0.503374
0.002090 0.505408 0.503374
0.002090 0.505408 0.503374
0.002090 0.505408 0.503374
0.002090 0.505408 0.503374
0.002090 0.505408 0.503374
0.002090 0.505633 0.502948
0.002090 0.505633 0.503033
0.002090 0.505633 0.503118
0.002090 0.505633 0.503203
0.002090 0.505633 0.503288
0.002090 0.505633 0.503373
0.002090 0.505633 0.503374
0.002090 0.505633 0.503374
0.002090 0.505633 0.503374
0.002090 0.505633 0.503374
0.002090 0.505633 0.503374
0.002090 0.505633 0.503374
0.002090 0.505633 0.503374
0.002090 0.505633 0.503374
0.002090 0.505633 0.503374
0.002090 0.505633 0.503374
0.002090 0.505857 0.502948
0.002090 0.505857 0.503033
0.002090 0.505857 0.503118
0.002090 0.505857 0.503203
0.002090 0.505857 0.503288
0.002090 0.505857 0.503373
0.002090 0.505857 0.503374
0.002090 0.505857 0.503374
0.002090 0.505857 0.503374
0.002090 0.505857 0.503374
0.002090 0.505857 0.503374
0.002090 0.505857 0.503374
0.002090 0.505857 0.503374
0.002090 0.505857 0.503374
0.002090 0.505857 0.503374
0.002090 0.505857 0.503374
0.002090 0.506082 0.502948
0.002090 0.506082 0.503033
0.002090 0.506082 0.503118
0.002090 0.506082 0.503203
0.002090 0.506082 0.503288
0.002090 0.506082 0.503373
0.002090 0.506082 0.503374
0.002090 0.506082 0.503374
0.002090 0.506082 0.503374
0.002090 0.506082 0.503374
0.002090 0.506082 0.503374
0.002090 0.506082 0.503374
0.002090 0.506082 0.503374
0.002090 0.506082 0.503374
0.002090 0.506082 0.503374
0.002090 0.506082 0.503374
0.002090 0.506306 0.502948
0.002090 0.506306 0.503033
0.002090 0.506306 0.503118
0.002090 0.506306 0.503203
0.002090 0.506306 0.503288
0.002090 0.506306 0.503373
0.002090 0.506306 0.503374
0.002090 0.506306 0.503374
0.002090 0.506306 0.503374
0.002090 0.506306 0.503374
0.002090 0.506306 0.503374
0.002090 0.506306 0.503374
0.002090 0.506306 0.503374
0.002090 0.506306 0.503374
0.002090 0.506306 0.503374
0.002090 0.506306 0.503374
0.002593 0.503056 0.503141
0.002593 0.503056 0.503226
0.002593 0.503056 0.503311
0.002593 0.503056 0.503396
0.002593 0.503056 0.503481
0.002593 0.503056 0.503566
0.002593 0.503056 0.503651
0.002593 0.503056 0.503714
0.002593 0.503056 0.503714
0.002593 0.503056 0.503714
0.002593 0.503056 0.503714
0.002593 0.503056 0.503714
0.002593 0.503056 0.503714
0.002593 0.503056 0.503714
0.002593 0.503056 0.503714
0.002593 0.503056 0.503714
0.002593 0.503281 0.503141
0.002593 0.503281 0.503226
0.002593 0.503281 0.503311
0.002593 0.503281 0.503396
0.002593 0.503281 0.503481
0.002593 0.503281 0.503566
0.002593 0.503281 0.503651
0.002593 0.503281 0.503714
0.002593 0.503281 0.503714
0.002593 0.503281 0.503714
0.002593 0.503281 0.503714
0.002593 0.503281 0.503714
0.002593 0.503281 0.503714
0.002593 0.503281 0.503714
0.002593 0.503281 0.503714
0.002593 0.503281 0.503714
0.002593 0.503505 0.503141
0.002593 0.503505 0.503226
0.002593 0.503505 0.503311
0.002593 0.503505 0.503396
0.002593 0.503505 0.503481
0.002593 0.503505 0.503566
0.002593 0.503505 0.503651
0.002593 0.503505 0.503714
0.002593 0.503505 0.503714
0.002593 0.503505 0.503714
0.002593 0.503505 0.503714
0.002593 0.503505 0.503714
0.002593 0.503505 0.503714
0.002593 0.503505 0.503714
0.002593 0.503505 0.503714
0.002593 0.503505 0.503714
0.002593 0.503730 0.503141
0.002593 0.503730 0.503226
0.002593 0.503730 0.503311
0.002593 0.503730 0.503396
0.002593 0.503730 0.503481
0.002593 0.503730 0.503566
0.002593 0.503730 0.503651
0.002593 0.503730 0.503714
0.002593 0.503730 0.503714
0.002593 0.503730 0.503714
0.002593 0.503730 0.503714
0.002593 0.503730 0.503714
0.002593 0.503730 0.503714
0.002593 0.503730 0.503714
0.002593 0.503730 0.503714
0.002593 0.503730 0.503714
0.002593 0.503954 0.503141
0.002593 0.503954 0.503226
0.002593 0.503954 0.503311
0.002593 0.503954 0.503396
0.002593 0.503954 0.503481
0.002593 0.503954 0.503566
0.002593 0.503954 0.503651
0.002593 0.503954 0.503714
0.002593 0.503954 0.503714
0.002593 0.503954 0.503714
0.002593 0.503954 0.503714
0.002593 0.503954 0.503714
0.002593 0.503954 0.503714
0.002593 0.503954 0.503714
0.002593 0.503954 0.503714
0.002593 0.503954 0.503714
0.002593 0.504179 0.503141
0.002593 0.504179 0.503226
0.002593 0.504179 0.503311
0.002593 0.504179 0.503396
0.002593 0.504179 0.503481
0.002593 0.504179 0.503566
0.002593 0.504179 0.503651
0.002593 0.504179 0.503714
0.002593 0.504179 0.503714
0.002593 0.504179 0.503714
0.002593 0.504179 0.503714
0.002593 0.504179 0.503714
0.002593 0.504179 0.503714
0.002593 0.504179 0.503714
0.002593 0.504179 0.503714
0.002593 0.504179 0.503714
0.002593 0.504403 0.503141
0.002593 0.504403 0.503226
0.002593 0.504403 0.503311
0.002593 0.504403 0.503396
0.002593 0.504403 0.503481
0.002593 0.504403 0.503566
0.002593 0.504403 0.503651
0.002593 0.504403 0.503714
0.002593 0.504403 0.503714
0.002593 0.504403 0.503714
0.002593 0.504403 0.503714
0.002593 0.504403 0.503714
0.002593 0.504403 0.503714
