graphics/cube/Lab_int-D65_2deg-Part1_861.cube
TITLE "QA_Lab_int-D65_2deg-Part1_861"
# Copyright (c) 2026 @xsscx David H Hoyt LLC
# https://xss.cx
# Profiles applied (by profile description):
# - Integer encoding of CIELAB D65 with standard 2deg observer using Wpt based MAT PCC
LUT_3D_SIZE 30
LUT_3D_INPUT_RANGE 0.12 0.99
0.12 0.12 0.12
0.12 0.12 0.15
0.12 0.12 0.18
0.12 0.12 0.21
0.12 0.12 0.24
0.12 0.12 0.27
0.12 0.12 0.30
0.12 0.12 0.33
0.12 0.12 0.36
0.12 0.12 0.39
0.12 0.12 0.42
0.12 0.12 0.45
0.12 0.12 0.48
0.12 0.12 0.51
0.12 0.12 0.54
0.12 0.12 0.57
0.12 0.12 0.60
0.12 0.12 0.63
0.12 0.12 0.66
0.12 0.12 0.69
0.12 0.12 0.72
0.12 0.12 0.75
0.12 0.12 0.78
0.12 0.12 0.81
0.12 0.12 0.84
0.12 0.12 0.87
0.12 0.12 0.90
0.12 0.12 0.93
0.12 0.12 0.96
0.12 0.12 0.99
0.12 0.15 0.12
0.12 0.15 0.15
0.12 0.15 0.18
0.12 0.15 0.21
0.12 0.15 0.24
0.12 0.15 0.27
0.12 0.15 0.30
0.12 0.15 0.33
0.12 0.15 0.36
0.12 0.15 0.39
0.12 0.15 0.42
0.12 0.15 0.45
0.12 0.15 0.48
0.12 0.15 0.51
0.12 0.15 0.54
0.12 0.15 0.57
0.12 0.15 0.60
0.12 0.15 0.63
0.12 0.15 0.66
0.12 0.15 0.69
0.12 0.15 0.72
0.12 0.15 0.75
0.12 0.15 0.78
0.12 0.15 0.81
0.12 0.15 0.84
0.12 0.15 0.87
0.12 0.15 0.90
0.12 0.15 0.93
0.12 0.15 0.96
0.12 0.15 0.99
0.12 0.18 0.12
0.12 0.18 0.15
0.12 0.18 0.18
0.12 0.18 0.21
0.12 0.18 0.24
0.12 0.18 0.27
0.12 0.18 0.30
0.12 0.18 0.33
0.12 0.18 0.36
0.12 0.18 0.39
0.12 0.18 0.42
0.12 0.18 0.45
0.12 0.18 0.48
0.12 0.18 0.51
0.12 0.18 0.54
0.12 0.18 0.57
0.12 0.18 0.60
0.12 0.18 0.63
0.12 0.18 0.66
0.12 0.18 0.69
0.12 0.18 0.72
0.12 0.18 0.75
0.12 0.18 0.78
0.12 0.18 0.81
0.12 0.18 0.84
0.12 0.18 0.87
0.12 0.18 0.90
0.12 0.18 0.93
0.12 0.18 0.96
0.12 0.18 0.99
0.12 0.21 0.12
0.12 0.21 0.15
0.12 0.21 0.18
0.12 0.21 0.21
0.12 0.21 0.24
0.12 0.21 0.27
0.12 0.21 0.30
0.12 0.21 0.33
0.12 0.21 0.36
0.12 0.21 0.39
0.12 0.21 0.42
0.12 0.21 0.45
0.12 0.21 0.48
0.12 0.21 0.51
0.12 0.21 0.54
0.12 0.21 0.57
0.12 0.21 0.60
0.12 0.21 0.63
0.12 0.21 0.66
0.12 0.21 0.69
0.12 0.21 0.72
0.12 0.21 0.75
0.12 0.21 0.78
0.12 0.21 0.81
0.12 0.21 0.84
0.12 0.21 0.87
0.12 0.21 0.90
0.12 0.21 0.93
0.12 0.21 0.96
0.12 0.21 0.99
0.12 0.24 0.12
0.12 0.24 0.15
0.12 0.24 0.18
0.12 0.24 0.21
0.12 0.24 0.24
0.12 0.24 0.27
0.12 0.24 0.30
0.12 0.24 0.33
0.12 0.24 0.36
0.12 0.24 0.39
0.12 0.24 0.42
0.12 0.24 0.45
0.12 0.24 0.48
0.12 0.24 0.51
0.12 0.24 0.54
0.12 0.24 0.57
0.12 0.24 0.60
0.12 0.24 0.63
0.12 0.24 0.66
0.12 0.24 0.69
0.12 0.24 0.72
0.12 0.24 0.75
0.12 0.24 0.78
0.12 0.24 0.81
0.12 0.24 0.84
0.12 0.24 0.87
0.12 0.24 0.90
0.12 0.24 0.93
0.12 0.24 0.96
0.12 0.24 0.99
0.12 0.27 0.12
0.12 0.27 0.15
0.12 0.27 0.18
0.12 0.27 0.21
0.12 0.27 0.24
0.12 0.27 0.27
0.12 0.27 0.30
0.12 0.27 0.33
0.12 0.27 0.36
0.12 0.27 0.39
0.12 0.27 0.42
0.12 0.27 0.45
0.12 0.27 0.48
0.12 0.27 0.51
0.12 0.27 0.54
0.12 0.27 0.57
0.12 0.27 0.60
0.12 0.27 0.63
0.12 0.27 0.66
0.12 0.27 0.69
0.12 0.27 0.72
0.12 0.27 0.75
0.12 0.27 0.78
0.12 0.27 0.81
0.12 0.27 0.84
0.12 0.27 0.87
0.12 0.27 0.90
0.12 0.27 0.93
0.12 0.27 0.96
0.12 0.27 0.99
0.12 0.30 0.12
0.12 0.30 0.15
0.12 0.30 0.18
0.12 0.30 0.21
0.12 0.30 0.24
0.12 0.30 0.27
0.12 0.30 0.30
0.12 0.30 0.33
0.12 0.30 0.36
0.12 0.30 0.39
0.12 0.30 0.42
0.12 0.30 0.45
0.12 0.30 0.48
0.12 0.30 0.51
0.12 0.30 0.54
0.12 0.30 0.57
0.12 0.30 0.60
0.12 0.30 0.63
0.12 0.30 0.66
0.12 0.30 0.69
0.12 0.30 0.72
0.12 0.30 0.75
0.12 0.30 0.78
0.12 0.30 0.81
0.12 0.30 0.84
0.12 0.30 0.87
0.12 0.30 0.90
0.12 0.30 0.93
0.12 0.30 0.96
0.12 0.30 0.99
0.12 0.33 0.12
0.12 0.33 0.15
0.12 0.33 0.18
0.12 0.33 0.21
0.12 0.33 0.24
0.12 0.33 0.27
0.12 0.33 0.30
0.12 0.33 0.33
0.12 0.33 0.36
0.12 0.33 0.39
0.12 0.33 0.42
0.12 0.33 0.45
0.12 0.33 0.48
0.12 0.33 0.51
0.12 0.33 0.54
0.12 0.33 0.57
0.12 0.33 0.60
0.12 0.33 0.63
0.12 0.33 0.66
0.12 0.33 0.69
0.12 0.33 0.72
0.12 0.33 0.75
0.12 0.33 0.78
0.12 0.33 0.81
0.12 0.33 0.84
0.12 0.33 0.87
0.12 0.33 0.90
0.12 0.33 0.93
0.12 0.33 0.96
0.12 0.33 0.99
0.12 0.36 0.12
0.12 0.36 0.15
0.12 0.36 0.18
0.12 0.36 0.21
0.12 0.36 0.24
0.12 0.36 0.27
0.12 0.36 0.30
0.12 0.36 0.33
0.12 0.36 0.36
0.12 0.36 0.39
0.12 0.36 0.42
0.12 0.36 0.45
0.12 0.36 0.48
0.12 0.36 0.51
0.12 0.36 0.54
0.12 0.36 0.57
0.12 0.36 0.60
0.12 0.36 0.63
0.12 0.36 0.66
0.12 0.36 0.69
0.12 0.36 0.72
0.12 0.36 0.75
0.12 0.36 0.78
0.12 0.36 0.81
0.12 0.36 0.84
0.12 0.36 0.87
0.12 0.36 0.90
0.12 0.36 0.93
0.12 0.36 0.96
0.12 0.36 0.99
0.12 0.39 0.12
0.12 0.39 0.15
0.12 0.39 0.18
0.12 0.39 0.21
0.12 0.39 0.24
0.12 0.39 0.27
0.12 0.39 0.30
0.12 0.39 0.33
0.12 0.39 0.36
0.12 0.39 0.39
0.12 0.39 0.42
0.12 0.39 0.45
0.12 0.39 0.48
0.12 0.39 0.51
0.12 0.39 0.54
0.12 0.39 0.57
0.12 0.39 0.60
0.12 0.39 0.63
0.12 0.39 0.66
0.12 0.39 0.69
0.12 0.39 0.72
0.12 0.39 0.75
0.12 0.39 0.78
0.12 0.39 0.81
0.12 0.39 0.84
0.12 0.39 0.87
0.12 0.39 0.90
0.12 0.39 0.93
0.12 0.39 0.96
0.12 0.39 0.99
0.12 0.42 0.12
0.12 0.42 0.15
0.12 0.42 0.18
0.12 0.42 0.21
0.12 0.42 0.24
0.12 0.42 0.27
0.12 0.42 0.30
0.12 0.42 0.33
0.12 0.42 0.36
0.12 0.42 0.39
0.12 0.42 0.42
0.12 0.42 0.45
0.12 0.42 0.48
0.12 0.42 0.51
0.12 0.42 0.54
0.12 0.42 0.57
0.12 0.42 0.60
0.12 0.42 0.63
0.12 0.42 0.66
0.12 0.42 0.69
0.12 0.42 0.72
0.12 0.42 0.75
0.12 0.42 0.78
0.12 0.42 0.81
0.12 0.42 0.84
0.12 0.42 0.87
0.12 0.42 0.90
0.12 0.42 0.93
0.12 0.42 0.96
0.12 0.42 0.99
0.12 0.45 0.12
0.12 0.45 0.15
0.12 0.45 0.18
0.12 0.45 0.21
0.12 0.45 0.24
0.12 0.45 0.27
0.12 0.45 0.30
0.12 0.45 0.33
0.12 0.45 0.36
0.12 0.45 0.39
0.12 0.45 0.42
0.12 0.45 0.45
0.12 0.45 0.48
0.12 0.45 0.51
0.12 0.45 0.54
0.12 0.45 0.57
0.12 0.45 0.60
0.12 0.45 0.63
0.12 0.45 0.66
0.12 0.45 0.69
0.12 0.45 0.72
0.12 0.45 0.75
0.12 0.45 0.78
0.12 0.45 0.81
0.12 0.45 0.84
0.12 0.45 0.87
0.12 0.45 0.90
0.12 0.45 0.93
0.12 0.45 0.96
0.12 0.45 0.99
0.12 0.48 0.12
0.12 0.48 0.15
0.12 0.48 0.18
0.12 0.48 0.21
0.12 0.48 0.24
0.12 0.48 0.27
0.12 0.48 0.30
0.12 0.48 0.33
0.12 0.48 0.36
0.12 0.48 0.39
0.12 0.48 0.42
0.12 0.48 0.45
0.12 0.48 0.48
0.12 0.48 0.51
0.12 0.48 0.54
0.12 0.48 0.57
0.12 0.48 0.60
0.12 0.48 0.63
0.12 0.48 0.66
0.12 0.48 0.69
0.12 0.48 0.72
0.12 0.48 0.75
0.12 0.48 0.78
0.12 0.48 0.81
0.12 0.48 0.84
0.12 0.48 0.87
0.12 0.48 0.90
0.12 0.48 0.93
0.12 0.48 0.96
0.12 0.48 0.99
0.12 0.51 0.12
0.12 0.51 0.15
0.12 0.51 0.18
0.12 0.51 0.21
0.12 0.51 0.24
0.12 0.51 0.27
0.12 0.51 0.30
0.12 0.51 0.33
0.12 0.51 0.36
0.12 0.51 0.39
0.12 0.51 0.42
0.12 0.51 0.45
0.12 0.51 0.48
0.12 0.51 0.51
0.12 0.51 0.54
0.12 0.51 0.57
0.12 0.51 0.60
0.12 0.51 0.63
0.12 0.51 0.66
0.12 0.51 0.69
0.12 0.51 0.72
0.12 0.51 0.75
0.12 0.51 0.78
0.12 0.51 0.81
0.12 0.51 0.84
0.12 0.51 0.87
0.12 0.51 0.90
0.12 0.51 0.93
0.12 0.51 0.96
0.12 0.51 0.99
0.12 0.54 0.12
0.12 0.54 0.15
0.12 0.54 0.18
0.12 0.54 0.21
0.12 0.54 0.24
0.12 0.54 0.27
0.12 0.54 0.30
0.12 0.54 0.33
0.12 0.54 0.36
0.12 0.54 0.39
0.12 0.54 0.42
0.12 0.54 0.45
0.12 0.54 0.48
0.12 0.54 0.51
0.12 0.54 0.54
0.12 0.54 0.57
0.12 0.54 0.60
0.12 0.54 0.63
0.12 0.54 0.66
0.12 0.54 0.69
0.12 0.54 0.72
0.12 0.54 0.75
0.12 0.54 0.78
0.12 0.54 0.81
0.12 0.54 0.84
0.12 0.54 0.87
0.12 0.54 0.90
0.12 0.54 0.93
0.12 0.54 0.96
0.12 0.54 0.99
0.12 0.57 0.12
0.12 0.57 0.15
0.12 0.57 0.18
0.12 0.57 0.21
0.12 0.57 0.24
0.12 0.57 0.27
0.12 0.57 0.30
0.12 0.57 0.33
0.12 0.57 0.36
0.12 0.57 0.39
0.12 0.57 0.42
0.12 0.57 0.45
0.12 0.57 0.48
0.12 0.57 0.51
0.12 0.57 0.54
0.12 0.57 0.57
0.12 0.57 0.60
0.12 0.57 0.63
0.12 0.57 0.66
0.12 0.57 0.69
0.12 0.57 0.72
0.12 0.57 0.75
0.12 0.57 0.78
0.12 0.57 0.81
0.12 0.57 0.84
0.12 0.57 0.87
0.12 0.57 0.90
0.12 0.57 0.93
0.12 0.57 0.96
0.12 0.57 0.99
0.12 0.60 0.12
0.12 0.60 0.15
0.12 0.60 0.18
0.12 0.60 0.21
0.12 0.60 0.24
0.12 0.60 0.27
0.12 0.60 0.30
0.12 0.60 0.33
0.12 0.60 0.36
0.12 0.60 0.39
0.12 0.60 0.42
0.12 0.60 0.45
0.12 0.60 0.48
0.12 0.60 0.51
0.12 0.60 0.54
0.12 0.60 0.57
0.12 0.60 0.60
0.12 0.60 0.63
0.12 0.60 0.66
0.12 0.60 0.69
0.12 0.60 0.72
0.12 0.60 0.75
0.12 0.60 0.78
0.12 0.60 0.81
0.12 0.60 0.84
0.12 0.60 0.87
0.12 0.60 0.90
0.12 0.60 0.93
0.12 0.60 0.96
0.12 0.60 0.99
0.12 0.63 0.12
0.12 0.63 0.15
0.12 0.63 0.18
0.12 0.63 0.21
0.12 0.63 0.24
0.12 0.63 0.27
0.12 0.63 0.30
0.12 0.63 0.33
0.12 0.63 0.36
0.12 0.63 0.39
0.12 0.63 0.42
0.12 0.63 0.45
0.12 0.63 0.48
0.12 0.63 0.51
0.12 0.63 0.54
0.12 0.63 0.57
0.12 0.63 0.60
0.12 0.63 0.63
0.12 0.63 0.66
0.12 0.63 0.69
0.12 0.63 0.72
0.12 0.63 0.75
0.12 0.63 0.78
0.12 0.63 0.81
0.12 0.63 0.84
0.12 0.63 0.87
0.12 0.63 0.90
0.12 0.63 0.93
0.12 0.63 0.96
0.12 0.63 0.99
0.12 0.66 0.12
0.12 0.66 0.15
0.12 0.66 0.18
0.12 0.66 0.21
0.12 0.66 0.24
0.12 0.66 0.27
0.12 0.66 0.30
0.12 0.66 0.33
0.12 0.66 0.36
0.12 0.66 0.39
0.12 0.66 0.42
0.12 0.66 0.45
0.12 0.66 0.48
0.12 0.66 0.51
0.12 0.66 0.54
0.12 0.66 0.57
0.12 0.66 0.60
0.12 0.66 0.63
0.12 0.66 0.66
0.12 0.66 0.69
0.12 0.66 0.72
0.12 0.66 0.75
0.12 0.66 0.78
0.12 0.66 0.81
0.12 0.66 0.84
0.12 0.66 0.87
0.12 0.66 0.90
0.12 0.66 0.93
0.12 0.66 0.96
0.12 0.66 0.99
0.12 0.69 0.12
0.12 0.69 0.15
0.12 0.69 0.18
0.12 0.69 0.21
0.12 0.69 0.24
0.12 0.69 0.27
0.12 0.69 0.30
0.12 0.69 0.33
0.12 0.69 0.36
0.12 0.69 0.39
0.12 0.69 0.42
0.12 0.69 0.45
0.12 0.69 0.48
0.12 0.69 0.51
0.12 0.69 0.54
0.12 0.69 0.57
0.12 0.69 0.60
0.12 0.69 0.63
0.12 0.69 0.66
0.12 0.69 0.69
0.12 0.69 0.72
0.12 0.69 0.75
0.12 0.69 0.78
0.12 0.69 0.81
0.12 0.69 0.84
0.12 0.69 0.87
0.12 0.69 0.90
0.12 0.69 0.93
0.12 0.69 0.96
0.12 0.69 0.99
0.12 0.72 0.12
0.12 0.72 0.15
0.12 0.72 0.18
0.12 0.72 0.21
0.12 0.72 0.24
0.12 0.72 0.27
0.12 0.72 0.30
0.12 0.72 0.33
0.12 0.72 0.36
0.12 0.72 0.39
0.12 0.72 0.42
0.12 0.72 0.45
0.12 0.72 0.48
0.12 0.72 0.51
0.12 0.72 0.54
0.12 0.72 0.57
0.12 0.72 0.60
0.12 0.72 0.63
0.12 0.72 0.66
0.12 0.72 0.69
0.12 0.72 0.72
0.12 0.72 0.75
0.12 0.72 0.78
0.12 0.72 0.81
0.12 0.72 0.84
0.12 0.72 0.87
0.12 0.72 0.90
0.12 0.72 0.93
0.12 0.72 0.96
0.12 0.72 0.99
0.12 0.75 0.12
0.12 0.75 0.15
0.12 0.75 0.18
0.12 0.75 0.21
0.12 0.75 0.24
0.12 0.75 0.27
0.12 0.75 0.30
0.12 0.75 0.33
0.12 0.75 0.36
0.12 0.75 0.39
0.12 0.75 0.42
0.12 0.75 0.45
0.12 0.75 0.48
0.12 0.75 0.51
0.12 0.75 0.54
0.12 0.75 0.57
0.12 0.75 0.60
0.12 0.75 0.63
0.12 0.75 0.66
0.12 0.75 0.69
0.12 0.75 0.72
0.12 0.75 0.75
0.12 0.75 0.78
0.12 0.75 0.81
0.12 0.75 0.84
0.12 0.75 0.87
0.12 0.75 0.90
0.12 0.75 0.93
0.12 0.75 0.96
0.12 0.75 0.99
0.12 0.78 0.12
0.12 0.78 0.15
0.12 0.78 0.18
0.12 0.78 0.21
0.12 0.78 0.24
0.12 0.78 0.27
0.12 0.78 0.30
0.12 0.78 0.33
0.12 0.78 0.36
0.12 0.78 0.39
0.12 0.78 0.42
0.12 0.78 0.45
0.12 0.78 0.48
0.12 0.78 0.51
0.12 0.78 0.54
0.12 0.78 0.57
0.12 0.78 0.60
0.12 0.78 0.63
0.12 0.78 0.66
0.12 0.78 0.69
0.12 0.78 0.72
0.12 0.78 0.75
0.12 0.78 0.78
0.12 0.78 0.81
0.12 0.78 0.84
0.12 0.78 0.87
0.12 0.78 0.90
0.12 0.78 0.93
0.12 0.78 0.96
0.12 0.78 0.99
0.12 0.81 0.12
0.12 0.81 0.15
0.12 0.81 0.18
0.12 0.81 0.21
0.12 0.81 0.24
0.12 0.81 0.27
0.12 0.81 0.30
0.12 0.81 0.33
0.12 0.81 0.36
0.12 0.81 0.39
0.12 0.81 0.42
0.12 0.81 0.45
0.12 0.81 0.48
0.12 0.81 0.51
0.12 0.81 0.54
0.12 0.81 0.57
0.12 0.81 0.60
0.12 0.81 0.63
0.12 0.81 0.66
0.12 0.81 0.69
0.12 0.81 0.72
0.12 0.81 0.75
0.12 0.81 0.78
0.12 0.81 0.81
0.12 0.81 0.84
0.12 0.81 0.87
0.12 0.81 0.90
0.12 0.81 0.93
0.12 0.81 0.96
0.12 0.81 0.99
0.12 0.84 0.12
0.12 0.84 0.15
0.12 0.84 0.18
0.12 0.84 0.21
0.12 0.84 0.24
0.12 0.84 0.27
0.12 0.84 0.30
0.12 0.84 0.33
0.12 0.84 0.36
0.12 0.84 0.39
0.12 0.84 0.42
0.12 0.84 0.45
0.12 0.84 0.48
0.12 0.84 0.51
0.12 0.84 0.54
0.12 0.84 0.57
0.12 0.84 0.60
0.12 0.84 0.63
0.12 0.84 0.66
0.12 0.84 0.69
0.12 0.84 0.72
0.12 0.84 0.75
0.12 0.84 0.78
0.12 0.84 0.81
0.12 0.84 0.84
0.12 0.84 0.87
0.12 0.84 0.90
0.12 0.84 0.93
0.12 0.84 0.96
0.12 0.84 0.99
0.12 0.87 0.12
0.12 0.87 0.15
0.12 0.87 0.18
0.12 0.87 0.21
0.12 0.87 0.24
0.12 0.87 0.27
0.12 0.87 0.30
0.12 0.87 0.33
0.12 0.87 0.36
0.12 0.87 0.39
0.12 0.87 0.42
0.12 0.87 0.45
0.12 0.87 0.48
0.12 0.87 0.51
0.12 0.87 0.54
0.12 0.87 0.57
0.12 0.87 0.60
0.12 0.87 0.63
0.12 0.87 0.66
0.12 0.87 0.69
0.12 0.87 0.72
0.12 0.87 0.75
0.12 0.87 0.78
0.12 0.87 0.81
0.12 0.87 0.84
0.12 0.87 0.87
0.12 0.87 0.90
0.12 0.87 0.93
0.12 0.87 0.96
0.12 0.87 0.99
0.12 0.90 0.12
0.12 0.90 0.15
0.12 0.90 0.18
0.12 0.90 0.21
0.12 0.90 0.24
0.12 0.90 0.27
0.12 0.90 0.30
0.12 0.90 0.33
0.12 0.90 0.36
0.12 0.90 0.39
0.12 0.90 0.42
0.12 0.90 0.45
0.12 0.90 0.48
0.12 0.90 0.51
0.12 0.90 0.54
0.12 0.90 0.57
0.12 0.90 0.60
0.12 0.90 0.63
0.12 0.90 0.66
0.12 0.90 0.69
0.12 0.90 0.72
0.12 0.90 0.75
0.12 0.90 0.78
0.12 0.90 0.81
0.12 0.90 0.84
0.12 0.90 0.87
0.12 0.90 0.90
0.12 0.90 0.93
0.12 0.90 0.96
0.12 0.90 0.99
0.12 0.93 0.12
0.12 0.93 0.15
0.12 0.93 0.18
0.12 0.93 0.21
0.12 0.93 0.24
0.12 0.93 0.27
0.12 0.93 0.30
0.12 0.93 0.33
0.12 0.93 0.36
0.12 0.93 0.39
0.12 0.93 0.42
0.12 0.93 0.45
0.12 0.93 0.48
0.12 0.93 0.51
0.12 0.93 0.54
0.12 0.93 0.57
0.12 0.93 0.60
0.12 0.93 0.63
0.12 0.93 0.66
0.12 0.93 0.69
0.12 0.93 0.72
0.12 0.93 0.75
0.12 0.93 0.78
0.12 0.93 0.81
0.12 0.93 0.84
0.12 0.93 0.87
0.12 0.93 0.90
0.12 0.93 0.93
0.12 0.93 0.96
0.12 0.93 0.99
0.12 0.96 0.12
0.12 0.96 0.15
0.12 0.96 0.18
0.12 0.96 0.21
0.12 0.96 0.24
0.12 0.96 0.27
0.12 0.96 0.30
0.12 0.96 0.33
0.12 0.96 0.36
0.12 0.96 0.39
0.12 0.96 0.42
0.12 0.96 0.45
0.12 0.96 0.48
0.12 0.96 0.51
0.12 0.96 0.54
0.12 0.96 0.57
0.12 0.96 0.60
0.12 0.96 0.63
0.12 0.96 0.66
0.12 0.96 0.69
0.12 0.96 0.72
0.12 0.96 0.75
0.12 0.96 0.78
0.12 0.96 0.81
0.12 0.96 0.84
0.12 0.96 0.87
0.12 0.96 0.90
0.12 0.96 0.93
0.12 0.96 0.96
0.12 0.96 0.99
0.12 0.99 0.12
0.12 0.99 0.15
0.12 0.99 0.18
0.12 0.99 0.21
0.12 0.99 0.24
0.12 0.99 0.27
0.12 0.99 0.30
0.12 0.99 0.33
0.12 0.99 0.36
0.12 0.99 0.39
0.12 0.99 0.42
0.12 0.99 0.45
0.12 0.99 0.48
0.12 0.99 0.51
0.12 0.99 0.54
0.12 0.99 0.57
0.12 0.99 0.60
0.12 0.99 0.63
0.12 0.99 0.66
0.12 0.99 0.69
0.12 0.99 0.72
0.12 0.99 0.75
0.12 0.99 0.78
0.12 0.99 0.81
0.12 0.99 0.84
0.12 0.99 0.87
0.12 0.99 0.90
0.12 0.99 0.93
0.12 0.99 0.96
0.12 0.99 0.99
