graphics/cube/LCDDisplay_694.cube
TITLE "QA_LCDDisplay_694"
# Copyright (c) 2026 @xsscx David H Hoyt LLC
# https://xss.cx
# Profiles applied (by profile description):
# - LCD Display
LUT_3D_SIZE 11
LUT_3D_INPUT_RANGE 0.204400 0.833500
0.016442 0.017408 0.016737
0.018945 0.019335 0.030256
0.022495 0.022067 0.049428
0.026810 0.025388 0.072728
0.031405 0.028925 0.097544
0.036582 0.032910 0.125503
0.043155 0.037969 0.160998
0.050965 0.043982 0.203181
0.059110 0.050251 0.247167
0.067365 0.056605 0.291749
0.075811 0.063106 0.337357
0.021730 0.027330 0.017865
0.024233 0.029257 0.031384
0.027783 0.031990 0.050556
0.032097 0.035311 0.073856
0.036692 0.038848 0.098672
0.041870 0.042833 0.126631
0.048442 0.047892 0.162126
0.056253 0.053904 0.204308
0.064398 0.060174 0.248295
0.072653 0.066528 0.292876
0.081098 0.073028 0.338484
0.029074 0.041113 0.019431
0.031578 0.043040 0.032951
0.035128 0.045773 0.052123
0.039442 0.049094 0.075423
0.044037 0.052631 0.100238
0.049214 0.056616 0.128197
0.055787 0.061675 0.163692
0.063598 0.067687 0.205875
0.071743 0.073957 0.249861
0.079998 0.080311 0.294443
0.088443 0.086811 0.340051
0.037754 0.057401 0.021283
0.040257 0.059328 0.034802
0.043807 0.062061 0.053974
0.048122 0.065382 0.077274
0.052717 0.068919 0.102089
0.057894 0.072904 0.130049
0.064466 0.077963 0.165544
0.072277 0.083975 0.207726
0.080422 0.090245 0.251713
0.088677 0.096599 0.296294
0.097122 0.103099 0.341902
0.046750 0.074283 0.023201
0.049253 0.076210 0.036720
0.052803 0.078943 0.055893
0.057118 0.082264 0.079193
0.061713 0.085801 0.104008
0.066890 0.089786 0.131967
0.073462 0.094845 0.167462
0.081273 0.100857 0.209645
0.089418 0.107126 0.253631
0.097673 0.113481 0.298213
0.106118 0.119981 0.343821
0.056686 0.092930 0.025321
0.059190 0.094857 0.038840
0.062740 0.097590 0.058012
0.067054 0.100911 0.081312
0.071649 0.104448 0.106128
0.076826 0.108433 0.134087
0.083399 0.113492 0.169582
0.091210 0.119504 0.211764
0.099355 0.125773 0.255751
0.107610 0.132128 0.300332
0.116055 0.138628 0.345940
0.069155 0.116330 0.027980
0.071659 0.118256 0.041499
0.075209 0.120989 0.060671
0.079523 0.124310 0.083971
0.084118 0.127847 0.108787
0.089295 0.131832 0.136746
0.095868 0.136891 0.172241
0.103679 0.142903 0.214424
0.111824 0.149173 0.258410
0.120079 0.155527 0.302992
0.128524 0.162028 0.348600
0.083973 0.144136 0.031141
0.086476 0.146063 0.044660
0.090026 0.148796 0.063832
0.094341 0.152117 0.087132
0.098936 0.155654 0.111947
0.104113 0.159639 0.139906
0.110686 0.164698 0.175402
0.118496 0.170710 0.217584
0.126641 0.176979 0.261570
0.134896 0.183334 0.306152
0.143342 0.189834 0.351760
0.099636 0.173529 0.034481
0.102139 0.175456 0.048000
0.105689 0.178188 0.067172
0.110003 0.181509 0.090472
0.114599 0.185046 0.115288
0.119776 0.189031 0.143247
0.126348 0.194090 0.178742
0.134159 0.200102 0.220925
0.142304 0.206372 0.264911
0.150559 0.212726 0.309493
0.159004 0.219227 0.355101
0.116018 0.204272 0.037975
0.118521 0.206199 0.051494
0.122071 0.208931 0.070666
0.126386 0.212252 0.093967
0.130981 0.215789 0.118782
0.136158 0.219774 0.146741
0.142731 0.224833 0.182236
0.150542 0.230846 0.224419
0.158686 0.237115 0.268405
0.166942 0.243469 0.312987
0.175387 0.249970 0.358595
0.133797 0.237636 0.041767
0.136300 0.239563 0.055286
0.139850 0.242295 0.074458
0.144165 0.245616 0.097759
0.148760 0.249153 0.122574
0.153937 0.253138 0.150533
0.160510 0.258197 0.186028
0.168321 0.264210 0.228211
0.176465 0.270479 0.272197
0.184721 0.276833 0.316779
0.193166 0.283334 0.362387
0.023326 0.021162 0.016808
0.025829 0.023089 0.030327
0.029379 0.025821 0.049499
0.033694 0.029142 0.072799
0.038289 0.032679 0.097615
0.043466 0.036664 0.125574
0.050038 0.041723 0.161069
0.057849 0.047736 0.203252
0.065994 0.054005 0.247238
0.074249 0.060359 0.291820
0.082694 0.066860 0.337428
0.028613 0.031085 0.017936
0.031117 0.033011 0.031455
0.034667 0.035744 0.050627
0.038981 0.039065 0.073927
0.043576 0.042602 0.098743
0.048753 0.046587 0.126702
0.055326 0.051646 0.162197
0.063137 0.057658 0.204379
0.071282 0.063928 0.248366
0.079537 0.070282 0.292947
0.087982 0.076783 0.338555
0.035958 0.044867 0.019502
0.038461 0.046794 0.033022
0.042011 0.049527 0.052194
0.046326 0.052848 0.075494
0.050921 0.056385 0.100309
0.056098 0.060370 0.128268
0.062671 0.065429 0.163763
0.070482 0.071441 0.205946
0.078626 0.077711 0.249932
0.086882 0.084065 0.294514
0.095327 0.090565 0.340122
0.044638 0.061156 0.021354
0.047141 0.063082 0.034873
0.050691 0.065815 0.054045
0.055005 0.069136 0.077345
0.059601 0.072673 0.102160
0.064778 0.076658 0.130120
0.071350 0.081717 0.165615
0.079161 0.087729 0.207797
0.087306 0.093999 0.251784
0.095561 0.100353 0.296365
0.104006 0.106853 0.341973
0.053634 0.078037 0.023272
0.056137 0.079964 0.036791
0.059687 0.082697 0.055964
0.064001 0.086018 0.079264
0.068597 0.089555 0.104079
0.073774 0.093540 0.132038
0.080346 0.098599 0.167533
0.088157 0.104611 0.209716
0.096302 0.110881 0.253702
0.104557 0.117235 0.298284
0.113002 0.123735 0.343892
0.063570 0.096684 0.025392
0.066074 0.098611 0.038911
0.069624 0.101344 0.058083
0.073938 0.104665 0.081383
0.078533 0.108202 0.106199
0.083710 0.112187 0.134158
0.090283 0.117246 0.169653
0.098094 0.123258 0.211835
0.106239 0.129528 0.255822
0.114494 0.135882 0.300403
0.122939 0.142382 0.346011
0.076039 0.120084 0.028051
0.078543 0.122011 0.041570
0.082093 0.124743 0.060742
0.086407 0.128064 0.084042
0.091002 0.131601 0.108858
0.096179 0.135586 0.136817
0.102752 0.140645 0.172312
0.110563 0.146658 0.214495
0.118708 0.152927 0.258481
0.126963 0.159281 0.303063
0.135408 0.165782 0.348671
0.090857 0.147890 0.031211
0.093360 0.149817 0.044731
0.096910 0.152550 0.063903
0.101225 0.155871 0.087203
0.105820 0.159408 0.112018
0.110997 0.163393 0.139977
0.117569 0.168452 0.175473
0.125380 0.174464 0.217655
0.133525 0.180733 0.261641
0.141780 0.187088 0.306223
0.150225 0.193588 0.351831
0.106519 0.177283 0.034552
0.109023 0.179210 0.048071
0.112573 0.181942 0.067243
0.116887 0.185263 0.090543
0.121482 0.188800 0.115359
0.126660 0.192785 0.143318
0.133232 0.197844 0.178813
0.141043 0.203857 0.220996
0.149188 0.210126 0.264982
0.157443 0.216480 0.309564
0.165888 0.222981 0.355172
0.122902 0.208026 0.038046
0.125405 0.209953 0.051565
0.128955 0.212685 0.070737
0.133270 0.216006 0.094038
0.137865 0.219543 0.118853
0.143042 0.223528 0.146812
0.149614 0.228587 0.182307
0.157425 0.234600 0.224490
0.165570 0.240869 0.268476
0.173825 0.247223 0.313058
0.182271 0.253724 0.358666
0.140681 0.241390 0.041838
0.143184 0.243317 0.055357
0.146734 0.246049 0.074529
0.151049 0.249370 0.097830
0.155644 0.252907 0.122645
0.160821 0.256892 0.150604
0.167394 0.261951 0.186099
0.175204 0.267964 0.228282
0.183349 0.274233 0.272268
0.191604 0.280587 0.316850
0.200050 0.287088 0.362458
0.032914 0.026391 0.016907
0.035417 0.028317 0.030426
0.038967 0.031050 0.049598
0.043281 0.034371 0.072898
0.047876 0.037908 0.097714
0.053054 0.041893 0.125673
0.059626 0.046952 0.161168
0.067437 0.052964 0.203351
0.075582 0.059234 0.247337
0.083837 0.065588 0.291918
0.092282 0.072089 0.337526
0.038201 0.036313 0.018035
0.040704 0.038240 0.031554
0.044255 0.040973 0.050726
0.048569 0.044294 0.074026
0.053164 0.047831 0.098842
0.058341 0.051816 0.126801
0.064914 0.056875 0.162296
0.072725 0.062887 0.204478
0.080869 0.069156 0.248465
0.089125 0.075511 0.293046
0.097570 0.082011 0.338654
0.045546 0.050096 0.019601
0.048049 0.052023 0.033120
0.051599 0.054756 0.052293
0.055914 0.058077 0.075593
0.060509 0.061614 0.100408
0.065686 0.065599 0.128367
0.072258 0.070658 0.163862
0.080069 0.076670 0.206045
0.088214 0.082939 0.250031
0.096469 0.089294 0.294613
0.104914 0.095794 0.340221
0.054225 0.066384 0.021453
0.056729 0.068311 0.034972
0.060279 0.071044 0.054144
0.064593 0.074365 0.077444
0.069188 0.077902 0.102259
0.074365 0.081887 0.130218
0.080938 0.086946 0.165714
0.088749 0.092958 0.207896
0.096894 0.099227 0.251882
0.105149 0.105582 0.296464
0.113594 0.112082 0.342072
0.063221 0.083266 0.023371
0.065725 0.085193 0.036890
0.069275 0.087926 0.056062
0.073589 0.091247 0.079363
0.078184 0.094783 0.104178
0.083361 0.098768 0.132137
0.089934 0.103828 0.167632
0.097745 0.109840 0.209815
0.105890 0.116109 0.253801
0.114145 0.122463 0.298383
0.122590 0.128964 0.343991
0.073158 0.101913 0.025491
0.075661 0.103840 0.039010
0.079211 0.106573 0.058182
0.083526 0.109893 0.081482
0.088121 0.113430 0.106297
0.093298 0.117415 0.134256
0.099871 0.122475 0.169752
0.107681 0.128487 0.211934
0.115826 0.134756 0.255920
0.124081 0.141110 0.300502
0.132527 0.147611 0.346110
0.085627 0.125312 0.028150
0.088130 0.127239 0.041669
0.091680 0.129972 0.060841
0.095995 0.133293 0.084141
0.100590 0.136830 0.108957
0.105767 0.140815 0.136916
0.112340 0.145874 0.172411
0.120150 0.151886 0.214593
0.128295 0.158156 0.258580
0.136550 0.164510 0.303161
0.144996 0.171010 0.348769
0.100444 0.153119 0.031310
0.102948 0.155046 0.044829
0.106498 0.157778 0.064002
0.110812 0.161099 0.087302
0.115407 0.164636 0.112117
0.120585 0.168621 0.140076
0.127157 0.173680 0.175571
0.134968 0.179693 0.217754
0.143113 0.185962 0.261740
0.151368 0.192316 0.306322
0.159813 0.198817 0.351930
0.116107 0.182511 0.034651
0.118611 0.184438 0.048170
0.122161 0.187171 0.067342
0.126475 0.190492 0.090642
0.131070 0.194029 0.115458
0.136247 0.198014 0.143417
0.142820 0.203073 0.178912
0.150631 0.209085 0.221094
0.158776 0.215355 0.265081
0.167031 0.221709 0.309662
0.175476 0.228209 0.355270
0.132490 0.213255 0.038145
0.134993 0.215181 0.051664
0.138543 0.217914 0.070836
0.142857 0.221235 0.094136
0.147452 0.224772 0.118952
0.152630 0.228757 0.146911
0.159202 0.233816 0.182406
0.167013 0.239828 0.224589
0.175158 0.246098 0.268575
0.183413 0.252452 0.313156
0.191858 0.258952 0.358764
0.150269 0.246619 0.041937
0.152772 0.248545 0.055456
0.156322 0.251278 0.074628
0.160636 0.254599 0.097928
0.165231 0.258136 0.122744
0.170409 0.262121 0.150703
0.176981 0.267180 0.186198
0.184792 0.273192 0.228381
0.192937 0.279462 0.272367
0.201192 0.285816 0.316949
0.209637 0.292317 0.362557
0.044341 0.032622 0.017025
0.046844 0.034549 0.030544
0.050394 0.037282 0.049716
0.054708 0.040603 0.073016
0.059303 0.044140 0.097832
0.064481 0.048125 0.125791
0.071053 0.053184 0.161286
0.078864 0.059196 0.203468
0.087009 0.065466 0.247455
0.095264 0.071820 0.292036
0.103709 0.078320 0.337644
0.049628 0.042545 0.018153
0.052131 0.044472 0.031672
0.055682 0.047204 0.050844
0.059996 0.050525 0.074144
0.064591 0.054062 0.098959
0.069768 0.058047 0.126919
0.076341 0.063107 0.162414
0.084152 0.069119 0.204596
0.092297 0.075388 0.248583
0.100552 0.081742 0.293164
0.108997 0.088243 0.338772
0.056973 0.056328 0.019719
0.059476 0.058255 0.033238
0.063026 0.060987 0.052410
0.067341 0.064308 0.075710
0.071936 0.067845 0.100526
0.077113 0.071830 0.128485
0.083685 0.076889 0.163980
0.091496 0.082902 0.206163
0.099641 0.089171 0.250149
0.107896 0.095525 0.294731
0.116341 0.102026 0.340339
0.065652 0.072616 0.021570
0.068156 0.074543 0.035089
0.071706 0.077275 0.054262
0.076020 0.080596 0.077562
0.080615 0.084133 0.102377
0.085792 0.088118 0.130336
0.092365 0.093178 0.165831
0.100176 0.099190 0.208014
0.108321 0.105459 0.252000
0.116576 0.111813 0.296582
0.125021 0.118314 0.342190
0.074648 0.089498 0.023489
0.077152 0.091425 0.037008
0.080702 0.094157 0.056180
0.085016 0.097478 0.079480
0.089611 0.101015 0.104296
0.094788 0.105000 0.132255
0.101361 0.110059 0.167750
0.109172 0.116072 0.209933
0.117317 0.122341 0.253919
0.125572 0.128695 0.298500
0.134017 0.135196 0.344108
0.084585 0.108145 0.025608
0.087088 0.110072 0.039128
0.090638 0.112804 0.058300
0.094953 0.116125 0.081600
0.099548 0.119662 0.106415
0.104725 0.123647 0.134374
0.111298 0.128706 0.169869
0.119108 0.134719 0.212052
0.127253 0.140988 0.256038
0.135508 0.147342 0.300620
0.143954 0.153843 0.346228
0.097054 0.131544 0.028268
0.099557 0.133471 0.041787
0.103107 0.136204 0.060959
0.107422 0.139525 0.084259
0.112017 0.143062 0.109075
0.117194 0.147047 0.137034
0.123767 0.152106 0.172529
0.131577 0.158118 0.214711
0.139722 0.164387 0.258698
0.147977 0.170742 0.303279
0.156423 0.177242 0.348887
0.111871 0.159351 0.031428
0.114375 0.161278 0.044947
0.117925 0.164010 0.064119
0.122239 0.167331 0.087420
0.126834 0.170868 0.112235
0.132012 0.174853 0.140194
0.138584 0.179912 0.175689
0.146395 0.185924 0.217872
0.154540 0.192194 0.261858
0.162795 0.198548 0.306440
0.171240 0.205049 0.352048
0.127534 0.188743 0.034769
0.130038 0.190670 0.048288
0.133588 0.193403 0.067460
0.137902 0.196724 0.090760
0.142497 0.200261 0.115576
0.147674 0.204246 0.143535
0.154247 0.209305 0.179030
0.162058 0.215317 0.221212
0.170203 0.221586 0.265199
0.178458 0.227941 0.309780
0.186903 0.234441 0.355388
0.143917 0.219486 0.038263
0.146420 0.221413 0.051782
0.149970 0.224146 0.070954
0.154284 0.227467 0.094254
0.158879 0.231004 0.119070
0.164057 0.234989 0.147029
0.170629 0.240048 0.182524
0.178440 0.246060 0.224706
0.186585 0.252329 0.268693
0.194840 0.258684 0.313274
0.203285 0.265184 0.358882
0.161696 0.252850 0.042055
0.164199 0.254777 0.055574
0.167749 0.257510 0.074746
0.172063 0.260831 0.098046
0.176658 0.264368 0.122862
0.181836 0.268353 0.150821
0.188408 0.273412 0.186316
0.196219 0.279424 0.228498
0.204364 0.285694 0.272485
0.212619 0.292048 0.317066
0.221064 0.298548 0.362674
0.056357 0.039175 0.017149
0.058860 0.041102 0.030668
0.062410 0.043835 0.049840
0.066724 0.047156 0.073140
0.071319 0.050693 0.097956
0.076497 0.054678 0.125915
0.083069 0.059737 0.161410
0.090880 0.065749 0.203592
0.099025 0.072019 0.247579
0.107280 0.078373 0.292160
0.115725 0.084873 0.337768
0.061644 0.049098 0.018277
0.064147 0.051025 0.031796
0.067698 0.053757 0.050968
0.072012 0.057078 0.074268
0.076607 0.060615 0.099083
0.081784 0.064600 0.127042
0.088357 0.069660 0.162538
0.096168 0.075672 0.204720
0.104313 0.081941 0.248706
0.112568 0.088295 0.293288
0.121013 0.094796 0.338896
0.068989 0.062881 0.019843
0.071492 0.064808 0.033362
0.075042 0.067540 0.052534
0.079357 0.070861 0.075834
0.083952 0.074398 0.100650
0.089129 0.078383 0.128609
0.095701 0.083442 0.164104
0.103512 0.089455 0.206287
0.111657 0.095724 0.250273
0.119912 0.102078 0.294854
0.128357 0.108579 0.340462
0.077668 0.079169 0.021694
0.080172 0.081096 0.035213
0.083722 0.083828 0.054385
0.088036 0.087149 0.077686
0.092631 0.090686 0.102501
0.097808 0.094671 0.130460
0.104381 0.099730 0.165955
0.112192 0.105743 0.208138
0.120337 0.112012 0.252124
0.128592 0.118366 0.296706
0.137037 0.124867 0.342314
0.086664 0.096051 0.023613
0.089168 0.097978 0.037132
0.092718 0.100710 0.056304
0.097032 0.104031 0.079604
0.101627 0.107568 0.104420
0.106804 0.111553 0.132379
0.113377 0.116612 0.167874
0.121188 0.122625 0.210056
0.129333 0.128894 0.254043
0.137588 0.135248 0.298624
0.146033 0.141749 0.344232
0.096601 0.114698 0.025732
0.099104 0.116625 0.039251
0.102654 0.119357 0.058424
0.106969 0.122678 0.081724
0.111564 0.126215 0.106539
0.116741 0.130200 0.134498
0.123314 0.135259 0.169993
0.131124 0.141272 0.212176
0.139269 0.147541 0.256162
0.147524 0.153895 0.300744
0.155970 0.160396 0.346352
0.109070 0.138097 0.028392
0.111573 0.140024 0.041911
0.115123 0.142757 0.061083
0.119438 0.146078 0.084383
0.124033 0.149615 0.109199
0.129210 0.153600 0.137158
0.135783 0.158659 0.172653
0.143594 0.164671 0.214835
0.151738 0.170940 0.258822
0.159993 0.177295 0.303403
0.168439 0.183795 0.349011
0.123888 0.165904 0.031552
0.126391 0.167830 0.045071
0.129941 0.170563 0.064243
0.134255 0.173884 0.087543
0.138850 0.177421 0.112359
0.144028 0.181406 0.140318
0.150600 0.186465 0.175813
0.158411 0.192477 0.217996
0.166556 0.198747 0.261982
0.174811 0.205101 0.306564
0.183256 0.211602 0.352172
0.139550 0.195296 0.034893
0.142054 0.197223 0.048412
0.145604 0.199956 0.067584
0.149918 0.203277 0.090884
0.154513 0.206814 0.115700
0.159690 0.210799 0.143659
0.166263 0.215858 0.179154
0.174074 0.221870 0.221336
0.182219 0.228139 0.265323
0.190474 0.234494 0.309904
0.198919 0.240994 0.355512
0.155933 0.226039 0.038387
0.158436 0.227966 0.051906
0.161986 0.230699 0.071078
0.166300 0.234020 0.094378
0.170896 0.237557 0.119194
0.176073 0.241542 0.147153
0.182645 0.246601 0.182648
0.190456 0.252613 0.224830
0.198601 0.258882 0.268817
0.206856 0.265237 0.313398
0.215301 0.271737 0.359006
0.173712 0.259403 0.042179
0.176215 0.261330 0.055698
0.179765 0.264063 0.074870
0.184079 0.267384 0.098170
0.188675 0.270921 0.122986
0.193852 0.274906 0.150945
0.200424 0.279965 0.186440
0.208235 0.285977 0.228622
0.216380 0.292247 0.272609
0.224635 0.298601 0.317190
0.233080 0.305101 0.362798
0.069747 0.046478 0.017287
0.072250 0.048405 0.030806
0.075800 0.051137 0.049978
0.080115 0.054458 0.073278
0.084710 0.057995 0.098094
0.089887 0.061980 0.126053
0.096460 0.067039 0.161548
0.104270 0.073052 0.203730
0.112415 0.079321 0.247717
0.120670 0.085675 0.292298
0.129116 0.092176 0.337906
0.075035 0.056400 0.018415
0.077538 0.058327 0.031934
0.081088 0.061060 0.051106
0.085402 0.064381 0.074406
0.089997 0.067918 0.099221
0.095175 0.071903 0.127181
0.101747 0.076962 0.162676
0.109558 0.082974 0.204858
0.117703 0.089244 0.248845
0.125958 0.095598 0.293426
0.134403 0.102098 0.339034
0.082379 0.070183 0.019981
0.084882 0.072110 0.033500
0.088433 0.074843 0.052672
0.092747 0.078164 0.075972
0.097342 0.081701 0.100788
0.102519 0.085686 0.128747
0.109092 0.090745 0.164242
0.116903 0.096757 0.206425
0.125048 0.103027 0.250411
0.133303 0.109381 0.294993
0.141748 0.115881 0.340601
0.091059 0.086471 0.021832
0.093562 0.088398 0.035351
0.097112 0.091131 0.054524
0.101427 0.094452 0.077824
0.106022 0.097989 0.102639
0.111199 0.101974 0.130598
0.117771 0.107033 0.166093
0.125582 0.113045 0.208276
0.133727 0.119315 0.252262
0.141982 0.125669 0.296844
0.150427 0.132169 0.342452
0.100055 0.103353 0.023751
0.102558 0.105280 0.037270
0.106108 0.108013 0.056442
0.110423 0.111334 0.079742
0.115018 0.114871 0.104558
0.120195 0.118856 0.132517
0.126767 0.123915 0.168012
0.134578 0.129927 0.210195
0.142723 0.136196 0.254181
0.150978 0.142551 0.298763
0.159423 0.149051 0.344370
0.109991 0.122000 0.025870
0.112495 0.123927 0.039390
0.116045 0.126660 0.058562
0.120359 0.129981 0.081862
0.124954 0.133518 0.106677
0.130131 0.137503 0.134636
0.136704 0.142562 0.170131
0.144515 0.148574 0.212314
0.152660 0.154843 0.256300
0.160915 0.161198 0.300882
0.169360 0.167698 0.346490
0.122460 0.145400 0.028530
0.124964 0.147326 0.042049
0.128514 0.150059 0.061221
0.132828 0.153380 0.084521
0.137423 0.156917 0.109337
0.142600 0.160902 0.137296
0.149173 0.165961 0.172791
0.156984 0.171973 0.214973
0.165129 0.178243 0.258960
0.173384 0.184597 0.303541
0.181829 0.191098 0.349149
0.137278 0.173206 0.031690
0.139781 0.175133 0.045209
0.143331 0.177866 0.064381
0.147646 0.181187 0.087682
0.152241 0.184724 0.112497
0.157418 0.188709 0.140456
0.163991 0.193768 0.175951
0.171801 0.199780 0.218134
0.179946 0.206049 0.262120
0.188201 0.212404 0.306702
0.196647 0.218904 0.352310
0.152941 0.202599 0.035031
0.155444 0.204526 0.048550
0.158994 0.207258 0.067722
0.163308 0.210579 0.091022
0.167904 0.214116 0.115838
0.173081 0.218101 0.143797
0.179653 0.223160 0.179292
0.187464 0.229172 0.221474
0.195609 0.235442 0.265461
0.203864 0.241796 0.310042
0.212309 0.248297 0.355650
0.169323 0.233342 0.038525
0.171826 0.235269 0.052044
0.175376 0.238001 0.071216
0.179691 0.241322 0.094516
0.184286 0.244859 0.119332
0.189463 0.248844 0.147291
0.196036 0.253903 0.182786
0.203846 0.259916 0.224968
0.211991 0.266185 0.268955
0.220246 0.272539 0.313536
0.228692 0.279040 0.359144
0.187102 0.266706 0.042317
0.189605 0.268633 0.055836
0.193155 0.271365 0.075008
0.197470 0.274686 0.098308
0.202065 0.278223 0.123124
0.207242 0.282208 0.151083
0.213815 0.287267 0.186578
0.221626 0.293280 0.228760
0.229770 0.299549 0.272747
0.238026 0.305903 0.317328
0.246471 0.312404 0.362936
0.086520 0.055625 0.017460
0.089024 0.057552 0.030979
0.092574 0.060285 0.050151
0.096888 0.063606 0.073451
0.101483 0.067143 0.098267
0.106660 0.071128 0.126226
0.113233 0.076187 0.161721
0.121044 0.082199 0.203903
0.129189 0.088468 0.247890
0.137444 0.094823 0.292471
0.145889 0.101323 0.338079
0.091808 0.065548 0.018588
0.094311 0.067475 0.032107
0.097861 0.070207 0.051279
0.102176 0.073528 0.074579
0.106771 0.077065 0.099394
0.111948 0.081050 0.127354
0.118521 0.086109 0.162849
0.126332 0.092122 0.205031
0.134476 0.098391 0.249018
0.142732 0.104745 0.293599
0.151177 0.111246 0.339207
0.099153 0.079331 0.020154
0.101656 0.081258 0.033673
0.105206 0.083990 0.052845
0.109520 0.087311 0.076145
0.114116 0.090848 0.100961
0.119293 0.094833 0.128920
0.125865 0.099892 0.164415
0.133676 0.105905 0.206598
0.141821 0.112174 0.250584
0.150076 0.118528 0.295166
0.158521 0.125029 0.340773
0.107832 0.095619 0.022005
0.110336 0.097546 0.035524
0.113886 0.100278 0.054697
0.118200 0.103599 0.077997
0.122795 0.107136 0.102812
0.127972 0.111121 0.130771
0.134545 0.116180 0.166266
0.142356 0.122193 0.208449
0.150501 0.128462 0.252435
0.158756 0.134816 0.297017
0.167201 0.141317 0.342625
0.116828 0.112501 0.023924
0.119332 0.114428 0.037443
0.122882 0.117160 0.056615
0.127196 0.120481 0.079915
0.131791 0.124018 0.104731
0.136968 0.128003 0.132690
0.143541 0.133062 0.168185
0.151352 0.139075 0.210368
0.159497 0.145344 0.254354
0.167752 0.151698 0.298935
0.176197 0.158199 0.344543
0.126765 0.131148 0.026043
0.129268 0.133075 0.039563
0.132818 0.135807 0.058735
0.137133 0.139128 0.082035
0.141728 0.142665 0.106850
0.146905 0.146650 0.134809
0.153477 0.151709 0.170304
0.161288 0.157722 0.212487
0.169433 0.163991 0.256473
0.177688 0.170345 0.301055
0.186134 0.176846 0.346663
0.139234 0.154547 0.028703
0.141737 0.156474 0.042222
0.145287 0.159207 0.061394
0.149602 0.162528 0.084694
0.154197 0.166065 0.109510
0.159374 0.170050 0.137469
0.165947 0.175109 0.172964
0.173757 0.181121 0.215146
0.181902 0.187390 0.259133
0.190157 0.193745 0.303714
0.198603 0.200245 0.349322
0.154051 0.182354 0.031863
0.156555 0.184280 0.045382
0.160105 0.187013 0.064554
0.164419 0.190334 0.087855
0.169014 0.193871 0.112670
0.174191 0.197856 0.140629
0.180764 0.202915 0.176124
0.188575 0.208927 0.218307
0.196720 0.215197 0.262293
0.204975 0.221551 0.306875
0.213420 0.228052 0.352483
0.169714 0.211746 0.035204
0.172217 0.213673 0.048723
0.175768 0.216406 0.067895
0.180082 0.219727 0.091195
0.184677 0.223264 0.116011
0.189854 0.227249 0.143970
0.196427 0.232308 0.179465
0.204238 0.238320 0.221647
0.212382 0.244589 0.265634
0.220638 0.250944 0.310215
0.229083 0.257444 0.355823
0.186097 0.242489 0.038698
0.188600 0.244416 0.052217
0.192150 0.247149 0.071389
0.196464 0.250470 0.094689
0.201059 0.254007 0.119505
0.206237 0.257992 0.147464
0.212809 0.263051 0.182959
0.220620 0.269063 0.225141
0.228765 0.275332 0.269128
0.237020 0.281687 0.313709
0.245465 0.288187 0.359317
0.203876 0.275853 0.042490
0.206379 0.277780 0.056009
0.209929 0.280513 0.075181
0.214243 0.283834 0.098481
0.218838 0.287371 0.123297
0.224016 0.291356 0.151256
0.230588 0.296415 0.186751
0.238399 0.302427 0.228933
0.246544 0.308696 0.272920
0.254799 0.315051 0.317501
0.263244 0.321551 0.363109
0.106417 0.066476 0.017665
0.108921 0.068403 0.031184
0.112471 0.071136 0.050356
0.116785 0.074457 0.073656
0.121380 0.077994 0.098472
0.126557 0.081979 0.126431
0.133130 0.087038 0.161926
0.140941 0.093050 0.204109
0.149086 0.099319 0.248095
0.157341 0.105674 0.292676
0.165786 0.112174 0.338284
0.111705 0.076399 0.018793
0.114208 0.078326 0.032312
0.117758 0.081058 0.051484
0.122073 0.084379 0.074784
0.126668 0.087916 0.099600
0.131845 0.091901 0.127559
0.138418 0.096960 0.163054
0.146228 0.102973 0.205236
0.154373 0.109242 0.249223
0.162628 0.115596 0.293804
0.171074 0.122097 0.339412
0.119050 0.090182 0.020359
0.121553 0.092109 0.033878
0.125103 0.094841 0.053051
0.129417 0.098162 0.076351
0.134012 0.101699 0.101166
0.139190 0.105684 0.129125
0.145762 0.110743 0.164620
0.153573 0.116755 0.206803
0.161718 0.123025 0.250789
0.169973 0.129379 0.295371
0.178418 0.135880 0.340979
0.127729 0.106470 0.022211
