graphics/cube/LCDDisplay_694.cube
TITLE "QA_LCDDisplay_694"
# Copyright (c) 2026 @xsscx David H Hoyt LLC
# https://xss.cx
# Profiles applied (by profile description):
# - LCD Display
LUT_3D_SIZE 6
LUT_3D_INPUT_RANGE 0.204400 0.833500
0.016442 0.017408 0.016737
0.022495 0.022067 0.049428
0.031405 0.028925 0.097544
0.043155 0.037969 0.160998
0.059110 0.050251 0.247167
0.075811 0.063106 0.337357
0.029074 0.041113 0.019431
0.035128 0.045773 0.052123
0.044037 0.052631 0.100238
0.055787 0.061675 0.163692
0.071743 0.073957 0.249861
0.088443 0.086811 0.340051
0.046750 0.074283 0.023201
0.052803 0.078943 0.055893
0.061713 0.085801 0.104008
0.073462 0.094845 0.167462
0.089418 0.107126 0.253631
0.106118 0.119981 0.343821
0.069155 0.116330 0.027980
0.075209 0.120989 0.060671
0.084118 0.127847 0.108787
0.095868 0.136891 0.172241
0.111824 0.149173 0.258410
0.128524 0.162028 0.348600
0.099636 0.173529 0.034481
0.105689 0.178188 0.067172
0.114599 0.185046 0.115288
0.126348 0.194090 0.178742
0.142304 0.206372 0.264911
0.159004 0.219227 0.355101
0.133797 0.237636 0.041767
0.139850 0.242295 0.074458
0.148760 0.249153 0.122574
0.160510 0.258197 0.186028
0.176465 0.270479 0.272197
0.193166 0.283334 0.362387
0.032914 0.026391 0.016907
0.038967 0.031050 0.049598
0.047876 0.037908 0.097714
0.059626 0.046952 0.161168
0.075582 0.059234 0.247337
0.092282 0.072089 0.337526
0.045546 0.050096 0.019601
0.051599 0.054756 0.052293
0.060509 0.061614 0.100408
0.072258 0.070658 0.163862
0.088214 0.082939 0.250031
0.104914 0.095794 0.340221
0.063221 0.083266 0.023371
0.069275 0.087926 0.056062
0.078184 0.094783 0.104178
0.089934 0.103828 0.167632
0.105890 0.116109 0.253801
0.122590 0.128964 0.343991
0.085627 0.125312 0.028150
0.091680 0.129972 0.060841
0.100590 0.136830 0.108957
0.112340 0.145874 0.172411
0.128295 0.158156 0.258580
0.144996 0.171010 0.348769
0.116107 0.182511 0.034651
0.122161 0.187171 0.067342
0.131070 0.194029 0.115458
0.142820 0.203073 0.178912
0.158776 0.215355 0.265081
0.175476 0.228209 0.355270
0.150269 0.246619 0.041937
0.156322 0.251278 0.074628
0.165231 0.258136 0.122744
0.176981 0.267180 0.186198
0.192937 0.279462 0.272367
0.209637 0.292317 0.362557
0.056357 0.039175 0.017149
0.062410 0.043835 0.049840
0.071319 0.050693 0.097956
0.083069 0.059737 0.161410
0.099025 0.072019 0.247579
0.115725 0.084873 0.337768
0.068989 0.062881 0.019843
0.075042 0.067540 0.052534
0.083952 0.074398 0.100650
0.095701 0.083442 0.164104
0.111657 0.095724 0.250273
0.128357 0.108579 0.340462
0.086664 0.096051 0.023613
0.092718 0.100710 0.056304
0.101627 0.107568 0.104420
0.113377 0.116612 0.167874
0.129333 0.128894 0.254043
0.146033 0.141749 0.344232
0.109070 0.138097 0.028392
0.115123 0.142757 0.061083
0.124033 0.149615 0.109199
0.135783 0.158659 0.172653
0.151738 0.170940 0.258822
0.168439 0.183795 0.349011
0.139550 0.195296 0.034893
0.145604 0.199956 0.067584
0.154513 0.206814 0.115700
0.166263 0.215858 0.179154
0.182219 0.228139 0.265323
0.198919 0.240994 0.355512
0.173712 0.259403 0.042179
0.179765 0.264063 0.074870
0.188675 0.270921 0.122986
0.200424 0.279965 0.186440
0.216380 0.292247 0.272609
0.233080 0.305101 0.362798
0.086520 0.055625 0.017460
0.092574 0.060285 0.050151
0.101483 0.067143 0.098267
0.113233 0.076187 0.161721
0.129189 0.088468 0.247890
0.145889 0.101323 0.338079
0.099153 0.079331 0.020154
0.105206 0.083990 0.052845
0.114116 0.090848 0.100961
0.125865 0.099892 0.164415
0.141821 0.112174 0.250584
0.158521 0.125029 0.340773
0.116828 0.112501 0.023924
0.122882 0.117160 0.056615
0.131791 0.124018 0.104731
0.143541 0.133062 0.168185
0.159497 0.145344 0.254354
0.176197 0.158199 0.344543
0.139234 0.154547 0.028703
0.145287 0.159207 0.061394
0.154197 0.166065 0.109510
0.165947 0.175109 0.172964
0.181902 0.187390 0.259133
0.198603 0.200245 0.349322
0.169714 0.211746 0.035204
0.175768 0.216406 0.067895
0.184677 0.223264 0.116011
0.196427 0.232308 0.179465
0.212382 0.244589 0.265634
0.229083 0.257444 0.355823
0.203876 0.275853 0.042490
0.209929 0.280513 0.075181
0.218838 0.287371 0.123297
0.230588 0.296415 0.186751
0.246544 0.308696 0.272920
0.263244 0.321551 0.363109
0.127367 0.077901 0.017881
0.133421 0.082561 0.050572
0.142330 0.089419 0.098688
0.154080 0.098463 0.162142
0.170036 0.110744 0.248311
0.186736 0.123599 0.338500
0.140000 0.101607 0.020575
0.146053 0.106266 0.053267
0.154962 0.113124 0.101382
0.166712 0.122168 0.164836
0.182668 0.134450 0.251005
0.199368 0.147305 0.341195
0.157675 0.134777 0.024345
0.163729 0.139436 0.057037
0.172638 0.146294 0.105152
0.184388 0.155338 0.168606
0.200344 0.167620 0.254775
0.217044 0.180475 0.344965
0.180081 0.176823 0.029124
0.186134 0.181483 0.061815
0.195044 0.188340 0.109931
0.206793 0.197385 0.173385
0.222749 0.209666 0.259554
0.239449 0.222521 0.349743
0.210561 0.234022 0.035625
0.216614 0.238682 0.068316
0.225524 0.245540 0.116432
0.237274 0.254584 0.179886
0.253229 0.266865 0.266055
0.269930 0.279720 0.356244
0.244722 0.298129 0.042911
0.250776 0.302789 0.075602
0.259685 0.309647 0.123718
0.271435 0.318691 0.187172
0.287391 0.330972 0.273341
0.304091 0.343827 0.363531
0.171403 0.101916 0.018335
0.177457 0.106576 0.051026
0.186366 0.113434 0.099142
0.198116 0.122478 0.162596
0.214072 0.134760 0.248765
0.230772 0.147614 0.338955
0.184036 0.125622 0.021029
0.190089 0.130281 0.053721
0.198998 0.137139 0.101836
0.210748 0.146183 0.165291
0.226704 0.158465 0.251459
0.243404 0.171320 0.341649
0.201711 0.158792 0.024799
0.207765 0.163451 0.057491
0.216674 0.170309 0.105606
0.228424 0.179353 0.169060
0.244380 0.191635 0.255229
0.261080 0.204490 0.345419
0.224117 0.200838 0.029578
0.230170 0.205498 0.062269
0.239080 0.212356 0.110385
0.250829 0.221400 0.173839
0.266785 0.233681 0.260008
0.283486 0.246536 0.350198
0.254597 0.258037 0.036079
0.260650 0.262697 0.068770
0.269560 0.269555 0.116886
0.281310 0.278599 0.180340
0.297265 0.290881 0.266509
0.313966 0.303735 0.356699
0.288758 0.322144 0.043365
0.294812 0.326804 0.076057
0.303721 0.333662 0.124172
0.315471 0.342706 0.187626
0.331427 0.354988 0.273795
0.348127 0.367842 0.363985
