graphics/cube/Rec2100HlgNarrow_614.cube
TITLE "QA_Rec2100HlgNarrow_614"
# Copyright (c) 2026 @xsscx David H Hoyt LLC
# https://xss.cx
# Profiles applied (by profile description):
# - Rec. 2100 RGB with Hlg
LUT_3D_SIZE 35
LUT_3D_INPUT_RANGE 0.1 0.8
0.7 0.7 0.7
0.7 0.7 0.7
0.7 0.7 0.7
0.7 0.7 0.8
0.7 0.7 0.8
0.7 0.7 0.8
0.7 0.7 0.8
0.6 0.7 0.8
0.6 0.7 0.8
0.6 0.7 0.8
0.6 0.7 0.9
0.6 0.7 0.9
0.6 0.7 0.9
0.6 0.7 0.9
0.5 0.7 0.9
0.5 0.7 0.9
0.5 0.7 0.9
0.4 0.7 0.9
0.4 0.7 0.9
0.4 0.7 0.9
0.3 0.7 0.9
0.2 0.7 0.9
0.1 0.7 0.9
0.1 0.7 0.9
0.1 0.7 1.0
0.1 0.7 1.0
0.1 0.7 1.0
0.1 0.7 1.0
0.1 0.7 1.0
0.1 0.7 1.0
0.1 0.7 1.0
0.1 0.7 1.0
0.1 0.7 1.0
0.1 0.7 1.0
0.1 0.7 1.0
0.7 0.7 0.7
0.7 0.7 0.7
0.7 0.7 0.7
0.7 0.7 0.7
0.7 0.7 0.8
0.6 0.7 0.8
0.6 0.7 0.8
0.6 0.7 0.8
0.6 0.7 0.8
0.6 0.7 0.8
0.6 0.7 0.8
0.6 0.7 0.9
0.5 0.7 0.9
0.5 0.7 0.9
0.5 0.7 0.9
0.5 0.7 0.9
0.4 0.7 0.9
0.4 0.7 0.9
0.3 0.7 0.9
0.3 0.7 0.9
0.2 0.7 0.9
0.1 0.7 0.9
0.1 0.7 0.9
0.1 0.7 0.9
0.1 0.7 0.9
0.1 0.7 1.0
0.1 0.7 1.0
0.1 0.7 1.0
0.1 0.7 1.0
0.1 0.7 1.0
0.1 0.7 1.0
0.1 0.7 1.0
0.1 0.7 1.0
0.1 0.7 1.0
0.1 0.7 1.0
0.7 0.8 0.7
0.7 0.8 0.7
0.7 0.8 0.7
0.6 0.8 0.7
0.6 0.8 0.8
0.6 0.8 0.8
0.6 0.8 0.8
0.6 0.8 0.8
0.6 0.8 0.8
0.6 0.8 0.8
0.5 0.8 0.8
0.5 0.8 0.9
0.5 0.8 0.9
0.5 0.8 0.9
0.4 0.8 0.9
0.4 0.8 0.9
0.4 0.8 0.9
0.3 0.8 0.9
0.3 0.8 0.9
0.2 0.8 0.9
0.1 0.8 0.9
0.1 0.8 0.9
0.1 0.8 0.9
0.1 0.8 0.9
0.1 0.8 0.9
0.1 0.8 0.9
0.1 0.8 1.0
0.1 0.8 1.0
0.1 0.8 1.0
0.1 0.8 1.0
0.1 0.8 1.0
0.1 0.8 1.0
0.1 0.8 1.0
0.1 0.8 1.0
0.1 0.8 1.0
0.7 0.8 0.7
0.6 0.8 0.7
0.6 0.8 0.7
0.6 0.8 0.7
0.6 0.8 0.8
0.6 0.8 0.8
0.6 0.8 0.8
0.6 0.8 0.8
0.6 0.8 0.8
0.5 0.8 0.8
0.5 0.8 0.8
0.5 0.8 0.8
0.5 0.8 0.9
0.4 0.8 0.9
0.4 0.8 0.9
0.3 0.8 0.9
0.3 0.8 0.9
0.2 0.8 0.9
0.1 0.8 0.9
0.1 0.8 0.9
0.1 0.8 0.9
0.1 0.8 0.9
0.1 0.8 0.9
0.1 0.8 0.9
0.1 0.8 0.9
0.1 0.8 0.9
0.1 0.8 0.9
0.1 0.8 1.0
0.1 0.8 1.0
0.1 0.8 1.0
0.1 0.8 1.0
0.1 0.8 1.0
0.1 0.8 1.0
0.1 0.8 1.0
0.1 0.8 1.0
0.6 0.8 0.7
0.6 0.8 0.7
0.6 0.8 0.7
0.6 0.8 0.7
0.6 0.8 0.8
0.6 0.8 0.8
0.6 0.8 0.8
0.5 0.8 0.8
0.5 0.8 0.8
0.5 0.8 0.8
0.5 0.8 0.8
0.4 0.8 0.8
0.4 0.8 0.9
0.4 0.8 0.9
0.3 0.8 0.9
0.3 0.8 0.9
0.2 0.8 0.9
0.1 0.8 0.9
0.1 0.8 0.9
0.1 0.8 0.9
0.1 0.8 0.9
0.1 0.8 0.9
0.1 0.8 0.9
0.1 0.8 0.9
0.1 0.8 0.9
0.1 0.8 0.9
0.1 0.8 0.9
0.1 0.8 0.9
0.1 0.8 1.0
0.1 0.8 1.0
0.1 0.8 1.0
0.1 0.8 1.0
0.1 0.8 1.0
0.1 0.8 1.0
0.1 0.8 1.0
0.6 0.8 0.6
0.6 0.8 0.7
0.6 0.8 0.7
0.6 0.8 0.7
0.6 0.8 0.7
0.6 0.8 0.8
0.5 0.8 0.8
0.5 0.8 0.8
0.5 0.8 0.8
0.5 0.8 0.8
0.4 0.8 0.8
0.4 0.8 0.8
0.3 0.8 0.9
0.3 0.8 0.9
0.2 0.8 0.9
0.1 0.8 0.9
0.1 0.8 0.9
0.1 0.8 0.9
0.1 0.8 0.9
0.1 0.8 0.9
0.1 0.8 0.9
0.1 0.8 0.9
0.1 0.8 0.9
0.1 0.8 0.9
0.1 0.8 0.9
0.1 0.8 0.9
0.1 0.8 0.9
0.1 0.8 0.9
0.1 0.8 1.0
0.1 0.8 1.0
0.1 0.8 1.0
0.1 0.8 1.0
0.1 0.8 1.0
0.1 0.8 1.0
0.1 0.8 1.0
0.6 0.8 0.6
0.6 0.8 0.7
0.6 0.8 0.7
0.6 0.8 0.7
0.5 0.8 0.7
0.5 0.8 0.8
0.5 0.8 0.8
0.5 0.8 0.8
0.4 0.8 0.8
0.4 0.8 0.8
0.4 0.8 0.8
0.3 0.8 0.8
0.3 0.8 0.8
0.2 0.8 0.9
0.1 0.8 0.9
0.1 0.8 0.9
0.1 0.8 0.9
0.1 0.8 0.9
0.1 0.8 0.9
0.1 0.8 0.9
0.1 0.8 0.9
0.1 0.8 0.9
0.1 0.8 0.9
0.1 0.8 0.9
0.1 0.8 0.9
0.1 0.8 0.9
0.1 0.8 0.9
0.1 0.8 0.9
0.1 0.8 0.9
0.1 0.8 1.0
0.1 0.8 1.0
0.1 0.8 1.0
0.1 0.8 1.0
0.1 0.8 1.0
0.1 0.8 1.0
0.6 0.9 0.6
0.6 0.9 0.7
0.6 0.9 0.7
0.5 0.9 0.7
0.5 0.9 0.7
0.5 0.9 0.8
0.5 0.9 0.8
0.4 0.9 0.8
0.4 0.9 0.8
0.3 0.9 0.8
0.3 0.9 0.8
0.2 0.9 0.8
0.1 0.9 0.8
0.1 0.9 0.9
0.1 0.9 0.9
0.1 0.9 0.9
0.1 0.9 0.9
0.1 0.9 0.9
0.1 0.9 0.9
0.1 0.9 0.9
0.1 0.9 0.9
0.1 0.9 0.9
0.1 0.9 0.9
0.1 0.9 0.9
0.1 0.9 0.9
0.1 0.9 0.9
0.1 0.9 0.9
0.1 0.9 0.9
0.1 0.9 0.9
0.1 0.9 1.0
0.1 0.9 1.0
0.1 0.9 1.0
0.1 0.9 1.0
0.1 0.9 1.0
0.1 0.9 1.0
0.6 0.9 0.6
0.5 0.9 0.7
0.5 0.9 0.7
0.5 0.9 0.7
0.5 0.9 0.7
0.4 0.9 0.8
0.4 0.9 0.8
0.4 0.9 0.8
0.3 0.9 0.8
0.3 0.9 0.8
0.2 0.9 0.8
0.1 0.9 0.8
0.1 0.9 0.8
0.1 0.9 0.9
0.1 0.9 0.9
0.1 0.9 0.9
0.1 0.9 0.9
0.1 0.9 0.9
0.1 0.9 0.9
0.1 0.9 0.9
0.1 0.9 0.9
0.1 0.9 0.9
0.1 0.9 0.9
0.1 0.9 0.9
0.1 0.9 0.9
0.1 0.9 0.9
0.1 0.9 0.9
0.1 0.9 0.9
0.1 0.9 0.9
0.1 0.9 0.9
0.1 0.9 1.0
0.1 0.9 1.0
0.1 0.9 1.0
0.1 0.9 1.0
0.1 0.9 1.0
0.5 0.9 0.6
0.5 0.9 0.7
0.5 0.9 0.7
0.5 0.9 0.7
0.4 0.9 0.7
0.4 0.9 0.8
0.4 0.9 0.8
0.3 0.9 0.8
0.3 0.9 0.8
0.2 0.9 0.8
0.1 0.9 0.8
0.1 0.9 0.8
0.1 0.9 0.8
0.1 0.9 0.8
0.1 0.9 0.9
0.1 0.9 0.9
0.1 0.9 0.9
0.1 0.9 0.9
0.1 0.9 0.9
0.1 0.9 0.9
0.1 0.9 0.9
0.1 0.9 0.9
0.1 0.9 0.9
0.1 0.9 0.9
0.1 0.9 0.9
0.1 0.9 0.9
0.1 0.9 0.9
0.1 0.9 0.9
0.1 0.9 0.9
0.1 0.9 0.9
0.1 0.9 1.0
0.1 0.9 1.0
0.1 0.9 1.0
0.1 0.9 1.0
0.1 0.9 1.0
0.5 0.9 0.6
0.5 0.9 0.7
0.4 0.9 0.7
0.4 0.9 0.7
0.4 0.9 0.7
0.3 0.9 0.8
0.3 0.9 0.8
0.2 0.9 0.8
0.1 0.9 0.8
0.1 0.9 0.8
0.1 0.9 0.8
0.1 0.9 0.8
0.1 0.9 0.8
0.1 0.9 0.8
0.1 0.9 0.9
0.1 0.9 0.9
0.1 0.9 0.9
0.1 0.9 0.9
0.1 0.9 0.9
0.1 0.9 0.9
0.1 0.9 0.9
0.1 0.9 0.9
0.1 0.9 0.9
0.1 0.9 0.9
0.1 0.9 0.9
0.1 0.9 0.9
0.1 0.9 0.9
0.1 0.9 0.9
0.1 0.9 0.9
0.1 0.9 0.9
0.1 0.9 0.9
0.1 0.9 1.0
0.1 0.9 1.0
0.1 0.9 1.0
0.1 0.9 1.0
0.5 0.9 0.6
0.4 0.9 0.7
0.4 0.9 0.7
0.4 0.9 0.7
0.3 0.9 0.7
0.3 0.9 0.7
0.2 0.9 0.8
0.1 0.9 0.8
0.1 0.9 0.8
0.1 0.9 0.8
0.1 0.9 0.8
0.1 0.9 0.8
0.1 0.9 0.8
0.1 0.9 0.8
0.1 0.9 0.9
0.1 0.9 0.9
0.1 0.9 0.9
0.1 0.9 0.9
0.1 0.9 0.9
0.1 0.9 0.9
0.1 0.9 0.9
0.1 0.9 0.9
0.1 0.9 0.9
0.1 0.9 0.9
0.1 0.9 0.9
0.1 0.9 0.9
0.1 0.9 0.9
0.1 0.9 0.9
0.1 0.9 0.9
0.1 0.9 0.9
0.1 0.9 0.9
0.1 0.9 1.0
0.1 0.9 1.0
0.1 0.9 1.0
0.1 0.9 1.0
0.4 0.9 0.6
0.4 0.9 0.7
0.3 0.9 0.7
0.3 0.9 0.7
0.2 0.9 0.7
0.1 0.9 0.7
0.1 0.9 0.8
0.1 0.9 0.8
0.1 0.9 0.8
0.1 0.9 0.8
0.1 0.9 0.8
0.1 0.9 0.8
0.1 0.9 0.8
0.1 0.9 0.8
0.1 0.9 0.9
0.1 0.9 0.9
0.1 0.9 0.9
0.1 0.9 0.9
0.1 0.9 0.9
0.1 0.9 0.9
0.1 0.9 0.9
0.1 0.9 0.9
0.1 0.9 0.9
0.1 0.9 0.9
0.1 0.9 0.9
0.1 0.9 0.9
0.1 0.9 0.9
0.1 0.9 0.9
0.1 0.9 0.9
0.1 0.9 0.9
0.1 0.9 0.9
0.1 0.9 0.9
0.1 0.9 1.0
0.1 0.9 1.0
0.1 0.9 1.0
0.4 0.9 0.6
0.3 0.9 0.7
0.3 0.9 0.7
0.2 0.9 0.7
0.1 0.9 0.7
0.1 0.9 0.7
0.1 0.9 0.8
0.1 0.9 0.8
0.1 0.9 0.8
0.1 0.9 0.8
0.1 0.9 0.8
0.1 0.9 0.8
0.1 0.9 0.8
0.1 0.9 0.8
0.1 0.9 0.8
0.1 0.9 0.9
0.1 0.9 0.9
0.1 0.9 0.9
0.1 0.9 0.9
0.1 0.9 0.9
0.1 0.9 0.9
0.1 0.9 0.9
0.1 0.9 0.9
0.1 0.9 0.9
0.1 0.9 0.9
0.1 0.9 0.9
0.1 0.9 0.9
0.1 0.9 0.9
0.1 0.9 0.9
0.1 0.9 0.9
0.1 0.9 0.9
0.1 0.9 0.9
0.1 0.9 1.0
0.1 0.9 1.0
0.1 0.9 1.0
0.3 0.9 0.6
0.2 0.9 0.6
0.2 0.9 0.7
0.1 0.9 0.7
0.1 0.9 0.7
0.1 0.9 0.7
0.1 0.9 0.8
0.1 0.9 0.8
0.1 0.9 0.8
0.1 0.9 0.8
0.1 0.9 0.8
0.1 0.9 0.8
0.1 0.9 0.8
0.1 0.9 0.8
0.1 0.9 0.8
0.1 0.9 0.9
0.1 0.9 0.9
0.1 0.9 0.9
0.1 0.9 0.9
0.1 0.9 0.9
0.1 0.9 0.9
0.1 0.9 0.9
0.1 0.9 0.9
0.1 0.9 0.9
0.1 0.9 0.9
0.1 0.9 0.9
0.1 0.9 0.9
0.1 0.9 0.9
0.1 0.9 0.9
0.1 0.9 0.9
0.1 0.9 0.9
0.1 0.9 0.9
0.1 0.9 1.0
0.1 0.9 1.0
0.1 0.9 1.0
0.2 0.9 0.6
0.1 0.9 0.6
0.1 0.9 0.7
0.1 0.9 0.7
0.1 0.9 0.7
0.1 0.9 0.7
0.1 0.9 0.8
0.1 0.9 0.8
0.1 0.9 0.8
0.1 0.9 0.8
0.1 0.9 0.8
0.1 0.9 0.8
0.1 0.9 0.8
0.1 0.9 0.8
0.1 0.9 0.8
0.1 0.9 0.9
0.1 0.9 0.9
0.1 0.9 0.9
0.1 0.9 0.9
0.1 0.9 0.9
0.1 0.9 0.9
0.1 0.9 0.9
0.1 0.9 0.9
0.1 0.9 0.9
0.1 0.9 0.9
0.1 0.9 0.9
0.1 0.9 0.9
0.1 0.9 0.9
0.1 0.9 0.9
0.1 0.9 0.9
0.1 0.9 0.9
0.1 0.9 0.9
0.1 0.9 0.9
0.1 0.9 1.0
0.1 0.9 1.0
0.1 0.9 0.6
0.1 0.9 0.6
0.1 0.9 0.7
0.1 0.9 0.7
0.1 0.9 0.7
0.1 0.9 0.7
0.1 0.9 0.8
0.1 0.9 0.8
0.1 0.9 0.8
0.1 0.9 0.8
0.1 0.9 0.8
0.1 0.9 0.8
0.1 0.9 0.8
0.1 0.9 0.8
0.1 0.9 0.8
0.1 0.9 0.9
0.1 0.9 0.9
0.1 0.9 0.9
0.1 0.9 0.9
0.1 0.9 0.9
0.1 0.9 0.9
0.1 0.9 0.9
0.1 0.9 0.9
0.1 0.9 0.9
0.1 0.9 0.9
0.1 0.9 0.9
0.1 0.9 0.9
0.1 0.9 0.9
0.1 0.9 0.9
0.1 0.9 0.9
0.1 0.9 0.9
0.1 0.9 0.9
0.1 0.9 0.9
0.1 0.9 1.0
0.1 0.9 1.0
0.1 0.9 0.6
0.1 0.9 0.6
0.1 0.9 0.7
0.1 0.9 0.7
0.1 0.9 0.7
0.1 0.9 0.7
0.1 0.9 0.8
0.1 0.9 0.8
0.1 0.9 0.8
0.1 0.9 0.8
0.1 0.9 0.8
0.1 0.9 0.8
0.1 0.9 0.8
0.1 0.9 0.8
0.1 0.9 0.8
0.1 0.9 0.9
0.1 0.9 0.9
0.1 0.9 0.9
0.1 0.9 0.9
0.1 0.9 0.9
0.1 0.9 0.9
0.1 0.9 0.9
0.1 0.9 0.9
0.1 0.9 0.9
0.1 0.9 0.9
0.1 0.9 0.9
0.1 0.9 0.9
0.1 0.9 0.9
0.1 0.9 0.9
0.1 0.9 0.9
0.1 0.9 0.9
0.1 0.9 0.9
0.1 0.9 0.9
0.1 0.9 1.0
0.1 0.9 1.0
0.1 0.9 0.6
0.1 0.9 0.6
0.1 0.9 0.7
0.1 0.9 0.7
0.1 0.9 0.7
0.1 0.9 0.7
0.1 0.9 0.7
0.1 0.9 0.8
0.1 0.9 0.8
0.1 0.9 0.8
0.1 0.9 0.8
0.1 0.9 0.8
0.1 0.9 0.8
0.1 0.9 0.8
0.1 0.9 0.8
0.1 0.9 0.8
0.1 0.9 0.9
0.1 0.9 0.9
0.1 0.9 0.9
0.1 0.9 0.9
0.1 0.9 0.9
0.1 0.9 0.9
0.1 0.9 0.9
0.1 0.9 0.9
0.1 0.9 0.9
0.1 0.9 0.9
0.1 0.9 0.9
0.1 0.9 0.9
0.1 0.9 0.9
0.1 0.9 0.9
0.1 0.9 0.9
0.1 0.9 0.9
0.1 0.9 0.9
0.1 0.9 0.9
0.1 0.9 1.0
0.1 1.0 0.6
0.1 1.0 0.6
0.1 1.0 0.7
0.1 1.0 0.7
0.1 1.0 0.7
0.1 1.0 0.7
0.1 1.0 0.7
0.1 1.0 0.8
0.1 1.0 0.8
0.1 1.0 0.8
0.1 1.0 0.8
0.1 1.0 0.8
0.1 1.0 0.8
0.1 1.0 0.8
0.1 1.0 0.8
0.1 1.0 0.8
0.1 1.0 0.9
0.1 1.0 0.9
0.1 1.0 0.9
0.1 1.0 0.9
0.1 1.0 0.9
0.1 1.0 0.9
0.1 1.0 0.9
0.1 1.0 0.9
0.1 1.0 0.9
0.1 1.0 0.9
0.1 1.0 0.9
0.1 1.0 0.9
0.1 1.0 0.9
0.1 1.0 0.9
0.1 1.0 0.9
0.1 1.0 0.9
0.1 1.0 0.9
0.1 1.0 0.9
0.1 1.0 1.0
0.1 1.0 0.6
0.1 1.0 0.6
0.1 1.0 0.7
0.1 1.0 0.7
0.1 1.0 0.7
0.1 1.0 0.7
0.1 1.0 0.7
0.1 1.0 0.8
0.1 1.0 0.8
0.1 1.0 0.8
0.1 1.0 0.8
0.1 1.0 0.8
0.1 1.0 0.8
0.1 1.0 0.8
0.1 1.0 0.8
0.1 1.0 0.8
0.1 1.0 0.9
0.1 1.0 0.9
0.1 1.0 0.9
0.1 1.0 0.9
0.1 1.0 0.9
0.1 1.0 0.9
0.1 1.0 0.9
0.1 1.0 0.9
0.1 1.0 0.9
0.1 1.0 0.9
0.1 1.0 0.9
0.1 1.0 0.9
0.1 1.0 0.9
0.1 1.0 0.9
0.1 1.0 0.9
0.1 1.0 0.9
0.1 1.0 0.9
0.1 1.0 0.9
0.1 1.0 1.0
0.1 1.0 0.6
0.1 1.0 0.6
0.1 1.0 0.7
0.1 1.0 0.7
0.1 1.0 0.7
0.1 1.0 0.7
0.1 1.0 0.7
0.1 1.0 0.8
0.1 1.0 0.8
0.1 1.0 0.8
0.1 1.0 0.8
0.1 1.0 0.8
0.1 1.0 0.8
0.1 1.0 0.8
0.1 1.0 0.8
0.1 1.0 0.8
0.1 1.0 0.9
0.1 1.0 0.9
0.1 1.0 0.9
0.1 1.0 0.9
0.1 1.0 0.9
0.1 1.0 0.9
0.1 1.0 0.9
0.1 1.0 0.9
0.1 1.0 0.9
0.1 1.0 0.9
0.1 1.0 0.9
0.1 1.0 0.9
0.1 1.0 0.9
0.1 1.0 0.9
0.1 1.0 0.9
0.1 1.0 0.9
0.1 1.0 0.9
0.1 1.0 0.9
0.1 1.0 0.9
0.1 1.0 0.6
0.1 1.0 0.6
0.1 1.0 0.7
0.1 1.0 0.7
0.1 1.0 0.7
0.1 1.0 0.7
0.1 1.0 0.7
0.1 1.0 0.8
0.1 1.0 0.8
0.1 1.0 0.8
0.1 1.0 0.8
0.1 1.0 0.8
0.1 1.0 0.8
0.1 1.0 0.8
0.1 1.0 0.8
0.1 1.0 0.8
0.1 1.0 0.9
0.1 1.0 0.9
0.1 1.0 0.9
0.1 1.0 0.9
0.1 1.0 0.9
0.1 1.0 0.9
0.1 1.0 0.9
0.1 1.0 0.9
0.1 1.0 0.9
0.1 1.0 0.9
0.1 1.0 0.9
0.1 1.0 0.9
0.1 1.0 0.9
0.1 1.0 0.9
0.1 1.0 0.9
0.1 1.0 0.9
0.1 1.0 0.9
0.1 1.0 0.9
0.1 1.0 0.9
0.1 1.0 0.6
0.1 1.0 0.6
0.1 1.0 0.7
0.1 1.0 0.7
0.1 1.0 0.7
0.1 1.0 0.7
0.1 1.0 0.7
0.1 1.0 0.8
0.1 1.0 0.8
0.1 1.0 0.8
0.1 1.0 0.8
0.1 1.0 0.8
0.1 1.0 0.8
0.1 1.0 0.8
0.1 1.0 0.8
0.1 1.0 0.8
0.1 1.0 0.8
0.1 1.0 0.9
0.1 1.0 0.9
0.1 1.0 0.9
0.1 1.0 0.9
0.1 1.0 0.9
0.1 1.0 0.9
0.1 1.0 0.9
0.1 1.0 0.9
0.1 1.0 0.9
0.1 1.0 0.9
0.1 1.0 0.9
0.1 1.0 0.9
0.1 1.0 0.9
0.1 1.0 0.9
0.1 1.0 0.9
0.1 1.0 0.9
0.1 1.0 0.9
0.1 1.0 0.9
0.1 1.0 0.6
0.1 1.0 0.6
0.1 1.0 0.7
0.1 1.0 0.7
0.1 1.0 0.7
0.1 1.0 0.7
0.1 1.0 0.7
0.1 1.0 0.8
0.1 1.0 0.8
0.1 1.0 0.8
0.1 1.0 0.8
0.1 1.0 0.8
0.1 1.0 0.8
0.1 1.0 0.8
0.1 1.0 0.8
0.1 1.0 0.8
0.1 1.0 0.8
0.1 1.0 0.9
0.1 1.0 0.9
0.1 1.0 0.9
0.1 1.0 0.9
0.1 1.0 0.9
0.1 1.0 0.9
0.1 1.0 0.9
0.1 1.0 0.9
0.1 1.0 0.9
0.1 1.0 0.9
0.1 1.0 0.9
0.1 1.0 0.9
0.1 1.0 0.9
0.1 1.0 0.9
0.1 1.0 0.9
0.1 1.0 0.9
0.1 1.0 0.9
0.1 1.0 0.9
0.1 1.0 0.6
0.1 1.0 0.6
0.1 1.0 0.7
0.1 1.0 0.7
0.1 1.0 0.7
0.1 1.0 0.7
0.1 1.0 0.7
0.1 1.0 0.8
0.1 1.0 0.8
0.1 1.0 0.8
0.1 1.0 0.8
0.1 1.0 0.8
0.1 1.0 0.8
0.1 1.0 0.8
0.1 1.0 0.8
0.1 1.0 0.8
0.1 1.0 0.8
0.1 1.0 0.9
0.1 1.0 0.9
0.1 1.0 0.9
0.1 1.0 0.9
0.1 1.0 0.9
0.1 1.0 0.9
0.1 1.0 0.9
0.1 1.0 0.9
