graphics/cube/Rec2100HlgNarrow_457.cube
TITLE "QA_Rec2100HlgNarrow_457"
# Copyright (c) 2026 @xsscx David H Hoyt LLC
# https://xss.cx
# Profiles applied (by profile description):
# - Rec. 2100 RGB with Hlg
LUT_3D_SIZE 4
LUT_3D_INPUT_RANGE 0.22510 0.97130
0.00539 0.00575 0.00827
0.00803 0.00680 0.02952
0.01895 0.01093 0.11898
0.09311 0.03794 0.73719
0.00903 0.01980 0.01035
0.01238 0.02119 0.03786
0.02505 0.02633 0.14253
0.10307 0.05639 0.79188
0.02393 0.08684 0.01554
0.02823 0.08864 0.05112
0.04398 0.09520 0.18161
0.13281 0.13122 0.91950
0.12672 0.56960 0.04437
0.13260 0.57208 0.09313
0.15391 0.58103 0.26981
0.26861 0.62888 1.22147
0.01651 0.01071 0.00900
0.01974 0.01193 0.03345
0.03217 0.01657 0.12984
0.11004 0.04494 0.75989
0.02216 0.02606 0.01067
0.02579 0.02752 0.03957
0.03935 0.03290 0.14839
0.12033 0.06387 0.80930
0.04037 0.09487 0.01571
0.04478 0.09670 0.05183
0.06093 0.10335 0.18414
0.15145 0.13982 0.92946
0.14902 0.58058 0.04449
0.15493 0.58306 0.09342
0.17636 0.59205 0.27065
0.29165 0.64004 1.22506
0.06820 0.03283 0.01016
0.07232 0.03435 0.04025
0.08750 0.03994 0.15275
0.17470 0.07173 0.82488
0.07686 0.05088 0.01148
0.08113 0.05253 0.04395
0.09683 0.05853 0.16408
0.18594 0.09208 0.86213
0.10318 0.12481 0.01626
0.10793 0.12673 0.05407
0.12526 0.13369 0.19223
0.22112 0.17162 0.96227
0.23062 0.62051 0.04494
0.23665 0.62302 0.09441
0.25849 0.63210 0.27358
0.37586 0.68061 1.23769
0.43854 0.18862 0.01218
0.44416 0.19068 0.05270
0.46453 0.19814 0.20024
0.57494 0.23844 1.01197
0.45157 0.21235 0.01343
0.45722 0.21445 0.05476
0.47775 0.22205 0.20515
0.58887 0.26308 1.02997
0.49502 0.30161 0.01815
0.50084 0.30384 0.06199
0.52193 0.31189 0.22119
0.63579 0.35519 1.08744
0.68844 0.83910 0.04704
0.69498 0.84174 0.09905
0.71864 0.85129 0.28733
0.84532 0.90221 1.29724
