graphics/cube/Rec2020rgbSpectral_463.cube
TITLE "QA_Rec2020rgbSpectral_463"
# Copyright (c) 2026 @xsscx David H Hoyt LLC
# https://xss.cx
# Profiles applied (by profile description):
# - Rec. 2020 RGB Spectral
LUT_3D_SIZE 64
LUT_3D_INPUT_RANGE 0.1959999948740 0.9254000186920
0.6542031168938 0.6088830828667 0.5933495759964
0.6495372653008 0.6091863512993 0.6121042370796
0.6448357105255 0.6094895601273 0.6302732825279
0.6400975584984 0.6097925305367 0.6479054689407
0.6353219151497 0.6100953817368 0.6650431752205
0.6305080652237 0.6103981137276 0.6817237734795
0.6256551146507 0.6107006072998 0.6979797482491
0.6207621097565 0.6110029220581 0.7138404250145
0.6158281564713 0.6113051772118 0.7293317317963
0.6108522415161 0.6116072535515 0.7444768548012
0.6058332920074 0.6119091510773 0.7592968940735
0.6007702946663 0.6122108697891 0.7738105654716
0.5956621766090 0.6125124692917 0.7880352735519
0.5905078053474 0.6128138899803 0.8019865155220
0.5853058099747 0.6131151318550 0.8156787753105
0.5800551772118 0.6134163141251 0.8291249871254
0.5747544169426 0.6137172579765 0.8423373103142
0.5694022178650 0.6140180826187 0.8553268909454
0.5639970302582 0.6143186688423 0.8681039214134
0.5585375428200 0.6146191358566 0.8806779384613
0.5530221462250 0.6149195432663 0.8930577635765
0.5474491119385 0.6152197718620 0.9052517414093
0.5418167710304 0.6155197620392 0.9172674417496
0.5361232757568 0.6158196330070 0.9291118383408
0.5303668379784 0.6161193847656 0.9407919645309
0.5245451927185 0.6164189577103 0.9523138999939
0.5186564326286 0.6167183518410 0.9636836051941
0.5126982927322 0.6170175671577 0.9749065637589
0.5066683888435 0.6173167824745 0.9859880208969
0.5005642771721 0.6176156997681 0.9969327449799
0.4943832755089 0.6179144978523 1.0077457427979
0.4881225228310 0.6182131767273 1.0184310674667
0.4817792177200 0.6185116171837 1.0289930105209
0.4753500819206 0.6188100576401 1.0394353866577
0.4688318371773 0.6191082000732 1.0497620105743
0.4622208476067 0.6194062829018 1.0599765777588
0.4555133581161 0.6197041869164 1.0700820684433
0.4487053155899 0.6200019121170 1.0800820589066
0.4417921900749 0.6202995181084 1.0899796485901
0.4347694516182 0.6205970048904 1.0997772216797
0.4276319742203 0.6208942532539 1.1094782352448
0.4203743338585 0.6211913824081 1.1190848350525
0.4129906296730 0.6214883923531 1.1285997629166
0.4054745435715 0.6217852234840 1.1380255222321
0.3978190422058 0.6220819354057 1.1473641395569
0.3900167346001 0.6223784685135 1.1566181182861
0.3820592761040 0.6226749420166 1.1657894849777
0.3739377260208 0.6229711174965 1.1748803853989
0.3656421303749 0.6232672333717 1.1838927268982
0.3571615815163 0.6235632300377 1.1928281784058
0.3484839200974 0.6238590478897 1.2016887664795
0.3395956754684 0.6241546869278 1.2104763984680
0.3304817676544 0.6244502067566 1.2191923856735
0.3211253285408 0.6247456073761 1.2278385162354
0.3115071654320 0.6250408291817 1.2364164590836
0.3016056418419 0.6253358721733 1.2449274063110
0.2913956642151 0.6256307959557 1.2533732652664
0.2808487415314 0.6259256005287 1.2617549896240
0.2699313759804 0.6262201666832 1.2700741291046
0.2586045265198 0.6265147328377 1.2783318758011
0.2468215674162 0.6268090605736 1.2865296602249
0.2345267981291 0.6271032094955 1.2946685552597
0.2216518968344 0.6273972392082 1.3027496337891
0.2081124633551 0.6276911497116 1.3107744455338
0.6476230025291 0.6398708820343 0.5924673080444
0.6429066061974 0.6401587128639 0.6112504005432
0.6381532549858 0.6404464244843 0.6294454336166
0.6333621144295 0.6407340168953 0.6471014618874
0.6285324096680 0.6410214900970 0.6642611622810
0.6236632466316 0.6413087844849 0.6809620261192
0.6187536716461 0.6415959596634 0.6972370147705
0.6138026714325 0.6418829560280 0.7131153941154
0.6088092923164 0.6421698927879 0.7286232113838
0.6037725806236 0.6424567103386 0.7437839508057
0.5986912846565 0.6427432894707 0.7586185336113
0.5935643911362 0.6430297493935 0.7731459736824
0.5883907675743 0.6433160901070 0.7873837351799
0.5831691026688 0.6436023712158 0.8013473153114
0.5778980851173 0.6438884139061 0.8150511980057
0.5725764632225 0.6441743969917 0.8285085558891
0.5672028660774 0.6444602012634 0.8417314291000
0.5617758035660 0.6447459459305 0.8547310233116
0.5562936067581 0.6450315117836 0.8675176501274
0.5507549047470 0.6453168392181 0.8801008462906
0.5451579093933 0.6456022262573 0.8924895524979
0.5395008921623 0.6458873748779 0.9046919345856
0.5337818861008 0.6461723446846 0.9167156219482
0.5279989838600 0.6464571952820 0.9285678863525
0.5221503376961 0.6467419862747 0.9402554035187
0.5162335038185 0.6470265984535 0.9517846107483
0.5102463960648 0.6473110914230 0.9631611108780
0.5041865110397 0.6475954055786 0.9743907451630
0.4980512857437 0.6478796601295 0.9854786396027
0.4918381571770 0.6481637358665 0.9964296817780
0.4855440258980 0.6484476923943 1.0072485208511
0.4791661500931 0.6487315297127 1.0179396867752
0.4727010130882 0.6490152478218 1.0285073518753
0.4661453962326 0.6492988467216 1.0389550924301
0.4594954848289 0.6495822072029 1.0492870807648
0.4527475237846 0.6498655080795 1.0595065355301
0.4458970427513 0.6501487493515 1.0696172714233
0.4389398694038 0.6504316926003 1.0796220302582
0.4318708777428 0.6507146358490 1.0895242691040
0.4246850609779 0.6509974598885 1.0993264913559
0.4173766970634 0.6512800455093 1.1090317964554
0.4099397659302 0.6515625715256 1.1186426877975
0.4023676514626 0.6518449783325 1.1281617879868
0.3946532011032 0.6521272659302 1.1375916004181
0.3867886662483 0.6524093151093 1.1469341516495
0.3787653446198 0.6526913642883 1.1561920642853
0.3705739974976 0.6529732346535 1.1653673648834
0.3622043132782 0.6532549858093 1.1744618415833
0.3536449074745 0.6535366177559 1.1834776401520
0.3448829650879 0.6538180708885 1.1924166679382
0.3359045982361 0.6540994644165 1.2012808322906
0.3266938924789 0.6543806791306 1.2100716829300
0.3172330260277 0.6546617746353 1.2187910079956
0.3075020313263 0.6549427509308 1.2274403572083
0.2974777817726 0.6552235484123 1.2360213994980
0.2871341705322 0.6555042862892 1.2445353269577
0.2764403223991 0.6557849049568 1.2529841661453
0.2653610110283 0.6560653448105 1.2613687515259
0.2538540959358 0.6563456654549 1.2696908712387
0.2418696135283 0.6566258668900 1.2779514789581
0.2293470650911 0.6569059491158 1.2861520051956
0.2162123769522 0.6571859121323 1.2942935228348
0.2023726552725 0.6574657559395 1.3023773431778
0.1877096146345 0.6577454209328 1.3104046583176
0.6409713625908 0.6693468689919 0.5915837287903
0.6362026333809 0.6696212887764 0.6103953719139
0.6313959360123 0.6698956489563 0.6286163330078
0.6265501976013 0.6701697707176 0.6462963819504
0.6216647028923 0.6704438924789 0.6634781360626
0.6167382597923 0.6707178354263 0.6801995038986
0.6117701530457 0.6709916591644 0.6964935064316
0.6067591905594 0.6712653636932 0.7123895883560
0.6017044186592 0.6715389490128 0.7279140353203
0.5966047048569 0.6718124747276 0.7430902123451
0.5914587974548 0.6720858216286 0.7579395771027
0.5862656831741 0.6723590493202 0.7724807858467
0.5810241103172 0.6726321578026 0.7867315411568
0.5757325887680 0.6729051470757 0.8007075190544
0.5703898668289 0.6731780171394 0.8144230842590
0.5649946331978 0.6734508275986 0.8278915882111
0.5595452785492 0.6737234592438 0.8411250710487
0.5540403723717 0.6739959716797 0.8541347384453
0.5484780073166 0.6742684245110 0.8669310212135
0.5428566336632 0.6745406389236 0.8795234560966
0.5371746420860 0.6748129129410 0.8919209241867
0.5314298272133 0.6750849485397 0.9041316509247
0.5256203413010 0.6753568649292 0.9161635637283
0.5197440385818 0.6756286621094 0.9280235767365
0.5137988924980 0.6759003996849 0.9397186040878
0.5077823400497 0.6761719584465 0.9512548446655
0.5016921162605 0.6764434576035 0.9626383781433
0.4955253601074 0.6767148375511 0.9738746881485
0.4892795085907 0.6769860982895 0.9849690198898
0.4829516410828 0.6772572398186 0.9959262609482
0.4765385389328 0.6775282621384 1.0067512989044
0.4700369238853 0.6777991056442 1.0174481868744
0.4634432792664 0.6780699491501 1.0280212163925
0.4567537903786 0.6783406138420 1.0384746789932
0.4499645233154 0.6786111593246 1.0488117933273
0.4430711269379 0.6788815855980 1.0590364933014
0.4360688328743 0.6791518926620 1.0691521167755
0.4289528727531 0.6794221401215 1.0791617631912
0.4217177033424 0.6796922087669 1.0890685319901
0.4143576622009 0.6799621582031 1.0988754034042
0.4068663716316 0.6802320480347 1.1085851192474
0.3992370963097 0.6805018186569 1.1182004213333
0.3914623260498 0.6807714700699 1.1277236938477
0.3835341334343 0.6810410022736 1.1371574401855
0.3754434585571 0.6813103556633 1.1465040445328
0.3671806454659 0.6815796494484 1.1557658910751
0.3587349057198 0.6818488240242 1.1649447679520
0.3500944972038 0.6821179389954 1.1740430593491
0.3412460088730 0.6823868751526 1.1830625534058
0.3321748375893 0.6826556921005 1.1920051574707
0.3228643536568 0.6829244494438 1.2008725404739
0.3132958412170 0.6831930279732 1.2096667289734
0.3034481406212 0.6834615468979 1.2183893918991
0.2932969331741 0.6837300062180 1.2270419597626
0.2828142642975 0.6839982867241 1.2356259822845
0.2719678878784 0.6842664480209 1.2441432476044
0.2607194781303 0.6845344901085 1.2525949478149
0.2490242868662 0.6848024129868 1.2609825134277
0.2368281632662 0.6850702762604 1.2693073749542
0.2240656763315 0.6853379607201 1.2775708436966
0.2106556445360 0.6856056451797 1.2857739925385
0.1964960843325 0.6858730912209 1.2939183712006
0.1814552098513 0.6861404776573 1.3020048141479
0.1653582602739 0.6864077448845 1.3100346326828
0.6342458128929 0.6975021362305 0.5906987190247
0.6294232606888 0.6977647542953 0.6095389723778
0.6245613694191 0.6980273127556 0.6277861595154
0.6196592450142 0.6982896924019 0.6454901695251
0.6147159934044 0.6985520124435 0.6626940965652
0.6097304821014 0.6988141536713 0.6794360280037
0.6047017574310 0.6990763545036 0.6957491636276
0.5996287465096 0.6993383169174 0.7116630077362
0.5945104360580 0.6996002197266 0.7272040843964
0.5893454551697 0.6998619437218 0.7423959374428
0.5841326713562 0.7001236677170 0.7572599053383
0.5788708329201 0.7003852128983 0.7718150019646
0.5735586881638 0.7006466388702 0.7860788106918
0.5681946873665 0.7009080648422 0.8000671863556
0.5627775192261 0.7011693716049 0.8137944936752
0.5573056340218 0.7014304399490 0.8272740840912
0.5517774224281 0.7016915082932 0.8405181765556
0.5461913347244 0.7019524574280 0.8535379767418
0.5405454039574 0.7022133469582 0.8663439750671
0.5348379015923 0.7024740576744 0.8789455890656
0.5290670394897 0.7027347087860 0.8913518786430
0.5232305526733 0.7029952406883 0.9035711288452
0.5173264741898 0.7032556533813 0.9156110286713
0.5113524198532 0.7035160064697 0.9274789094925
0.5053061842918 0.7037762403488 0.9391813278198
0.4991849660873 0.7040363550186 0.9507249593735
0.4929863810539 0.7042963504791 0.9621152877808
0.4867073297501 0.7045562267303 0.9733583927155
0.4803450107574 0.7048161029816 0.9844591617584
0.4738962650299 0.7050758004189 0.9954226016998
0.4673574566841 0.7053353786469 1.0062534809113
0.4607252478600 0.7055948972702 1.0169562101364
0.4539955258369 0.7058542966843 1.0275350809097
0.4471642971039 0.7061135768890 1.0379939079285
0.4402270317078 0.7063727974892 1.0483363866806
0.4331790208817 0.7066318988800 1.0585660934448
0.4260150790215 0.7068908810616 1.0686866044998
0.4187297224998 0.7071498632431 1.0787012577057
0.4113168716431 0.7074086070061 1.0886126756668
0.4037701487541 0.7076672911644 1.0984240770340
0.3960824012756 0.7079259157181 1.1081383228302
0.3882460594177 0.7081843614578 1.1177577972412
0.3802525997162 0.7084427475929 1.1272853612900
0.3720929622650 0.7087010145187 1.1367231607437
0.3637568354607 0.7089592218399 1.1460738182068
0.3552331924438 0.7092173695564 1.1553394794464
0.3465095162392 0.7094752788544 1.1645221710205
0.3375720977783 0.7097331881523 1.1736241579056
0.3284053206444 0.7099909782410 1.1826471090317
0.3189919590950 0.7102486491203 1.1915932893753
0.3093122243881 0.7105062603951 1.2004641294479
0.2993438243866 0.7107636928558 1.2092616558075
0.2890609502792 0.7110210657120 1.2179875373840
0.2784340977669 0.7112783789635 1.2266433238983
0.2674285173416 0.7115355730057 1.2352306842804
0.2560038566589 0.7117926478386 1.2437506914139
0.2441112548113 0.7120496630669 1.2522054910660
0.2316927760839 0.7123064994812 1.2605961561203
0.2186767905951 0.7125632762909 1.2689238786697
0.2049746960402 0.7128200531006 1.2771900892258
0.1904733330011 0.7130765318871 1.2853960990906
0.1750257462263 0.7133330702782 1.2935429811478
0.1584338098764 0.7135894894600 1.3016320466995
0.1404206305742 0.7138457298279 1.3096646070480
0.6274440288544 0.7244908809662 0.5898123383522
0.6225658059120 0.7247430682182 0.6086813211441
0.6176470518112 0.7249950766563 0.6269548535347
0.6126866340637 0.7252470850945 0.6446828842163
0.6076836585999 0.7254989743233 0.6619091629982
0.6026369929314 0.7257506847382 0.6786715984344
0.5975455641747 0.7260024547577 0.6950038671494
0.5924082994461 0.7262539863586 0.7109355926514
0.5872240066528 0.7265054583549 0.7264934182167
0.5819913744926 0.7267568707466 0.7417008876801
0.5767091512680 0.7270081639290 0.7565795779228
0.5713760256767 0.7272594571114 0.7711485624313
0.5659905076027 0.7275105118752 0.7854254841805
0.5605512857437 0.7277615666389 0.7994261980057
0.5550565719604 0.7280125021935 0.8131653070450
0.5495048761368 0.7282633781433 0.8266561627388
0.5438945889473 0.7285140752792 0.8399108648300
0.5382238626480 0.7287647724152 0.8529407978058
0.5324906706810 0.7290152311325 0.8657563924789
0.5266932845116 0.7292657494545 0.8783673048019
0.5208294391632 0.7295162081718 0.8907824158669
0.5148971080780 0.7297664284706 0.9030101299286
0.5088939070702 0.7300166487694 0.9150582551956
0.5028173327446 0.7302667498589 0.9269338846207
0.4966648817062 0.7305167317390 0.9386439323425
0.4904338121414 0.7307666540146 0.9501945972443
0.4841212630272 0.7310164570808 0.9615919589996
0.4777240157127 0.7312662005424 0.9728417396545
0.4712389707565 0.7315158843994 0.9839489459991
0.4646624922752 0.7317653894424 0.9949187040329
0.4579909443855 0.7320148348808 1.0057555437088
0.4512202739716 0.7322642207146 1.0164641141891
0.4443463683128 0.7325134873390 1.0270485877991
0.4373645186424 0.7327626347542 1.0375127792358
0.4302698373795 0.7330117821693 1.0478606224060
0.4230570197105 0.7332607507706 1.0580955743790
0.4157203435898 0.7335097193718 1.0682210922241
0.4082537293434 0.7337585687637 1.0782405138016
0.4006503224373 0.7340072393417 1.0881565809250
0.3929029107094 0.7342558503151 1.0979726314545
0.3850034475327 0.7345044612885 1.1076911687851
0.3769433498383 0.7347528934479 1.1173150539398
0.3687129616737 0.7350012660027 1.1268467903137
0.3603017926216 0.7352495193481 1.1362887620926
0.3516981005669 0.7354977130890 1.1456433534622
0.3428889513016 0.7357457876205 1.1549129486084
0.3338598608971 0.7359938025475 1.1640994548798
0.3245947360992 0.7362417578697 1.1732050180435
0.3150751590729 0.7364895343781 1.1822316646576
0.3052805662155 0.7367373108864 1.1911811828613
0.2951870560646 0.7369849681854 1.2000555992126
0.2847676873207 0.7372324466705 1.2088564634323
0.2739907503128 0.7374799251556 1.2175856828690
0.2628194689751 0.7377273440361 1.2262446880341
0.2512101531029 0.7379746437073 1.2348350286484
0.2391107827425 0.7382218837738 1.2433582544327
0.2264579087496 0.7384689450264 1.2518160343170
0.2131738811731 0.7387159466743 1.2602095603943
0.1991607993841 0.7389629483223 1.2685401439667
0.1842934936285 0.7392097711563 1.2768092155457
0.1684063524008 0.7394565343857 1.2850179672241
0.1512738913298 0.7397031784058 1.2931675910950
0.1325737833977 0.7399497032166 1.3012593984604
0.1118188649416 0.7401962280273 1.3092943429947
0.6205635666847 0.7504400610924 0.5889245867729
0.6156278848648 0.7506827712059 0.6078224182129
0.6106502413750 0.7509254813194 0.6261222958565
0.6056295633316 0.7511680722237 0.6438746452332
0.6005647778511 0.7514106035233 0.6611231565475
0.5954548120499 0.7516530752182 0.6779063344002
0.5902984738350 0.7518954277039 0.6942577362061
0.5850946307182 0.7521376609802 0.7102074027061
0.5798418521881 0.7523798346519 0.7257819771767
0.5745390653610 0.7526219487190 0.7410051822662
0.5691847205162 0.7528639435768 0.7558985948563
0.5637774467468 0.7531059384346 0.7704815268517
0.5583157539368 0.7533477544785 0.7847715616226
0.5527980327606 0.7535895109177 0.7987847328186
0.5472226738930 0.7538312077522 0.8125356435776
0.5415878891945 0.7540728449821 0.8260377049446
0.5358918905258 0.7543143033981 0.8393030762672
0.5301327705383 0.7545557618141 0.8523431420326
0.5243085622787 0.7547971606255 0.8651684522629
0.5184170007706 0.7550383210182 0.8777886033058
0.5124559998512 0.7552796006203 0.8902125954628
0.5064231157303 0.7555206418037 0.9024487733841
0.5003159642220 0.7557616233826 0.9145050048828
0.4941317439079 0.7560026049614 0.9263885021210
0.4878678321838 0.7562434077263 0.9381060600281
0.4815211296082 0.7564842104912 0.9496639966965
0.4750884175301 0.7567248940468 0.9610683917999
0.4685664772987 0.7569655179977 0.9723247289658
0.4619516730309 0.7572060227394 0.9834384918213
0.4552401900291 0.7574464082718 0.9944144487381
0.4484279155731 0.7576867938042 1.0052574872971
0.4415104985237 0.7579270601273 1.0159717798233
0.4344831705093 0.7581672668457 1.0265619754791
0.4273409843445 0.7584073543549 1.0370316505432
0.4200783967972 0.7586473822594 1.0473846197128
0.4126894474030 0.7588872909546 1.0576248168945
0.4051678180695 0.7591271400452 1.0677553415298
0.3975065946579 0.7593669891357 1.0777794122696
0.3896981477737 0.7596066594124 1.0877003669739
0.3817342519760 0.7598462700844 1.0975209474564
0.3736057877541 0.7600858211517 1.1072438955307
0.3653029799461 0.7603252530098 1.1168721914291
0.3568146824837 0.7605646252632 1.1264079809189
0.3481287956238 0.7608038783073 1.1358542442322
0.3392317891121 0.7610431313515 1.1452127695084
0.3301084637642 0.7612822055817 1.1544861793518
0.3207417726517 0.7615212798119 1.1636763811111
0.3111126422882 0.7617602348328 1.1727857589722
0.3011990785599 0.7619991302490 1.1818159818649
0.2909761667252 0.7622379660606 1.1907690763474
0.2804149389267 0.7624766230583 1.1996469497681
0.2694818973541 0.7627152800560 1.2084511518478
0.2581375241280 0.7629538774490 1.2171835899353
0.2463351041079 0.7631923556328 1.2258456945419
0.2340181916952 0.7634307146072 1.2344393730164
0.2211182862520 0.7636690139771 1.2429656982422
0.2075498551130 0.7639072537422 1.2514263391495
0.1932053416967 0.7641453742981 1.2598228454590
0.1779445558786 0.7643834948540 1.2681562900543
0.1615809053183 0.7646215558052 1.2764282226562
0.1438547074795 0.7648593783379 1.2846397161484
0.1243881136179 0.7650972604752 1.2927920818329
0.1025910824537 0.7653350234032 1.3008863925934
0.0774978697300 0.7655726671219 1.3089241981506
0.6136017441750 0.7754549384117 0.5880354046822
0.6086066365242 0.7756892442703 0.6069622635841
0.6035680770874 0.7759234905243 0.6252886056900
0.5984849929810 0.7761576771736 0.6430652141571
0.5933562517166 0.7763917446136 0.6603361964226
0.5881806612015 0.7766258120537 0.6771401166916
0.5829570293427 0.7768597006798 0.6935107707977
0.5776839852333 0.7770935893059 0.7094783782959
0.5723603963852 0.7773273587227 0.7250697612762
0.5669845938683 0.7775610685349 0.7403087019920
0.5615552663803 0.7777946591377 0.7552170157433
0.5560709238052 0.7780282497406 0.7698138952255
0.5505298972130 0.7782617807388 0.7841170430183
0.5449304580688 0.7784950733185 0.7981427311897
0.5392708778381 0.7787284851074 0.8119054436684
0.5335494279861 0.7789617776871 0.8254187107086
0.5277639627457 0.7791948914528 0.8386947512627
0.5219125747681 0.7794280052185 0.8517450094223
0.5159929990768 0.7796609997749 0.8645799756050
0.5100029110909 0.7798939347267 0.8772094845772
0.5039400458336 0.7801268696785 0.8896423578262
0.4978017807007 0.7803596258163 0.9018870592117
0.4915853142738 0.7805923819542 0.9139515161514
0.4852879643440 0.7808250188828 0.9258427619934
0.4789066314697 0.7810575962067 0.9375678300858
0.4724379777908 0.7812901139259 0.9491329193115
0.4658785462379 0.7815225124359 0.9605443477631
0.4592247605324 0.7817548513412 0.9718074798584
0.4524726271629 0.7819871902466 0.9829276800156
0.4456180334091 0.7822193503380 0.9939098358154
0.4386563301086 0.7824514508247 1.0047589540482
0.4315828084946 0.7826835513115 1.0154792070389
0.4243921041489 0.7829154729843 1.0260750055313
0.4170786738396 0.7831473946571 1.0365501642227
0.4096364378929 0.7833792567253 1.0469084978104
0.4020587205887 0.7836109399796 1.0571538209915
0.3943383097649 0.7838426232338 1.0672893524170
0.3864674568176 0.7840742468834 1.0773183107376
0.3784375786781 0.7843058109283 1.0872439146042
0.3702392578125 0.7845372557640 1.0970689058304
0.3618621230125 0.7847687005997 1.1067965030670
0.3532947301865 0.7849999070168 1.1164290904999
0.3445243835449 0.7852312326431 1.1259691715240
0.3355368971825 0.7854623198509 1.1354193687439
0.3263164758682 0.7856934070587 1.1447819471359
0.3168451786041 0.7859244346619 1.1540591716766
0.3071027994156 0.7861553430557 1.1632534265518
0.2970662117004 0.7863862514496 1.1723663806915
0.2867089509964 0.7866170406342 1.1814001798630
0.2760003805161 0.7868477106094 1.1903568506241
0.2649046182632 0.7870783805847 1.1992380619049
0.2533795237541 0.7873089313507 1.2080457210541
0.2413745075464 0.7875394821167 1.2167813777924
0.2288288325071 0.7877699136734 1.2254468202591
0.2156674414873 0.7880002260208 1.2340434789658
0.2017970830202 0.7882305383682 1.2425729036331
0.1870976835489 0.7884607315063 1.2510366439819
0.1714129000902 0.7886908650398 1.2594358921051
0.1545297652483 0.7889209389687 1.2677723169327
0.1361481696367 0.7891509532928 1.2760471105576
0.1158187240362 0.7893807888031 1.2842613458633
0.0928164124489 0.7896106243134 1.2924164533615
0.0666229873896 0.7898404598236 1.3005135059357
0.0399738997221 0.7900701165199 1.3085536956787
0.6065558195114 0.7996248006821 0.5871448516846
0.6014991998672 0.7998514771461 0.6061007976532
0.5963976383209 0.8000779747963 0.6244537234306
0.5912498831749 0.8003044724464 0.6422547698021
0.5860548615456 0.8005309700966 0.6595481634140
0.5808112025261 0.8007573485374 0.6763729453087
0.5755176544189 0.8009836673737 0.6927629709244
0.5701729655266 0.8012099266052 0.7087485790253
0.5647755265236 0.8014360070229 0.7243568301201
0.5593239665031 0.8016621470451 0.7396115660667
0.5538166165352 0.8018881082535 0.7545346617699
0.5482519865036 0.8021140694618 0.7691455483437
0.5426282286644 0.8023399710655 0.7834620475769
0.5369436144829 0.8025657534599 0.7975001931190
0.5311962962151 0.8027914762497 0.8112747073174
0.5253841876984 0.8030171990395 0.8247992396355
0.5195051431656 0.8032427430153 0.8380859494209
0.5135571956635 0.8034683465958 0.8511464595795
0.5075376629829 0.8036937713623 0.8639912009239
0.5014443397522 0.8039191365242 0.8766298890114
0.4952745437622 0.8041445612907 0.8890717029572
0.4890254139900 0.8043697476387 0.9013249874115
0.4826941490173 0.8045949339867 0.9133975505829
0.4762775301933 0.8048201203346 0.9252966642380
0.4697722792625 0.8050451874733 0.9370292425156
0.4631748795509 0.8052701354027 0.9486017227173
0.4564813971519 0.8054950237274 0.9600200653076
0.4496880173683 0.8057199120522 0.9712898731232
0.4427902698517 0.8059446811676 0.9824166297913
0.4357835054398 0.8061693906784 0.9934051036835
0.4286627769470 0.8063940405846 1.0042601823807
0.4214227795601 0.8066186308861 1.0149862766266
0.4140574932098 0.8068431019783 1.0255876779556
0.4065607786179 0.8070675134659 1.0360684394836
0.3989257812500 0.8072919845581 1.0464321374893
0.3911449909210 0.8075162172318 1.0566825866699
0.3832103013992 0.8077404499054 1.0668230056763
0.3751128911972 0.8079646825790 1.0768568515778
0.3668428659439 0.8081887960434 1.0867872238159
0.3583895564079 0.8084127902985 1.0966169834137
0.3497409224510 0.8086367845535 1.1063488721848
0.3408837914467 0.8088606595993 1.1159857511520
0.3318032622337 0.8090844750404 1.1255300045013
0.3224827647209 0.8093082308769 1.1349843740463
0.3129034042358 0.8095319271088 1.1443508863449
0.3030439615250 0.8097556233406 1.1536321640015
0.2928798794746 0.8099791407585 1.1628299951553
