graphics/cube/Rec2100HlgNarrow_457.cube
TITLE "QA_Rec2100HlgNarrow_457"
# Copyright (c) 2026 @xsscx David H Hoyt LLC
# https://xss.cx
# Profiles applied (by profile description):
# - Rec. 2100 RGB with Hlg
LUT_3D_SIZE 64
LUT_3D_INPUT_RANGE 0.22510 0.97130
0.00539 0.00575 0.00827
0.00546 0.00578 0.00884
0.00554 0.00581 0.00944
0.00562 0.00585 0.01009
0.00571 0.00588 0.01078
0.00580 0.00592 0.01152
0.00589 0.00596 0.01229
0.00600 0.00600 0.01311
0.00610 0.00604 0.01398
0.00622 0.00608 0.01489
0.00634 0.00613 0.01585
0.00646 0.00618 0.01685
0.00659 0.00623 0.01790
0.00673 0.00629 0.01899
0.00687 0.00634 0.02014
0.00702 0.00640 0.02133
0.00717 0.00646 0.02257
0.00733 0.00652 0.02386
0.00750 0.00659 0.02520
0.00767 0.00665 0.02659
0.00785 0.00672 0.02803
0.00803 0.00680 0.02952
0.00822 0.00687 0.03107
0.00843 0.00695 0.03276
0.00866 0.00704 0.03459
0.00890 0.00713 0.03659
0.00917 0.00724 0.03877
0.00946 0.00735 0.04115
0.00978 0.00747 0.04374
0.01013 0.00761 0.04657
0.01051 0.00775 0.04966
0.01092 0.00791 0.05303
0.01137 0.00808 0.05671
0.01186 0.00827 0.06073
0.01240 0.00847 0.06512
0.01299 0.00869 0.06993
0.01363 0.00894 0.07519
0.01433 0.00920 0.08094
0.01510 0.00949 0.08723
0.01593 0.00980 0.09412
0.01685 0.01015 0.10166
0.01785 0.01052 0.10993
0.01895 0.01093 0.11898
0.02015 0.01138 0.12891
0.02147 0.01187 0.13979
0.02291 0.01240 0.15172
0.02449 0.01299 0.16480
0.02622 0.01363 0.17916
0.02812 0.01433 0.19491
0.03021 0.01510 0.21220
0.03249 0.01594 0.23117
0.03500 0.01686 0.25201
0.03775 0.01786 0.27488
0.04077 0.01897 0.30000
0.04408 0.02018 0.32759
0.04772 0.02150 0.35790
0.05171 0.02295 0.39120
0.05609 0.02455 0.42778
0.06091 0.02630 0.46798
0.06620 0.02821 0.51216
0.07201 0.03032 0.56070
0.07839 0.03263 0.61406
0.08540 0.03516 0.67272
0.09311 0.03794 0.73719
0.00550 0.00608 0.00836
0.00557 0.00611 0.00894
0.00565 0.00614 0.00955
0.00573 0.00617 0.01021
0.00582 0.00621 0.01092
0.00591 0.00625 0.01166
0.00601 0.00629 0.01245
0.00611 0.00633 0.01329
0.00622 0.00637 0.01417
0.00634 0.00642 0.01509
0.00646 0.00646 0.01606
0.00658 0.00651 0.01708
0.00671 0.00657 0.01814
0.00685 0.00662 0.01925
0.00700 0.00668 0.02041
0.00715 0.00674 0.02162
0.00730 0.00680 0.02288
0.00746 0.00686 0.02418
0.00763 0.00693 0.02554
0.00780 0.00700 0.02694
0.00798 0.00707 0.02840
0.00817 0.00714 0.02991
0.00836 0.00721 0.03148
0.00857 0.00730 0.03319
0.00880 0.00739 0.03504
0.00905 0.00748 0.03706
0.00932 0.00759 0.03926
0.00961 0.00770 0.04166
0.00994 0.00783 0.04427
0.01029 0.00796 0.04712
0.01067 0.00811 0.05024
0.01108 0.00827 0.05363
0.01154 0.00844 0.05734
0.01203 0.00863 0.06139
0.01257 0.00884 0.06581
0.01316 0.00906 0.07065
0.01380 0.00931 0.07593
0.01451 0.00957 0.08172
0.01528 0.00987 0.08804
0.01612 0.01018 0.09496
0.01704 0.01053 0.10254
0.01805 0.01091 0.11084
0.01915 0.01132 0.11993
0.02035 0.01177 0.12989
0.02168 0.01227 0.14081
0.02312 0.01280 0.15278
0.02471 0.01339 0.16590
0.02644 0.01404 0.18029
0.02835 0.01474 0.19608
0.03044 0.01551 0.21341
0.03273 0.01636 0.23242
0.03524 0.01728 0.25329
0.03799 0.01829 0.27621
0.04101 0.01940 0.30136
0.04433 0.02062 0.32899
0.04797 0.02195 0.35934
0.05197 0.02341 0.39268
0.05636 0.02501 0.42930
0.06118 0.02676 0.46954
0.06648 0.02868 0.51375
0.07229 0.03079 0.56234
0.07868 0.03311 0.61574
0.08570 0.03565 0.67443
0.09341 0.03844 0.73895
0.00561 0.00644 0.00845
0.00568 0.00647 0.00904
0.00576 0.00650 0.00967
0.00584 0.00653 0.01034
0.00593 0.00657 0.01105
0.00603 0.00661 0.01181
0.00613 0.00665 0.01261
0.00623 0.00669 0.01346
0.00634 0.00673 0.01436
0.00646 0.00678 0.01529
0.00658 0.00683 0.01628
0.00671 0.00688 0.01731
0.00684 0.00693 0.01839
0.00698 0.00699 0.01952
0.00713 0.00704 0.02069
0.00728 0.00710 0.02192
0.00744 0.00717 0.02319
0.00760 0.00723 0.02451
0.00777 0.00730 0.02588
0.00794 0.00737 0.02731
0.00813 0.00744 0.02878
0.00831 0.00751 0.03031
0.00851 0.00759 0.03190
0.00872 0.00767 0.03362
0.00895 0.00776 0.03549
0.00920 0.00786 0.03753
0.00947 0.00797 0.03975
0.00977 0.00808 0.04218
0.01010 0.00821 0.04481
0.01045 0.00835 0.04769
0.01083 0.00849 0.05083
0.01125 0.00866 0.05425
0.01171 0.00883 0.05799
0.01221 0.00902 0.06207
0.01275 0.00923 0.06652
0.01334 0.00946 0.07139
0.01399 0.00971 0.07671
0.01470 0.00998 0.08252
0.01547 0.01027 0.08888
0.01632 0.01059 0.09584
0.01724 0.01094 0.10345
0.01825 0.01132 0.11179
0.01936 0.01174 0.12092
0.02057 0.01220 0.13091
0.02189 0.01269 0.14187
0.02335 0.01324 0.15388
0.02494 0.01383 0.16704
0.02668 0.01448 0.18147
0.02859 0.01519 0.19730
0.03068 0.01596 0.21467
0.03297 0.01681 0.23373
0.03549 0.01774 0.25464
0.03825 0.01876 0.27759
0.04128 0.01987 0.30280
0.04460 0.02109 0.33047
0.04825 0.02243 0.36086
0.05225 0.02389 0.39424
0.05665 0.02550 0.43090
0.06147 0.02726 0.47119
0.06677 0.02919 0.51544
0.07259 0.03131 0.56408
0.07899 0.03363 0.61752
0.08601 0.03618 0.67625
0.09373 0.03897 0.74081
0.00573 0.00682 0.00855
0.00580 0.00685 0.00914
0.00588 0.00689 0.00978
0.00597 0.00692 0.01046
0.00606 0.00696 0.01119
0.00615 0.00699 0.01196
0.00625 0.00704 0.01278
0.00636 0.00708 0.01364
0.00647 0.00712 0.01454
0.00659 0.00717 0.01550
0.00671 0.00722 0.01650
0.00684 0.00727 0.01754
0.00698 0.00733 0.01864
0.00712 0.00738 0.01978
0.00727 0.00744 0.02097
0.00742 0.00750 0.02221
0.00758 0.00757 0.02350
0.00774 0.00763 0.02484
0.00791 0.00770 0.02623
0.00809 0.00777 0.02767
0.00827 0.00784 0.02916
0.00846 0.00792 0.03071
0.00866 0.00800 0.03232
0.00888 0.00808 0.03406
0.00911 0.00817 0.03595
0.00936 0.00827 0.03801
0.00964 0.00838 0.04026
0.00994 0.00850 0.04270
0.01026 0.00862 0.04536
0.01062 0.00876 0.04826
0.01100 0.00891 0.05143
0.01143 0.00908 0.05488
0.01189 0.00925 0.05865
0.01239 0.00945 0.06275
0.01293 0.00966 0.06724
0.01353 0.00989 0.07214
0.01418 0.01014 0.07749
0.01490 0.01041 0.08334
0.01567 0.01071 0.08974
0.01652 0.01103 0.09674
0.01745 0.01139 0.10439
0.01847 0.01177 0.11276
0.01958 0.01219 0.12193
0.02079 0.01265 0.13197
0.02212 0.01315 0.14297
0.02358 0.01370 0.15502
0.02517 0.01430 0.16822
0.02692 0.01495 0.18270
0.02884 0.01566 0.19857
0.03093 0.01644 0.21599
0.03323 0.01730 0.23509
0.03576 0.01823 0.25605
0.03852 0.01926 0.27905
0.04156 0.02038 0.30429
0.04488 0.02160 0.33201
0.04854 0.02294 0.36245
0.05255 0.02442 0.39587
0.05695 0.02603 0.43259
0.06178 0.02779 0.47292
0.06709 0.02973 0.51722
0.07291 0.03186 0.56590
0.07931 0.03418 0.61939
0.08634 0.03674 0.67817
0.09407 0.03954 0.74278
0.00585 0.00724 0.00864
0.00593 0.00727 0.00924
0.00601 0.00730 0.00989
0.00609 0.00734 0.01059
0.00618 0.00738 0.01132
0.00628 0.00742 0.01211
0.00638 0.00746 0.01294
0.00649 0.00750 0.01381
0.00661 0.00755 0.01473
0.00673 0.00759 0.01570
0.00685 0.00765 0.01672
0.00698 0.00770 0.01778
0.00712 0.00775 0.01889
0.00726 0.00781 0.02005
0.00741 0.00787 0.02125
0.00757 0.00793 0.02251
0.00773 0.00800 0.02382
0.00789 0.00806 0.02517
0.00807 0.00813 0.02658
0.00825 0.00820 0.02804
0.00843 0.00828 0.02955
0.00862 0.00835 0.03111
0.00882 0.00843 0.03274
0.00904 0.00852 0.03450
0.00927 0.00861 0.03641
0.00953 0.00871 0.03849
0.00981 0.00882 0.04076
0.01011 0.00894 0.04323
0.01044 0.00907 0.04592
0.01079 0.00921 0.04885
0.01118 0.00936 0.05204
0.01161 0.00953 0.05552
0.01207 0.00971 0.05931
0.01258 0.00990 0.06345
0.01313 0.01012 0.06797
0.01373 0.01035 0.07291
0.01439 0.01060 0.07830
0.01510 0.01088 0.08418
0.01588 0.01118 0.09062
0.01674 0.01151 0.09765
0.01767 0.01186 0.10535
0.01869 0.01225 0.11376
0.01981 0.01267 0.12297
0.02103 0.01314 0.13306
0.02236 0.01364 0.14410
0.02383 0.01419 0.15619
0.02543 0.01480 0.16944
0.02718 0.01545 0.18397
0.02910 0.01617 0.19989
0.03120 0.01696 0.21735
0.03351 0.01782 0.23650
0.03604 0.01876 0.25751
0.03881 0.01979 0.28056
0.04185 0.02091 0.30585
0.04518 0.02214 0.33362
0.04884 0.02349 0.36411
0.05286 0.02497 0.39758
0.05727 0.02659 0.43435
0.06210 0.02836 0.47473
0.06742 0.03031 0.51908
0.07325 0.03244 0.56781
0.07966 0.03478 0.62135
0.08669 0.03734 0.68019
0.09442 0.04015 0.74484
0.00598 0.00769 0.00873
0.00606 0.00772 0.00935
0.00614 0.00776 0.01001
0.00623 0.00779 0.01071
0.00632 0.00783 0.01146
0.00642 0.00787 0.01226
0.00652 0.00791 0.01310
0.00663 0.00795 0.01399
0.00675 0.00800 0.01492
0.00687 0.00805 0.01591
0.00700 0.00810 0.01693
0.00713 0.00816 0.01801
0.00727 0.00821 0.01914
0.00741 0.00827 0.02031
0.00756 0.00833 0.02154
0.00772 0.00839 0.02281
0.00788 0.00846 0.02413
0.00805 0.00853 0.02551
0.00822 0.00860 0.02693
0.00841 0.00867 0.02841
0.00859 0.00874 0.02994
0.00879 0.00882 0.03152
0.00899 0.00890 0.03316
0.00921 0.00899 0.03494
0.00944 0.00908 0.03687
0.00970 0.00918 0.03898
0.00998 0.00929 0.04127
0.01029 0.00941 0.04376
0.01062 0.00955 0.04648
0.01098 0.00969 0.04943
0.01137 0.00984 0.05265
0.01180 0.01001 0.05616
0.01227 0.01019 0.05999
0.01278 0.01039 0.06416
0.01333 0.01061 0.06872
0.01394 0.01084 0.07369
0.01460 0.01110 0.07911
0.01532 0.01138 0.08504
0.01610 0.01168 0.09151
0.01696 0.01201 0.09859
0.01790 0.01237 0.10632
0.01893 0.01276 0.11478
0.02005 0.01319 0.12404
0.02127 0.01366 0.13417
0.02261 0.01417 0.14526
0.02408 0.01472 0.15740
0.02569 0.01533 0.17070
0.02745 0.01599 0.18527
0.02937 0.01672 0.20125
0.03148 0.01751 0.21876
0.03379 0.01837 0.23796
0.03633 0.01932 0.25902
0.03911 0.02035 0.28212
0.04215 0.02148 0.30747
0.04550 0.02272 0.33529
0.04916 0.02408 0.36583
0.05318 0.02556 0.39936
0.05760 0.02719 0.43618
0.06244 0.02897 0.47661
0.06776 0.03092 0.52102
0.07360 0.03306 0.56981
0.08002 0.03540 0.62340
0.08706 0.03797 0.68229
0.09480 0.04079 0.74700
0.00612 0.00817 0.00882
0.00620 0.00821 0.00945
0.00628 0.00824 0.01012
0.00637 0.00828 0.01084
0.00646 0.00831 0.01160
0.00656 0.00835 0.01241
0.00667 0.00840 0.01326
0.00678 0.00844 0.01416
0.00689 0.00849 0.01511
0.00702 0.00854 0.01611
0.00715 0.00859 0.01715
0.00728 0.00865 0.01825
0.00742 0.00870 0.01939
0.00757 0.00876 0.02058
0.00772 0.00882 0.02182
0.00788 0.00889 0.02311
0.00804 0.00895 0.02445
0.00821 0.00902 0.02584
0.00839 0.00909 0.02728
0.00857 0.00917 0.02878
0.00876 0.00924 0.03032
0.00896 0.00932 0.03192
0.00916 0.00940 0.03358
0.00938 0.00949 0.03538
0.00962 0.00959 0.03734
0.00988 0.00969 0.03946
0.01016 0.00980 0.04178
0.01047 0.00992 0.04430
0.01081 0.01006 0.04704
0.01117 0.01020 0.05002
0.01157 0.01036 0.05327
0.01200 0.01053 0.05681
0.01247 0.01071 0.06067
0.01298 0.01091 0.06488
0.01354 0.01113 0.06947
0.01415 0.01137 0.07447
0.01481 0.01163 0.07994
0.01554 0.01191 0.08590
0.01633 0.01221 0.09242
0.01719 0.01255 0.09954
0.01814 0.01291 0.10732
0.01917 0.01331 0.11582
0.02030 0.01374 0.12513
0.02153 0.01421 0.13530
0.02287 0.01472 0.14644
0.02435 0.01528 0.15863
0.02596 0.01590 0.17199
0.02772 0.01656 0.18661
0.02966 0.01729 0.20264
0.03177 0.01809 0.22020
0.03409 0.01896 0.23946
0.03663 0.01991 0.26057
0.03942 0.02095 0.28373
0.04247 0.02209 0.30914
0.04582 0.02333 0.33702
0.04949 0.02470 0.36762
0.05352 0.02619 0.40120
0.05795 0.02782 0.43808
0.06280 0.02961 0.47857
0.06813 0.03157 0.52304
0.07398 0.03371 0.57188
0.08040 0.03607 0.62554
0.08745 0.03865 0.68449
0.09519 0.04148 0.74925
0.00626 0.00869 0.00892
0.00634 0.00872 0.00955
0.00643 0.00876 0.01023
0.00651 0.00879 0.01096
0.00661 0.00883 0.01174
0.00671 0.00887 0.01256
0.00682 0.00892 0.01342
0.00693 0.00896 0.01434
0.00705 0.00901 0.01530
0.00717 0.00906 0.01631
0.00730 0.00911 0.01737
0.00744 0.00917 0.01848
0.00758 0.00923 0.01964
0.00773 0.00929 0.02084
0.00788 0.00935 0.02210
0.00804 0.00941 0.02341
0.00821 0.00948 0.02476
0.00838 0.00955 0.02617
0.00856 0.00962 0.02763
0.00875 0.00970 0.02914
0.00894 0.00977 0.03071
0.00914 0.00985 0.03232
0.00934 0.00994 0.03401
0.00956 0.01003 0.03583
0.00981 0.01012 0.03780
0.01007 0.01023 0.03995
0.01035 0.01034 0.04229
0.01066 0.01046 0.04483
0.01100 0.01060 0.04760
0.01137 0.01074 0.05061
0.01177 0.01090 0.05389
0.01221 0.01107 0.05747
0.01268 0.01126 0.06136
0.01320 0.01146 0.06560
0.01376 0.01169 0.07022
0.01437 0.01193 0.07527
0.01504 0.01219 0.08077
0.01577 0.01247 0.08678
0.01657 0.01278 0.09334
0.01744 0.01312 0.10050
0.01838 0.01349 0.10833
0.01942 0.01389 0.11688
0.02055 0.01432 0.12623
0.02179 0.01480 0.13646
0.02314 0.01531 0.14765
0.02462 0.01588 0.15989
0.02624 0.01650 0.17330
0.02801 0.01717 0.18798
0.02995 0.01790 0.20406
0.03208 0.01870 0.22169
0.03440 0.01958 0.24100
0.03695 0.02054 0.26217
0.03974 0.02158 0.28539
0.04280 0.02273 0.31086
0.04616 0.02398 0.33880
0.04984 0.02535 0.36946
0.05388 0.02685 0.40311
0.05831 0.02849 0.44005
0.06317 0.03028 0.48060
0.06851 0.03225 0.52513
0.07436 0.03441 0.57404
0.08079 0.03677 0.62775
0.08785 0.03936 0.68676
0.09561 0.04219 0.75160
0.00641 0.00924 0.00901
0.00649 0.00927 0.00966
0.00658 0.00931 0.01035
0.00667 0.00935 0.01109
0.00676 0.00938 0.01187
0.00687 0.00943 0.01271
0.00698 0.00947 0.01359
0.00709 0.00952 0.01451
0.00721 0.00957 0.01549
0.00733 0.00962 0.01652
0.00747 0.00967 0.01759
0.00760 0.00973 0.01871
0.00775 0.00979 0.01988
0.00790 0.00985 0.02111
0.00805 0.00991 0.02238
0.00822 0.00998 0.02370
0.00838 0.01004 0.02508
0.00856 0.01011 0.02650
0.00874 0.01019 0.02798
0.00893 0.01026 0.02951
0.00912 0.01034 0.03109
0.00932 0.01042 0.03273
0.00953 0.01051 0.03443
0.00975 0.01060 0.03627
0.01000 0.01069 0.03827
0.01026 0.01080 0.04044
0.01055 0.01091 0.04280
0.01086 0.01104 0.04537
0.01120 0.01118 0.04816
0.01158 0.01132 0.05121
0.01198 0.01148 0.05452
0.01242 0.01166 0.05812
0.01290 0.01185 0.06205
0.01342 0.01205 0.06632
0.01398 0.01228 0.07099
0.01460 0.01252 0.07607
0.01528 0.01278 0.08161
0.01601 0.01307 0.08766
0.01681 0.01338 0.09427
0.01769 0.01372 0.10147
0.01864 0.01409 0.10935
0.01968 0.01450 0.11795
0.02082 0.01494 0.12735
0.02206 0.01542 0.13763
0.02342 0.01594 0.14887
0.02491 0.01651 0.16118
0.02653 0.01713 0.17464
0.02831 0.01781 0.18938
0.03026 0.01855 0.20552
0.03239 0.01935 0.22320
0.03472 0.02024 0.24258
0.03728 0.02120 0.26381
0.04008 0.02225 0.28709
0.04315 0.02340 0.31263
0.04651 0.02466 0.34063
0.05020 0.02604 0.37135
0.05425 0.02755 0.40507
0.05869 0.02919 0.44207
0.06356 0.03100 0.48269
0.06890 0.03297 0.52729
0.07477 0.03514 0.57626
0.08121 0.03751 0.63005
0.08827 0.04010 0.68913
0.09604 0.04295 0.75402
0.00657 0.00983 0.00911
0.00665 0.00986 0.00976
0.00674 0.00989 0.01047
0.00683 0.00993 0.01122
0.00693 0.00997 0.01201
0.00703 0.01002 0.01286
0.00714 0.01006 0.01375
0.00725 0.01011 0.01469
0.00738 0.01016 0.01568
0.00750 0.01021 0.01672
0.00764 0.01026 0.01781
0.00778 0.01032 0.01894
0.00792 0.01038 0.02013
0.00807 0.01044 0.02137
0.00823 0.01051 0.02266
0.00839 0.01057 0.02400
0.00856 0.01064 0.02539
0.00874 0.01071 0.02683
0.00892 0.01079 0.02833
0.00911 0.01086 0.02988
0.00931 0.01094 0.03148
0.00951 0.01102 0.03313
0.00972 0.01111 0.03485
0.00995 0.01120 0.03671
0.01019 0.01130 0.03873
0.01046 0.01141 0.04093
0.01075 0.01152 0.04331
0.01107 0.01165 0.04591
0.01141 0.01179 0.04873
0.01179 0.01194 0.05180
0.01220 0.01210 0.05514
0.01264 0.01228 0.05878
0.01312 0.01247 0.06274
0.01364 0.01267 0.06705
0.01422 0.01290 0.07175
0.01484 0.01315 0.07687
0.01552 0.01341 0.08246
0.01626 0.01370 0.08855
0.01706 0.01402 0.09520
0.01794 0.01436 0.10246
0.01890 0.01474 0.11038
0.01995 0.01515 0.11903
0.02109 0.01559 0.12849
0.02234 0.01607 0.13882
0.02371 0.01660 0.15012
0.02520 0.01717 0.16248
0.02684 0.01780 0.17600
0.02862 0.01848 0.19080
0.03058 0.01923 0.20700
0.03271 0.02004 0.22475
0.03506 0.02093 0.24419
0.03762 0.02190 0.26549
0.04043 0.02296 0.28884
0.04351 0.02412 0.31443
0.04688 0.02538 0.34251
0.05058 0.02677 0.37330
0.05463 0.02828 0.40708
0.05908 0.02993 0.44416
0.06396 0.03175 0.48485
0.06931 0.03373 0.52952
0.07519 0.03590 0.57856
0.08163 0.03828 0.63241
0.08871 0.04089 0.69156
0.09648 0.04375 0.75654
0.00673 0.01045 0.00921
0.00682 0.01048 0.00987
0.00690 0.01052 0.01058
0.00700 0.01056 0.01134
0.00709 0.01060 0.01215
0.00720 0.01064 0.01301
0.00731 0.01068 0.01391
0.00743 0.01073 0.01487
0.00755 0.01078 0.01587
0.00768 0.01084 0.01692
0.00781 0.01089 0.01802
0.00795 0.01095 0.01918
0.00810 0.01101 0.02038
0.00826 0.01107 0.02163
0.00842 0.01114 0.02294
0.00858 0.01120 0.02430
0.00875 0.01127 0.02570
0.00893 0.01135 0.02716
0.00912 0.01142 0.02868
0.00931 0.01150 0.03024
0.00951 0.01158 0.03186
0.00971 0.01166 0.03353
0.00992 0.01175 0.03527
0.01015 0.01184 0.03715
0.01040 0.01194 0.03919
0.01067 0.01205 0.04141
0.01096 0.01217 0.04382
0.01128 0.01230 0.04644
0.01163 0.01244 0.04929
0.01201 0.01259 0.05239
0.01242 0.01275 0.05576
0.01287 0.01293 0.05943
0.01335 0.01312 0.06343
0.01388 0.01333 0.06778
0.01446 0.01356 0.07252
0.01508 0.01381 0.07768
0.01577 0.01408 0.08331
0.01651 0.01437 0.08945
0.01732 0.01469 0.09614
0.01821 0.01504 0.10344
0.01917 0.01542 0.11142
0.02023 0.01583 0.12012
0.02138 0.01628 0.12963
0.02264 0.01676 0.14002
0.02401 0.01729 0.15138
0.02551 0.01787 0.16380
0.02715 0.01850 0.17738
0.02894 0.01919 0.19224
0.03090 0.01994 0.20851
0.03305 0.02076 0.22632
0.03540 0.02166 0.24583
0.03797 0.02263 0.26720
0.04079 0.02370 0.29061
0.04387 0.02486 0.31628
0.04726 0.02614 0.34443
0.05096 0.02753 0.37529
0.05503 0.02905 0.40915
0.05948 0.03071 0.44629
0.06437 0.03253 0.48706
0.06973 0.03453 0.53180
0.07562 0.03671 0.58092
0.08208 0.03910 0.63485
0.08917 0.04171 0.69408
0.09695 0.04458 0.75912
0.00691 0.01110 0.00931
0.00699 0.01114 0.00998
0.00708 0.01118 0.01070
0.00717 0.01121 0.01147
0.00727 0.01126 0.01229
0.00738 0.01130 0.01316
0.00749 0.01135 0.01407
0.00761 0.01139 0.01504
0.00773 0.01144 0.01606
0.00786 0.01150 0.01712
0.00800 0.01155 0.01824
0.00814 0.01161 0.01941
0.00829 0.01167 0.02063
0.00844 0.01174 0.02190
0.00861 0.01180 0.02322
0.00877 0.01187 0.02459
0.00895 0.01194 0.02601
0.00913 0.01202 0.02749
0.00932 0.01209 0.02902
0.00951 0.01217 0.03061
0.00971 0.01225 0.03224
0.00991 0.01234 0.03394
0.01013 0.01242 0.03569
0.01036 0.01252 0.03759
0.01061 0.01262 0.03966
0.01089 0.01273 0.04190
0.01118 0.01285 0.04433
0.01150 0.01298 0.04698
0.01185 0.01312 0.04986
0.01224 0.01327 0.05299
0.01265 0.01344 0.05639
0.01310 0.01362 0.06009
0.01359 0.01381 0.06412
0.01412 0.01403 0.06851
0.01470 0.01426 0.07329
0.01534 0.01451 0.07849
0.01602 0.01478 0.08416
0.01677 0.01508 0.09034
0.01759 0.01540 0.09708
0.01848 0.01575 0.10444
0.01945 0.01613 0.11246
0.02051 0.01655 0.12122
0.02167 0.01700 0.13078
0.02293 0.01749 0.14123
0.02431 0.01803 0.15265
0.02582 0.01861 0.16513
0.02747 0.01925 0.17877
0.02927 0.01994 0.19370
0.03124 0.02070 0.21004
0.03339 0.02152 0.22792
0.03575 0.02242 0.24749
0.03833 0.02340 0.26893
0.04116 0.02448 0.29242
0.04426 0.02565 0.31817
0.04765 0.02693 0.34639
0.05136 0.02833 0.37733
0.05544 0.02986 0.41126
0.05990 0.03153 0.44848
0.06480 0.03336 0.48933
0.07017 0.03536 0.53415
0.07607 0.03755 0.58335
0.08254 0.03995 0.63736
0.08964 0.04258 0.69666
0.09743 0.04545 0.76179
0.00708 0.01180 0.00941
0.00717 0.01183 0.01009
0.00726 0.01187 0.01082
0.00735 0.01191 0.01160
0.00745 0.01195 0.01243
0.00756 0.01200 0.01331
0.00767 0.01204 0.01424
0.00779 0.01209 0.01522
0.00792 0.01214 0.01625
0.00805 0.01220 0.01733
0.00819 0.01225 0.01846
0.00833 0.01231 0.01964
0.00848 0.01238 0.02087
0.00864 0.01244 0.02216
0.00880 0.01251 0.02349
0.00897 0.01258 0.02488
0.00915 0.01265 0.02632
0.00933 0.01272 0.02782
0.00952 0.01280 0.02937
0.00972 0.01288 0.03097
0.00992 0.01296 0.03262
0.01013 0.01305 0.03433
0.01034 0.01313 0.03611
0.01058 0.01323 0.03803
0.01083 0.01333 0.04012
0.01111 0.01344 0.04238
0.01141 0.01356 0.04484
0.01173 0.01370 0.04751
0.01209 0.01384 0.05042
0.01247 0.01399 0.05358
0.01289 0.01416 0.05701
0.01334 0.01434 0.06075
0.01384 0.01454 0.06481
0.01437 0.01476 0.06924
0.01496 0.01499 0.07405
0.01559 0.01524 0.07930
0.01629 0.01552 0.08501
0.01704 0.01582 0.09124
0.01787 0.01614 0.09803
0.01876 0.01650 0.10543
0.01974 0.01688 0.11351
0.02081 0.01730 0.12232
0.02197 0.01776 0.13195
0.02324 0.01825 0.14245
0.02463 0.01879 0.15393
0.02614 0.01938 0.16647
0.02780 0.02002 0.18018
0.02961 0.02072 0.19518
0.03159 0.02148 0.21158
0.03375 0.02232 0.22953
0.03612 0.02322 0.24918
0.03871 0.02421 0.27070
0.04154 0.02529 0.29426
0.04465 0.02647 0.32008
0.04805 0.02776 0.34838
0.05177 0.02916 0.37940
0.05586 0.03070 0.41341
0.06033 0.03238 0.45072
0.06524 0.03422 0.49164
0.07063 0.03623 0.53655
0.07653 0.03843 0.58583
0.08301 0.04084 0.63992
0.09012 0.04348 0.69931
0.09792 0.04637 0.76453
0.00727 0.01253 0.00951
0.00735 0.01257 0.01020
0.00744 0.01260 0.01094
0.00754 0.01264 0.01173
0.00764 0.01269 0.01257
0.00775 0.01273 0.01346
0.00787 0.01278 0.01440
0.00799 0.01283 0.01539
0.00812 0.01288 0.01643
0.00825 0.01293 0.01753
0.00839 0.01299 0.01867
0.00853 0.01305 0.01987
0.00869 0.01311 0.02112
0.00885 0.01318 0.02242
0.00901 0.01325 0.02377
0.00918 0.01332 0.02518
0.00936 0.01339 0.02663
0.00954 0.01347 0.02815
0.00973 0.01354 0.02971
0.00993 0.01362 0.03133
0.01014 0.01371 0.03300
0.01035 0.01379 0.03473
0.01057 0.01388 0.03653
0.01080 0.01398 0.03847
0.01106 0.01408 0.04058
0.01134 0.01420 0.04286
0.01164 0.01432 0.04535
0.01197 0.01445 0.04805
0.01232 0.01460 0.05098
0.01271 0.01475 0.05417
0.01313 0.01492 0.05763
0.01359 0.01511 0.06140
0.01409 0.01531 0.06550
0.01463 0.01552 0.06996
0.01522 0.01576 0.07482
0.01586 0.01602 0.08011
0.01656 0.01629 0.08587
0.01732 0.01660 0.09214
0.01815 0.01692 0.09898
0.01905 0.01728 0.10643
0.02004 0.01767 0.11456
0.02111 0.01809 0.12343
0.02228 0.01855 0.13311
0.02356 0.01905 0.14368
0.02495 0.01960 0.15522
0.02648 0.02019 0.16783
0.02814 0.02084 0.18161
0.02996 0.02154 0.19667
0.03194 0.02231 0.21315
0.03412 0.02315 0.23117
0.03649 0.02406 0.25089
0.03909 0.02506 0.27249
0.04194 0.02614 0.29613
0.04505 0.02733 0.32203
0.04846 0.02862 0.35041
0.05220 0.03004 0.38151
0.05629 0.03159 0.41561
0.06078 0.03328 0.45300
0.06570 0.03512 0.49401
0.07109 0.03714 0.53900
0.07701 0.03935 0.58837
0.08350 0.04177 0.64255
0.09062 0.04442 0.70203
0.09844 0.04732 0.76733
0.00746 0.01330 0.00961
0.00755 0.01334 0.01031
0.00764 0.01337 0.01106
0.00774 0.01341 0.01186
