graphics/cube/Rec2020rgbSpectral_463.cube
TITLE "QA_Rec2020rgbSpectral_463"
# Copyright (c) 2026 @xsscx David H Hoyt LLC
# https://xss.cx
# Profiles applied (by profile description):
# - Rec. 2020 RGB Spectral
LUT_3D_SIZE 4
LUT_3D_INPUT_RANGE 0.1959999948740 0.9254000186920
0.6542031168938 0.6088830828667 0.5933495759964
0.5474491119385 0.6152197718620 0.9052517414093
0.4129906296730 0.6214883923531 1.1285997629166
0.2081124633551 0.6276911497116 1.3107744455338
0.4970522522926 1.0784518718719 0.5745252370834
0.3434465527534 1.0818673372269 0.8934143185616
0.0367427766323 1.0852708816528 1.1193623542786
-0.5228863358498 1.0886625051498 1.3029834032059
0.2569894790649 1.3869884014130 0.5550352334976
-0.1916325092316 1.3895603418350 0.8814018964767
-0.7512616515160 1.3921267986298 1.1100383996964
-1.3108907938004 1.3946880102158 1.2951391935349
-0.4200078248978 1.6320308446884 0.5348083972931
-0.9796369671822 1.6341658830643 0.8692067861557
-1.5392661094666 1.6362975835800 1.1006257534027
-2.0988953113556 1.6384261846542 1.2872407436371
1.1257319450378 0.1883527785540 0.6009045839310
1.0703119039536 0.2067900747061 0.9100657701492
1.0114797353745 0.2239606529474 1.1323702335358
0.9485679864883 0.2400829046965 1.3139598369598
1.0467491149902 0.9170455932617 0.5823358297348
0.9863444566727 0.9211325645447 0.8982983231544
0.9215228557587 0.9251996278763 1.1231676340103
0.8512316346169 0.9292470216751 1.3061904907227
0.9604766368866 1.2700057029724 0.5631272196770
0.8935721516609 1.2728481292725 0.8863586187363
0.8206434845924 1.2756832838058 1.1138795614243
0.7398541569710 1.2785114049911 1.2983683347702
0.8646250963211 1.5363795757294 0.5432124733925
0.7887588143349 1.5386679172516 0.8742395043373
0.7039988040924 1.5409523248672 1.1045037508011
0.6065778136253 1.5432327985764 1.2904922962189
1.4397140741348 -1.2362236976624 0.6083612442017
1.3982558250427 -1.2023622989655 0.9148520231247
1.3553451299667 -1.1685009002686 1.1361267566681
1.3108284473419 -1.1346396207809 1.3171368837357
1.3809282779694 0.7158208489418 0.5900384783745
1.3373820781708 0.7211645245552 0.9031531810760
1.2921596765518 0.7264660596848 1.1269586086273
1.2450654506683 0.7317262887955 1.3093888759613
1.3191404342651 1.1393090486526 0.5711001753807
1.2731796503067 1.1425212621689 0.8912851810455
1.2252563238144 1.1457232236862 1.1177058219910
1.1751136779785 1.1489151716232 1.3015884160995
1.2538734674454 1.4333480596542 0.5514842867851
1.2050782442093 1.4358253479004 0.8792406916618
1.1539431810379 1.4382978677750 1.1083663702011
1.1001211404800 1.4407655000687 1.2937345504761
1.6900017261505 -2.7011759281158 0.6157230734825
1.6556818485260 -2.6673147678375 0.9196107387543
1.6205214262009 -2.6334531307220 1.1398693323135
1.5844595432281 -2.5995919704437 1.3203048706055
1.6414382457733 0.4200136065483 0.5976372957230
1.6059178113937 0.4292222857475 0.9079796075821
1.5694690942764 0.4382388591766 1.1307352781296
1.5320203304291 0.4470742940903 1.3125783205032
1.5911597013474 0.9890885353088 0.5789588689804
1.5543121099472 0.9928486347198 0.8961818218231
1.5164322853088 0.9965929985046 1.1215176582336
1.4774348735809 1.0003217458725 1.3047994375229
1.5389832258224 1.3210635185242 0.5596295595169
1.5006583929062 1.3237818479538 0.8842107653618
1.4611772298813 1.3264938592911 1.1122139692307
1.4204360246658 1.3291994333267 1.2969677448273
