graphics/cube/Rec2020rgbSpectral_463.cube
TITLE "QA_Rec2020rgbSpectral_463"
# Copyright (c) 2026 @xsscx David H Hoyt LLC
# https://xss.cx
# Profiles applied (by profile description):
# - Rec. 2020 RGB Spectral
LUT_3D_SIZE 8
LUT_3D_INPUT_RANGE 0.1959999948740 0.9254000186920
0.6542031168938 0.6088830828667 0.5933495759964
0.6108522415161 0.6116072535515 0.7444768548012
0.5639970302582 0.6143186688423 0.8681039214134
0.5126982927322 0.6170175671577 0.9749065637589
0.4555133581161 0.6197041869164 1.0700820684433
0.3900167346001 0.6223784685135 1.1566181182861
0.3115071654320 0.6250408291817 1.2364164590836
0.2081124633551 0.6276911497116 1.3107744455338
0.5921997427940 0.8457216024399 0.5853593945503
0.5436666011810 0.8476383686066 0.7382150888443
0.4901803135872 0.8495504260063 0.8628121614456
0.4299806952477 0.8514577746391 0.9702538251877
0.3599578738213 0.8533604741096 1.0658898353577
0.2735472321510 0.8552585244179 1.1527774333954
0.1505511850119 0.8571520447731 1.2328550815582
-0.0725981444120 0.8590408563614 1.3074419498444
0.5225183963776 1.0257519483566 0.5772536993027
0.4665584564209 1.0273014307022 0.7318956851959
0.4028456807137 1.0288482904434 0.8574846386909
0.3272774815559 1.0303926467896 0.9655761718750
0.2301480025053 1.0319342613220 1.0616791248322
0.0693679600954 1.0334734916687 1.1489222049713
-0.1704731583595 1.0350100994110 1.2292820215225
-0.4103142619133 1.0365440845490 1.3040996789932
0.4416650533676 1.1760106086731 0.5690274834633
0.3737878799438 1.1773402690887 0.7255169153214
0.2912063002586 1.1786681413651 0.8521205782890
0.1782941073179 1.1799944639206 0.9608733654022
-0.0285074561834 1.1813191175461 1.0574495792389
-0.2683483064175 1.1826419830322 1.1450525522232
-0.5081894397736 1.1839631795883 1.2256973981857
-0.7480305433273 1.1852828264236 1.3007476329803
0.3423655033112 1.3072339296341 0.5606756806374
0.2505144476891 1.3084137439728 0.7190772891045
0.1105228811502 1.3095922470093 0.8467193245888
-0.1263824701309 1.3107696771622 0.9561448097229
-0.3662235736847 1.3119457960129 1.0532010793686
-0.6060644388199 1.3131208419800 1.1411678791046
-0.8459055423737 1.3142945766449 1.2221007347107
-1.0857466459274 1.3154672384262 1.2973859310150
0.2030028253794 1.4249689579010 0.5521925687790
0.0155836343765 1.4260383844376 0.7125751376152
-0.2242573499680 1.4271069765091 0.8412801027298
-0.4640984535217 1.4281746149063 0.9513903856277
-0.7039395570755 1.4292412996292 1.0489332675934
-0.9437804222107 1.4303070306778 1.1372684240341
-1.1836215257645 1.4313719272614 1.2184919118881
-1.4234626293182 1.4324361085892 1.2940140962601
-0.0822914093733 1.5325176715851 0.5435723066330
-0.3221324980259 1.5335015058517 0.7060087323189
-0.5619734525681 1.5344848632812 0.8358021378517
-0.8018146157265 1.5354673862457 0.9466093778610
-1.0416557788849 1.5364493131638 1.0446460247040
-1.2814965248108 1.5374304056168 1.1333538293839
-1.5213377475739 1.5384107828140 1.2148711681366
-1.7611788511276 1.5393904447556 1.2906324863434
-0.4200078248978 1.6320308446884 0.5348083972931
-0.6598489284515 1.6329462528229 0.6993762254715
-0.8996899127960 1.6338610649109 0.8302847146988
-1.1395310163498 1.6347752809525 0.9418015480042
-1.3793721199036 1.6356887817383 1.0403391122818
-1.6192129850388 1.6366019248962 1.1294240951538
-1.8590540885925 1.6375142335892 1.2112381458282
-2.0988953113556 1.6384261846542 1.2872407436371
0.8905085325241 0.4756551384926 0.5965996384621
0.8599607348442 0.4791647791862 0.7470329403877
0.8281751275063 0.4826485514641 0.8702676892281
0.7949987649918 0.4861070513725 0.9768109321594
0.7602452039719 0.4895407557487 1.0717990398407
0.7236830592155 0.4929501414299 1.1581919193268
0.6850187778473 0.4963356852531 1.2378761768341
0.6438714861870 0.4996979236603 1.3121407032013
0.8471471071243 0.7577195763588 0.5886557102203
0.8148140311241 0.7598789930344 0.7407945394516
0.7810188531876 0.7620317339897 0.8649905323982
0.7455582022667 0.7641779780388 0.9721683263779
0.7081779241562 0.7663176655769 1.0676143169403
0.6685525774956 0.7684509158134 1.1543570756912
0.6262547969818 0.7705777287483 1.2343195676804
0.5807042717934 0.7726983428001 1.3088121414185
0.8012099266052 0.9560319185257 0.5805980563164
0.7667621970177 0.9577071666718 0.7344990372658
0.7305524349213 0.9593791961670 0.8596777319908
0.6923001408577 0.9610480070114 0.9675009250641
0.6516430377960 0.9627137184143 1.0634112358093
0.6080991029739 0.9643760919571 1.1505078077316
0.5610032081604 0.9660353660583 1.2307515144348
0.5093931555748 0.9676915407181 1.3054740428925
0.7522127628326 1.1167739629745 0.5724220275879
0.7152073383331 1.1181831359863 0.7281447649002
0.6760231852531 1.1195901632309 0.8543287515640
0.6342547535896 1.1209954023361 0.9628084897995
0.5893551111221 1.1223984956741 1.0591894388199
0.5405560731888 1.1237998008728 1.1466441154480
0.4867191910744 1.1251990795135 1.2271715402603
0.4260286092758 1.1265963315964 1.3021260499954
0.6995004415512 1.2549839019775 0.5641223788261
0.6593174338341 1.2562193870544 0.7217304110527
0.6163475513458 1.2574535608292 0.8489428758621
0.5699658989906 1.2586865425110 0.9580906629562
0.5192772150040 1.2599179744720 1.0549486875534
0.4629186987877 1.2611480951309 1.1427656412125
0.3986285924911 1.2623769044876 1.2235796451569
0.3221184015274 1.2636042833328 1.2987681627274
0.6421495676041 1.3777900934219 0.5556939840317
0.5978751778603 1.3789014816284 0.7152541279793
0.5498645305634 1.3800116777420 0.8435193300247
0.4970638751984 1.3811210393906 0.9533468484879
0.4378179311752 1.3822293281555 1.0506888628006
0.3692489266396 1.3833366632462 1.1388722658157
0.2854497432709 1.3844429254532 1.2199760675430
0.1694653779268 1.3855479955673 1.2954006195068
0.5787843465805 1.4892296791077 0.5471308231354
0.5289720296860 1.4902465343475 0.7087143659592
0.4737899899483 1.4912626743317 0.8380573987961
0.4111945033073 1.4922778606415 0.9485768079758
0.3374238610268 1.4932923316956 1.0464098453522
0.2439124435186 1.4943060874939 1.1349638700485
0.0978697389364 1.4953190088272 1.2163602113724
-0.1410293430090 1.4963310956955 1.2920229434967
0.5071936249733 1.5918468236923 0.5384266972542
0.4492991566658 1.5927886962891 0.7021092176437
0.3827549219131 1.5937302112579 0.8325562477112
0.3024750947952 1.5946708917618 0.9437800645828
0.1950751096010 1.5956109762192 1.0421109199524
0.0009364932775 1.5965504646301 1.1310403347015
-0.2389046251774 1.5974892377853 1.2127321958542
-0.4787457585335 1.5984274148941 1.2886352539062
1.0723050832748 0.2860361337662 0.5998313426971
1.0475963354111 0.2917297482491 0.7495796680450
1.0222191810608 0.2973237037659 0.8724256157875
0.9961200952530 0.3028229475021 0.9787111282349
0.9692378044128 0.3082317709923 1.0735129117966
0.9415024518967 0.3135542273521 1.1597632169724
0.9128327369690 0.3187941312790 1.2393339872360
0.8831345438957 0.3239549398422 1.3135054111481
1.0373239517212 0.6569824814796 0.5919328927994
1.0116589069366 0.6594972014427 0.7433643341064
0.9852482080460 0.6620017290115 0.8671628236771
0.9580267667770 0.6644963622093 0.9740786552429
0.9299205541611 0.6669809818268 1.0693358182907
0.9008435010910 0.6694557666779 1.1559342145920
0.8706945776939 0.6719208955765 1.2357821464539
0.8393542766571 0.6743763685226 1.3101807832718
1.0009747743607 0.8801687359810 0.5839225053787
0.9742413759232 0.8820036649704 0.7370924353600
0.9466685056686 0.8838343620300 0.8618647456169
0.9181773662567 0.8856608867645 0.9694213867188
0.8886759877205 0.8874832987785 1.0651402473450
0.8580564260483 0.8893016576767 1.1520910263062
0.8261905312538 0.8911158442497 1.2322187423706
0.7929235696793 0.8929260373116 1.3068466186523
0.9630949497223 1.0537813901901 0.5757956504822
0.9351575374603 1.0552850961685 0.7307624816895
0.9062660932541 1.0567861795425 0.8565307259560
0.8763225078583 1.0582851171494 0.9647394418716
0.8452111482620 1.0597816705704 1.0609260797501
0.8127939105034 1.0612757205963 1.1482331752777
0.7789032459259 1.0627675056458 1.2286437749863
0.7433333992958 1.0642570257187 1.3035026788712
0.9234879016876 1.2001454830170 0.5675474405289
0.8941797018051 1.2014449834824 0.7243729829788
0.8637747764587 1.2027429342270 0.8511600494385
0.8321486115456 1.2040393352509 0.9600319862366
0.7991522550583 1.2053340673447 1.0566933155060
0.7646038532257 1.2066273689270 1.1443607807159
0.7282780408859 1.2079191207886 1.2250568866730
0.6898902654648 1.2092090845108 1.3001489639282
0.8819110393524 1.3286936283112 0.5591725707054
0.8510240316391 1.3298517465591 0.7179223895073
0.8188584446907 1.3310087919235 0.8457521200180
0.7852527499199 1.3321646451950 0.9552989006042
0.7500091791153 1.3333194255829 1.0524413585663
0.7128803730011 1.3344730138779 1.1404736042023
0.6735512018204 1.3356254100800 1.2214580774307
0.6316090226173 1.3367767333984 1.2967853546143
0.8380606770515 1.4444497823715 0.5506654977798
0.8053287267685 1.4455026388168 0.7114089131355
0.7710810303688 1.4465548992157 0.8403060436249
0.7351013422012 1.4476060867310 0.9505397081375
0.6971173286438 1.4486564397812 1.0481702089310
0.6567785739899 1.4497059583664 1.1365714073181
0.6136203408241 1.4507546424866 1.2178472280502
0.5670047402382 1.4518023729324 1.2934118509293
0.7915470600128 1.5504603385925 0.5420201420784
0.7566214203835 1.5514312982559 0.7048308253288
0.7198604941368 1.5524015426636 0.8348210453987
0.6809633374214 1.5533710718155 0.9457539319992
0.6395382285118 1.5543400049210 1.0438793897629
0.5950589179993 1.5553082227707 1.1326541900635
0.5467903614044 1.5562757253647 1.2142241001129
0.4936516880989 1.5572423934937 1.2900283336639
1.2248200178146 -0.1898290365934 0.6030448675156
1.2036103010178 -0.1753170192242 0.7521170973778
1.1819698810577 -0.1608050018549 0.8745776414871
1.1598732471466 -0.1462929844856 0.9806073904037
1.1372921466827 -0.1317809671164 1.0752239227295
1.1141955852509 -0.1172689497471 1.1613321304321
1.0905487537384 -0.1027569323778 1.2407898902893
1.0663130283356 -0.0882449150085 1.3148685693741
1.1948325634003 0.5363512635231 0.5951910614967
1.1730092763901 0.5394580364227 0.7459245920181
1.1507185697556 0.5425464510918 0.8693290948868
1.1279309988022 0.5456168055534 0.9759848117828
1.1046142578125 0.5486693978310 1.0710541009903
1.0807318687439 0.5517045259476 1.1575090885162
1.0562437772751 0.5547224879265 1.2372426986694
1.0311043262482 0.5577234625816 1.3115478754044
1.1639708280563 0.7963380217552 0.5872272849083
1.1414810419083 0.7983845472336 0.7396760582924
1.1184817552567 0.8004251718521 0.8640456795692
1.0949387550354 0.8024603128433 0.9713377952576
1.0708144903183 0.8044898509979 1.0668661594391
1.0460664033890 0.8065137863159 1.1536717414856
1.0206468105316 0.8085321784019 1.2336841821671
0.9945015907288 0.8105451464653 1.3082175254822
1.1321588754654 0.9862724542618 0.5791488289833
1.1089419126511 0.9878910779953 0.7333701252937
1.0851665735245 0.9895066022873 0.8587265014648
1.0607930421829 0.9911192655563 0.9666659832001
1.0357769727707 0.9927290678024 1.0626597404480
1.0100681781769 0.9943358898163 1.1498198509216
0.9836097955704 0.9959397315979 1.2301137447357
0.9563366174698 0.9975409507751 1.3048776388168
1.0993092060089 1.1423212289810 0.5709511041641
1.0752948522568 1.1436949968338 0.7270053625107
1.0506647825241 1.1450668573380 0.8533710241318
1.0253722667694 1.1464370489120 0.9619690179825
0.9993649721146 1.1478052139282 1.0584344863892
0.9725824594498 1.1491717100143 1.1459534168243
0.9449558258057 1.1505364179611 1.2265318632126
0.9164057970047 1.1518990993500 1.3015279769897
1.0653206110001 1.2774416208267 0.5626289248466
1.0404262542725 1.2786525487900 0.7205799818039
1.0148488283157 1.2798624038696 0.8479784727097
0.9885327816010 1.2810708284378 0.9572465419769
0.9614146947861 1.2822779417038 1.0541905164719
0.9334216117859 1.2834837436676 1.1420723199844
0.9044687747955 1.2846883535385 1.2229379415512
0.8744574189186 1.2858916521072 1.2981684207916
1.0300740003586 1.3980228900909 0.5541769266129
1.0042023658752 1.3991158008575 0.7140925526619
0.9775671958923 1.4002077579498 0.8425480723381
0.9501013755798 1.4012988805771 0.9524980783463
0.9217275381088 1.4023890495300 1.0499272346497
0.8923556804657 1.4034782648087 1.1381763219833
0.8618799448013 1.4045662879944 1.2193320989609
0.8301747441292 1.4056535959244 1.2947989702225
0.9934287071228 1.5077642202377 0.5455890893936
0.9664632081985 1.5087668895721 0.7075412273407
0.9386368989944 1.5097686052322 0.8370791673660
0.9098675251007 1.5107697248459 0.9477232694626
0.8800588846207 1.5117700099945 1.0456445217133
0.8490978479385 1.5127694606781 1.1342653036118
0.8168492913246 1.5137683153152 1.2157140970230
0.7831497192383 1.5147662162781 1.2914196252823
1.3583979606628 -0.8176660537720 0.6062405705452
1.3395749330521 -0.8031540513039 0.7546452879906
1.3204460144043 -0.7886419892311 0.8767239451408
1.3009966611862 -0.7741299867630 0.9824994802475
1.2812114953995 -0.7596179246902 1.0769317150116
1.2610734701157 -0.7451059222221 1.1628986597061
1.2405643463135 -0.7305939197540 1.2422437667847
1.2196643352509 -0.7160819768906 1.3162300586700
1.3318064212799 0.3778598308563 0.5984308123589
1.3125486373901 0.3822593092918 0.7484753131866
1.2929642200470 0.3866102099419 0.8714896440506
1.2730370759964 0.3909139633179 0.9778867959976
1.2527499198914 0.3951720595360 1.0727694034576
1.2320837974548 0.3993858098984 1.1590814590454
1.2110179662704 0.4035565257072 1.2387013435364
1.1895297765732 0.4076852798462 1.3129131793976
1.3045969009399 0.7016052603722 0.5905126333237
1.2848746776581 0.7039504051208 0.7422499656677
1.2648029327393 0.7062871456146 0.8662205934525
1.2443634271622 0.7086157202721 0.9732499122620
1.2235367298126 0.7109361290932 1.0685888528824
1.2023012638092 0.7132483720779 1.1552498340607
1.1806337833405 0.7155525088310 1.2351475954056
1.1585084199905 0.7178488373756 1.3095868825912
1.2767268419266 0.9131953716278 0.5824818611145
1.2565072774887 0.9149575233459 0.7359678745270
1.2359123229980 0.9167158603668 0.8609161376953
1.2149215936661 0.9184706211090 0.9685883522034
1.1935127973557 0.9202215671539 1.0643900632858
1.1716617345810 0.9219689369202 1.1514040231705
1.1493414640427 0.9237126111984 1.2315820455551
1.1265225410461 0.9254527091980 1.3062509298325
1.2481492757797 1.0810017585754 0.5743337273598
1.2273954153061 1.0824630260468 0.7296274304390
1.2062367200851 1.0839222669601 0.8555756211281
1.1846505403519 1.0853793621063 0.9639017581940
1.1626113653183 1.0868340730667 1.0601726770401
1.1400914192200 1.0882867574692 1.1475436687469
1.1170599460602 1.0897372961044 1.2280048131943
1.0934826135635 1.0911855697632 1.3029052019119
1.2188110351562 1.2237443923950 0.5660633444786
1.1974809169769 1.2250156402588 0.7232272028923
1.1757130622864 1.2262854576111 0.8501983880997
1.1534811258316 1.2275538444519 0.9591897726059
1.1307562589645 1.2288206815720 1.0559363365173
1.1075063943863 1.2300859689713 1.1436686515808
1.0836956501007 1.2313499450684 1.2244158983231
1.0592842102051 1.2326123714447 1.2995498180389
1.1886521577835 1.3497661352158 0.5576653480530
1.1666982173920 1.3509037494659 0.7167655229568
1.1442688703537 1.3520402908325 0.8447836637497
1.1213337182999 1.3531756401062 0.9544520378113
1.0978595018387 1.3543100357056 1.0516810417175
1.0738087892532 1.3554432392120 1.1397788524628
1.0491396188736 1.3565754890442 1.2208148241043
1.0238052606583 1.3577066659927 1.2961845397949
1.1576040983200 1.4636344909668 0.5491340160370
1.1349723339081 1.4646717309952 0.7102405428886
1.1118215322495 1.4657082557678 0.8393306732178
1.0881166458130 1.4667437076569 0.9496881961823
1.0638188123703 1.4677784442902 1.0474064350128
1.0388841629028 1.4688124656677 1.1358740329742
1.0132634639740 1.4698455333710 1.2172019481659
0.9869004487991 1.4708777666092 1.2928091287613
1.4784669876099 -1.4455022811890 0.6094186306000
1.4614015817642 -1.4309902191162 0.7571644186974
1.4441050291061 -1.4164781570435 0.8788644671440
1.4265681505203 -1.4019662141800 0.9843875169754
1.4087815284729 -1.3874541521072 1.0786365270615
1.3907347917557 -1.3729422092438 1.1644628047943
1.3724167346954 -1.3584301471710 1.2436957359314
1.3538156747818 -1.3439180850983 1.3175898790359
1.4543716907501 0.0764663070440 0.6016522049904
1.4369781017303 0.0906759649515 0.7510167956352
1.4193406105042 0.1037588268518 0.8736442327499
1.4014489650726 0.1158846020699 0.9797847270966
1.3832929134369 0.1272277235985 1.0744814872742
1.3648607730865 0.1379157900810 1.1606513261795
1.3461407423019 0.1480453908443 1.2401580810547
1.3271194696426 0.1576916724443 1.3142770528793
1.4298105239868 0.5906760692596 0.5937790274620
1.4120705127716 0.5934879779816 0.7448143362999
1.3940724134445 0.5962859988213 0.8683895468712
1.3758050203323 0.5990702509880 0.9751578569412
1.3572570085526 0.6018410921097 1.0703085660934
1.3384156227112 0.6045985817909 1.1568256616592
1.3192675113678 0.6073429584503 1.2366089820862
1.2997982501984 0.6100742816925 1.3109545707703
1.4047574996948 0.8330214619637 0.5857950448990
1.3866509199142 0.8349701166153 0.7385557293892
1.3682705163956 0.8369138836861 0.8630996942520
1.3496042490005 0.8388526439667 0.9705064296722
1.3306393623352 0.8407865762711 1.0661174058914
1.3113620281219 0.8427156209946 1.1529858112335
1.2917571067810 0.8446398377419 1.2330483198166
1.2718087434769 0.8465593457222 1.3076226711273
1.3791838884354 1.0155169963837 0.5776957869530
1.3606883287430 1.0170838832855 0.7322394847870
1.3419018983841 1.0186480283737 0.8577740788460
1.3228111267090 1.0202095508575 0.9658302068710
1.3034020662308 1.0217683315277 1.0619076490402
1.2836589813232 1.0233246088028 1.1491314172745
1.2635651826859 1.0248781442642 1.2294758558273
1.2431026697159 1.0264290571213 1.3042809963226
1.3530577421188 1.1672414541245 0.5694762468338
1.3341487646103 1.1685823202133 0.7258639335632
1.3149300813675 1.1699213981628 0.8524120450020
1.2953864336014 1.1712589263916 0.9611287117004
1.2755023241043 1.1725945472717 1.0576790571213
1.2552605867386 1.1739284992218 1.1452624797821
1.2346420288086 1.1752607822418 1.2258917093277
1.2136262655258 1.1765913963318 1.3009294271469
1.3263441324234 1.2994604110718 0.5611313581467
1.3069947957993 1.3006482124329 0.7194277048111
1.2873141765594 1.3018347024918 0.8470128178596
1.2672863006592 1.3030200004578 0.9564017057419
1.2468929290771 1.3042041063309 1.0534316301346
1.2261149883270 1.3053870201111 1.1413786411285
1.2049310207367 1.3065687417984 1.2222958803177
1.1833178997040 1.3077492713928 1.2975682020187
1.2990041971207 1.4179269075394 0.5526555180550
1.2791841030121 1.4190024137497 0.7129289507866
1.2590092420578 1.4200769662857 0.8415756821632
1.2384614944458 1.4211505651474 0.9516485929489
1.2175203561783 1.4222233295441 1.0491648912430
1.1961641311646 1.4232951402664 1.1374800205231
1.1743687391281 1.4243661165237 1.2186877727509
1.1521075963974 1.4254361391068 1.2941970825195
1.5882889032364 -2.0733389854431 0.6125794053078
1.5725854635239 -2.0588269233704 0.7596744298935
1.5566995143890 -2.0443148612976 0.8809992671013
1.5406252145767 -2.0298030376434 0.9862716197968
1.5243558883667 -2.0152909755707 1.0803382396698
1.5078849792480 -2.0007789134979 1.1660248041153
1.4912049770355 -1.9862668514252 1.2451459169388
1.4743084907532 -1.9717549085617 1.3189481496811
1.5661250352859 -0.5513704419136 0.6048555374146
1.5501630306244 -0.5368584394455 0.7535489797592
1.5340099334717 -0.5223463773727 0.8757929801941
1.5176591873169 -0.5078343749046 0.9816787242889
1.5011038780212 -0.4933223426342 1.0761907100677
1.4843366146088 -0.4788103401661 1.1622189283371
1.4673492908478 -0.4642983376980 1.2416129112244
1.4501339197159 -0.4497863054276 1.3156392574310
1.5435947179794 0.4519385099411 0.5970267653465
1.5273617506027 0.4556322693825 0.7473692297935
1.5109283924103 0.4592961072922 0.8705524802208
1.4942874908447 0.4629308581352 0.9770616292953
1.4774314165115 0.4665371179581 1.0720251798630
1.4603520631790 0.4701155424118 1.1583992242813
1.4430409669876 0.4736666679382 1.2380684614182
1.4254893064499 0.4771910905838 1.3123207092285
1.5206800699234 0.7433788180351 0.5890888571739
1.5041630268097 0.7455830574036 0.7411339282990
1.4874352216721 0.7477802634239 0.8652772307396
1.4704889059067 0.7499705553055 0.9724203348160
1.4533162117004 0.7521539926529 1.0678414106369
1.4359080791473 0.7543306350708 1.1545649766922
1.4182552099228 0.7565004229546 1.2345124483109
1.4003479480743 0.7586635351181 1.3089927434921
1.4973624944687 0.9449549913406 0.5810374617577
1.4805465936661 0.9466519355774 0.7348414659500
1.4635088443756 0.9483455419540 0.8599663972855
1.4462411403656 0.9500359296799 0.9677543640137
1.4287344217300 0.9517228603363 1.0636392831802
1.4109789133072 0.9534065723419 1.1507166624069
1.3929646015167 0.9550868272781 1.2309449911118
1.3746805191040 0.9567639827728 1.3056550025940
1.4736210107803 1.1074755191803 0.5728679299355
1.4564905166626 1.1088978052139 0.7284904718399
1.4391263723373 1.1103181838989 0.8546194434166
1.4215193986893 1.1117365360260 0.9630633592606
1.4036594629288 1.1131527423859 1.0594185590744
1.3855364322662 1.1145670413971 1.1468536853790
1.3671388626099 1.1159793138504 1.2273657321930
1.3484548330307 1.1173895597458 1.3023074865341
1.4494333267212 1.2468397617340 0.5645751953125
1.4319710731506 1.2480844259262 0.7220793962479
1.4142621755600 1.2493277788162 0.8492355346680
1.3962962627411 1.2505697011948 0.9583467245102
1.3780626058578 1.2518101930618 1.0551788806915
1.3595495223999 1.2530493736267 1.1429760456085
1.3407448530197 1.2542871236801 1.2237745523453
1.3216352462769 1.2555235624313 1.2989503145218
1.4247746467590 1.3704706430435 0.5561538934708
1.4069620370865 1.3715887069702 0.7156065106392
1.3888882398605 1.3727058172226 0.8438140749931
1.3705420494080 1.3738218545914 0.9536044597626
1.3519115447998 1.3749368190765 1.0509201288223
1.3329842090607 1.3760507106781 1.1390835046768
1.3137458562851 1.3771636486053 1.2201714515686
1.2941820621490 1.3782756328583 1.2955832481384
1.6900017261505 -2.7011759281158 0.6157230734825
1.6753925085068 -2.6866638660431 0.7621756196022
1.6606348752975 -2.6721518039703 0.8831283450127
1.6457244157791 -2.6576399803162 0.9881516695023
1.6306564807892 -2.6431279182434 1.0820370912552
1.6154265403748 -2.6286158561707 1.1675841808319
1.6000292301178 -2.6141040325165 1.2465940713882
1.5844595432281 -2.5995919704437 1.3203048706055
1.6693884134293 -1.1792074441910 0.6080412268639
1.6545689105988 -1.1646953821182 0.7560720443726
1.6395946741104 -1.1501834392548 0.8779360055923
1.6244611740112 -1.1356713771820 0.9835684299469
1.6091635227203 -1.1211593151093 1.0778968334198
1.5936967134476 -1.1066473722458 1.1637842655182
1.5780550241470 -1.0921353101730 1.2430657148361
1.5622332096100 -1.0776233673096 1.3169997930527
1.6484770774841 0.2457796782255 0.6002560853958
1.6334385871887 0.2522792816162 0.7499147653580
1.6182385683060 0.2586352825165 0.8727096319199
1.6028726100922 0.2648562192917 0.9789614677429
1.5873349905014 0.2709498405457 1.0737388134003
1.5716207027435 0.2769233584404 1.1599701642990
1.5557234287262 0.2827830910683 1.2395259141922
1.5396373271942 0.2885350584984 1.3136851787567
1.6272554397583 0.6402173638344 0.5923634767532
1.6119883060455 0.6428017020226 0.7437023520470
1.5965529680252 0.6453750133514 0.8674487471581
1.5809439420700 0.6479375958443 0.9743300676346
1.5651556253433 0.6504894495010 1.0695624351501
1.5491821765900 0.6530306935310 1.1561419963837
1.5330171585083 0.6555614471436 1.2359747886658
1.5166542530060 0.6580819487572 1.3103611469269
1.6057100296021 0.8680201172829 0.5843592882156
1.5902044773102 0.8698831200600 0.7374336123466
1.5745229721069 0.8717418313026 0.8621525764465
1.5586599111557 0.8735961318016 0.9696743488312
1.5426089763641 0.8754462003708 1.0653679370880
1.5263640880585 0.8772919178009 1.1522995233536
1.5099183320999 0.8791333436966 1.2324120998383
1.4932641983032 0.8809706568718 1.3070274591446
1.5838267803192 1.0438523292542 0.5762388706207
1.5680718421936 1.0453718900681 0.7311068177223
1.5521327257156 1.0468890666962 0.8568205237389
1.5360035896301 1.0484038591385 0.9649935960770
1.5196774005890 1.0499159097672 1.0611548423767
1.5031476020813 1.0514256954193 1.1484425067902
1.4864066839218 1.0529332160950 1.2288376092911
1.4694467782974 1.0544382333755 1.3036839962006
1.5615899562836 1.1915763616562 0.5679973959923
1.5455741882324 1.1928863525391 0.7247205972672
1.5293653011322 1.1941947937012 0.8514519333839
1.5129569768906 1.1955016851425 0.9602876901627
1.4963418245316 1.1968069076538 1.0569230318069
1.4795126914978 1.1981105804443 1.1445709466934
1.4624612331390 1.1994125843048 1.2252514362335
1.4451791048050 1.2007130384445 1.3003307580948
1.5389832258224 1.3210635185242 0.5596295595169
1.5226937532425 1.3222291469574 0.7182733416557
1.5062019824982 1.3233938217163 0.8460459709167
1.4895005226135 1.3245573043823 0.9555559158325
1.4725815057755 1.3257195949554 1.0526721477509
1.4554370641708 1.3268806934357 1.1406844854355
1.4380582571030 1.3280407190323 1.2216532230377
1.4204360246658 1.3291994333267 1.2969677448273
