graphics/cube/Rec2100HlgNarrow_457.cube
TITLE "QA_Rec2100HlgNarrow_457"
# Copyright (c) 2026 @xsscx David H Hoyt LLC
# https://xss.cx
# Profiles applied (by profile description):
# - Rec. 2100 RGB with Hlg
LUT_3D_SIZE 8
LUT_3D_INPUT_RANGE 0.22510 0.97130
0.00539 0.00575 0.00827
0.00622 0.00608 0.01489
0.00750 0.00659 0.02520
0.00946 0.00735 0.04115
0.01363 0.00894 0.07519
0.02291 0.01240 0.15172
0.04408 0.02018 0.32759
0.09311 0.03794 0.73719
0.00657 0.00983 0.00911
0.00750 0.01021 0.01672
0.00892 0.01079 0.02833
0.01107 0.01165 0.04591
0.01552 0.01341 0.08246
0.02520 0.01717 0.16248
0.04688 0.02538 0.34251
0.09648 0.04375 0.75654
0.00831 0.01677 0.01003
0.00935 0.01720 0.01854
0.01091 0.01785 0.03141
0.01325 0.01881 0.05068
0.01804 0.02075 0.09012
0.02826 0.02482 0.17471
0.05069 0.03354 0.36096
0.10123 0.05268 0.78228
0.01097 0.02816 0.01116
0.01211 0.02863 0.02054
0.01382 0.02934 0.03467
0.01637 0.03040 0.05569
0.02153 0.03252 0.09830
0.03240 0.03693 0.18833
0.05584 0.04624 0.38289
0.10773 0.06632 0.81508
0.01664 0.05347 0.01319
0.01791 0.05400 0.02372
0.01982 0.05480 0.03951
0.02265 0.05598 0.06288
0.02833 0.05834 0.10993
0.04018 0.06321 0.20808
0.06527 0.07339 0.41626
0.11963 0.09494 0.86850
0.02938 0.11203 0.01721
0.03083 0.11264 0.02916
0.03299 0.11355 0.04706
0.03618 0.11488 0.07348
0.04256 0.11755 0.12639
0.05577 0.12304 0.23580
0.08332 0.13439 0.46438
0.14178 0.15810 0.95025
0.05865 0.24877 0.02567
0.06030 0.24947 0.03935
0.06277 0.25050 0.05980
0.06641 0.25203 0.08995
0.07367 0.25508 0.15017
0.08861 0.26133 0.27401
0.11949 0.27418 0.53017
0.18399 0.30076 1.06576
0.12672 0.56960 0.04437
0.12862 0.57040 0.06008
0.13145 0.57159 0.08357
0.13562 0.57335 0.11817
0.14394 0.57685 0.18715
0.16100 0.58401 0.32860
0.19607 0.59869 0.61953
0.26861 0.62888 1.22147
0.00868 0.00726 0.00857
0.00960 0.00761 0.01564
0.01099 0.00815 0.02652
0.01311 0.00896 0.04317
0.01752 0.01062 0.07825
0.02717 0.01421 0.15615
0.04884 0.02216 0.33359
0.09851 0.04017 0.74482
0.01020 0.01155 0.00929
0.01119 0.01194 0.01717
0.01269 0.01254 0.02916
0.01494 0.01344 0.04724
0.01958 0.01525 0.08462
0.02957 0.01910 0.16590
0.05170 0.02746 0.34757
0.10192 0.04604 0.76344
0.01230 0.01869 0.01015
0.01337 0.01913 0.01884
0.01499 0.01979 0.03197
0.01741 0.02077 0.05159
0.02233 0.02275 0.09167
0.03280 0.02689 0.17731
0.05562 0.03573 0.36510
0.10672 0.05504 0.78834
0.01532 0.03027 0.01125
0.01649 0.03075 0.02076
0.01824 0.03147 0.03507
0.02084 0.03254 0.05634
0.02610 0.03469 0.09942
0.03716 0.03915 0.19029
0.06093 0.04855 0.38620
0.11331 0.06878 0.82026
0.02148 0.05584 0.01326
0.02277 0.05638 0.02386
0.02471 0.05718 0.03977
0.02757 0.05837 0.06331
0.03332 0.06074 0.11068
0.04530 0.06565 0.20944
0.07063 0.07589 0.41867
0.12539 0.09756 0.87255
0.03486 0.11472 0.01726
0.03631 0.11533 0.02927
0.03849 0.11624 0.04723
0.04170 0.11759 0.07376
0.04813 0.12026 0.12687
0.06142 0.12577 0.23667
0.08913 0.13716 0.46598
0.14789 0.16095 0.95313
0.06490 0.25185 0.02571
0.06656 0.25254 0.03942
0.06904 0.25358 0.05992
0.07269 0.25512 0.09013
0.07998 0.25817 0.15047
0.09497 0.26443 0.27455
0.12595 0.27731 0.53118
0.19065 0.30394 1.06764
0.13389 0.57314 0.04441
0.13579 0.57394 0.06014
0.13863 0.57513 0.08365
0.14281 0.57689 0.11828
0.15115 0.58039 0.18734
0.16824 0.58756 0.32893
0.20337 0.60225 0.62014
0.27602 0.63248 1.22263
0.01415 0.00968 0.00890
0.01515 0.01006 0.01648
0.01667 0.01064 0.02805
0.01895 0.01150 0.04558
0.02364 0.01326 0.08205
0.03376 0.01701 0.16194
0.05611 0.02520 0.34181
0.10668 0.04355 0.75565
0.01600 0.01423 0.00952
0.01706 0.01464 0.01775
0.01865 0.01527 0.03023
0.02104 0.01620 0.04897
0.02591 0.01808 0.08748
0.03630 0.02206 0.17053
0.05905 0.03061 0.35461
0.11014 0.04949 0.77330
0.01852 0.02163 0.01031
0.01964 0.02209 0.01925
0.02133 0.02276 0.03273
0.02385 0.02377 0.05284
0.02895 0.02580 0.09380
0.03975 0.03003 0.18092
0.06312 0.03903 0.37095
0.11501 0.05861 0.79707
0.02201 0.03348 0.01137
0.02321 0.03397 0.02106
0.02502 0.03471 0.03562
0.02769 0.03580 0.05725
0.03309 0.03798 0.10101
0.04442 0.04251 0.19308
0.06864 0.05204 0.39093
0.12174 0.07248 0.82775
0.02884 0.05941 0.01336
0.03016 0.05995 0.02408
0.03213 0.06077 0.04015
0.03504 0.06197 0.06394
0.04089 0.06437 0.11177
0.05306 0.06933 0.21140
0.07873 0.07966 0.42217
0.13408 0.10149 0.87847
0.04312 0.11876 0.01734
0.04459 0.11938 0.02941
0.04678 0.12029 0.04748
0.05003 0.12164 0.07416
0.05652 0.12434 0.12757
0.06993 0.12988 0.23795
0.09788 0.14133 0.46834
0.15708 0.16522 0.95737
0.07429 0.25646 0.02578
0.07595 0.25716 0.03953
0.07844 0.25820 0.06009
0.08211 0.25973 0.09039
0.08944 0.26280 0.15091
0.10451 0.26908 0.27534
0.13564 0.28199 0.53267
0.20063 0.30869 1.07042
0.14464 0.57843 0.04447
0.14654 0.57923 0.06023
0.14939 0.58042 0.08378
0.15358 0.58218 0.11846
0.16194 0.58569 0.18762
0.17907 0.59287 0.32942
0.21430 0.60758 0.62105
0.28713 0.63785 1.22436
0.02299 0.01353 0.00925
0.02408 0.01394 0.01740
0.02574 0.01456 0.02976
0.02820 0.01548 0.04833
0.03322 0.01735 0.08656
0.04389 0.02129 0.16916
0.06711 0.02980 0.35261
0.11890 0.04860 0.77055
0.02518 0.01837 0.00979
0.02632 0.01881 0.01845
0.02802 0.01947 0.03154
0.03056 0.02045 0.05110
0.03571 0.02242 0.09107
0.04660 0.02655 0.17653
0.07016 0.03537 0.36405
0.12241 0.05466 0.78695
0.02816 0.02611 0.01053
0.02934 0.02658 0.01978
0.03112 0.02728 0.03372
0.03376 0.02832 0.05447
0.03910 0.03041 0.09660
0.05033 0.03477 0.18576
0.07441 0.04399 0.37894
0.12740 0.06392 0.80924
0.03223 0.03831 0.01155
0.03347 0.03882 0.02147
0.03534 0.03957 0.03638
0.03812 0.04068 0.05849
0.04370 0.04291 0.10316
0.05538 0.04754 0.19689
0.08021 0.05725 0.39750
0.13430 0.07799 0.83830
0.03993 0.06474 0.01349
0.04127 0.06529 0.02437
0.04329 0.06611 0.04068
0.04627 0.06733 0.06481
0.05226 0.06977 0.11329
0.06469 0.07480 0.21415
0.09085 0.08525 0.42711
0.14702 0.10732 0.88690
0.05543 0.12475 0.01745
0.05692 0.12537 0.02962
0.05915 0.12629 0.04784
0.06244 0.12765 0.07474
0.06902 0.13037 0.12857
0.08261 0.13595 0.23978
0.11090 0.14749 0.47173
0.17070 0.17155 0.96347
0.08819 0.26327 0.02587
0.08987 0.26397 0.03968
0.09238 0.26501 0.06033
0.09608 0.26656 0.09077
0.10346 0.26963 0.15154
0.11864 0.27594 0.27649
0.14999 0.28891 0.53483
0.21539 0.31572 1.07446
0.16050 0.58622 0.04456
0.16241 0.58703 0.06035
0.16527 0.58822 0.08395
0.16948 0.58999 0.11871
0.17787 0.59350 0.18802
0.19507 0.60069 0.33014
0.23043 0.61544 0.62238
0.30352 0.64578 1.22689
0.04253 0.02191 0.00974
0.04375 0.02236 0.01870
0.04558 0.02304 0.03221
0.04830 0.02405 0.05235
0.05379 0.02608 0.09338
0.06532 0.03033 0.18062
0.08995 0.03934 0.37082
0.14387 0.05894 0.79715
0.04514 0.02719 0.01021
0.04638 0.02766 0.01953
0.04825 0.02837 0.03357
0.05102 0.02942 0.05446
0.05660 0.03153 0.09684
0.06828 0.03591 0.18645
0.09318 0.04518 0.38033
0.14749 0.06519 0.81160
0.04875 0.03545 0.01088
0.05003 0.03595 0.02066
0.05194 0.03669 0.03537
0.05478 0.03779 0.05720
0.06050 0.03999 0.10133
0.07243 0.04456 0.19409
0.09774 0.05417 0.39307
0.15267 0.07473 0.83150
0.05367 0.04826 0.01184
0.05500 0.04878 0.02218
0.05698 0.04957 0.03769
0.05992 0.05072 0.06067
0.06582 0.05304 0.10696
0.07810 0.05784 0.20370
0.10402 0.06787 0.40942
0.15988 0.08916 0.85785
0.06280 0.07557 0.01374
0.06421 0.07614 0.02491
0.06631 0.07699 0.04165
0.06942 0.07824 0.06640
0.07565 0.08074 0.11609
0.08855 0.08589 0.21924
0.11557 0.09659 0.43631
0.17326 0.11909 0.90278
0.08048 0.13681 0.01765
0.08201 0.13744 0.03002
0.08430 0.13838 0.04852
0.08767 0.13976 0.07583
0.09442 0.14252 0.13047
0.10833 0.14819 0.24326
0.13726 0.15989 0.47819
0.19822 0.18426 0.97517
0.11621 0.27691 0.02606
0.11791 0.27762 0.03998
0.12046 0.27867 0.06081
0.12421 0.28023 0.09150
0.13170 0.28333 0.15277
0.14709 0.28969 0.27873
0.17886 0.30276 0.53903
0.24506 0.32977 1.08234
0.19229 0.60180 0.04473
0.19421 0.60260 0.06060
0.19709 0.60381 0.08430
0.20133 0.60558 0.11921
0.20979 0.60911 0.18882
0.22711 0.61633 0.33154
0.26273 0.63114 0.62500
0.33633 0.66160 1.23185
0.08757 0.04103 0.01039
0.08895 0.04154 0.02043
0.09101 0.04230 0.03551
0.09407 0.04343 0.05788
0.10021 0.04568 0.10301
0.11295 0.05036 0.19759
0.13974 0.06016 0.39962
0.19718 0.08106 0.84251
0.09067 0.04691 0.01081
0.09206 0.04743 0.02109
0.09415 0.04821 0.03652
0.09724 0.04937 0.05939
0.10343 0.05168 0.10547
0.11627 0.05645 0.20181
0.14325 0.06644 0.40685
0.20099 0.08766 0.85424
0.09506 0.05595 0.01142
0.09648 0.05649 0.02203
0.09860 0.05729 0.03793
0.10173 0.05848 0.06148
0.10800 0.06086 0.10885
0.12101 0.06577 0.20761
0.14828 0.07601 0.41684
0.20649 0.09768 0.87071
0.10115 0.06972 0.01234
0.10259 0.07028 0.02335
0.10476 0.07112 0.03987
0.10795 0.07235 0.06429
0.11435 0.07482 0.11333
0.12760 0.07990 0.21527
0.15530 0.09047 0.43014
0.21424 0.11274 0.89301
0.11242 0.09856 0.01417
0.11392 0.09915 0.02587
0.11617 0.10004 0.04337
0.11948 0.10134 0.06924
0.12612 0.10396 0.12106
0.13982 0.10933 0.22836
0.16837 0.12046 0.45300
0.22875 0.14376 0.93213
0.13370 0.16204 0.01804
0.13530 0.16268 0.03076
0.13769 0.16365 0.04980
0.14122 0.16507 0.07788
0.14827 0.16791 0.13403
0.16278 0.17373 0.24980
0.19286 0.18575 0.49040
0.25598 0.21071 0.99747
0.17479 0.30515 0.02641
0.17654 0.30587 0.04057
0.17915 0.30694 0.06173
0.18300 0.30852 0.09292
0.19069 0.31168 0.15518
0.20648 0.31814 0.28309
0.23905 0.33141 0.54723
0.30679 0.35883 1.09775
0.25805 0.63385 0.04509
0.26000 0.63466 0.06109
0.26293 0.63587 0.08500
0.26723 0.63766 0.12021
0.27581 0.64122 0.19042
0.29339 0.64851 0.33434
0.32951 0.66344 0.63020
0.40411 0.69415 1.24176
0.19252 0.08528 0.01120
0.19409 0.08586 0.02261
0.19645 0.08673 0.03969
0.19993 0.08800 0.06493
0.20689 0.09055 0.11557
0.22123 0.09581 0.22055
0.25102 0.10670 0.44093
0.31374 0.12955 0.91287
0.19617 0.09194 0.01160
0.19775 0.09252 0.02315
0.20012 0.09340 0.04045
0.20362 0.09469 0.06601
0.21061 0.09727 0.11725
0.22501 0.10259 0.22342
0.25492 0.11361 0.44597
0.31785 0.13669 0.92155
0.20145 0.10203 0.01219
0.20305 0.10263 0.02395
0.20544 0.10352 0.04156
0.20896 0.10484 0.06756
0.21600 0.10746 0.11967
0.23050 0.11287 0.22751
0.26059 0.12406 0.45315
0.32386 0.14747 0.93399
0.20892 0.11720 0.01307
0.21053 0.11781 0.02511
0.21295 0.11873 0.04314
0.21651 0.12007 0.06975
0.22362 0.12276 0.12303
0.23827 0.12829 0.23316
0.26865 0.13972 0.46307
0.33241 0.16357 0.95126
0.22297 0.14841 0.01488
0.22461 0.14904 0.02741
0.22708 0.14999 0.04616
0.23072 0.15140 0.07384
0.23798 0.15419 0.12919
0.25293 0.15994 0.24338
0.28387 0.17179 0.48096
0.34865 0.19644 0.98265
0.24951 0.21566 0.01871
0.25123 0.21634 0.03206
0.25380 0.21735 0.05203
0.25758 0.21885 0.08147
0.26513 0.22182 0.14029
0.28065 0.22793 0.26134
0.31270 0.24049 0.51210
0.37953 0.26651 1.03767
0.29940 0.36424 0.02707
0.30123 0.36498 0.04165
0.30397 0.36609 0.06345
0.30801 0.36772 0.09557
0.31606 0.37096 0.15965
0.33258 0.37761 0.29124
0.36660 0.39127 0.56259
0.43715 0.41944 1.12680
0.39559 0.70020 0.04577
0.39760 0.70103 0.06204
0.40061 0.70226 0.08635
0.40503 0.70408 0.12214
0.41384 0.70770 0.19351
0.43191 0.71510 0.33978
0.46900 0.73029 0.64034
0.54551 0.76148 1.26108
0.43854 0.18862 0.01218
0.44035 0.18929 0.02523
0.44306 0.19028 0.04475
0.44704 0.19174 0.07354
0.45499 0.19465 0.13107
0.47132 0.20062 0.24958
0.50498 0.21292 0.49542
0.57494 0.23844 1.01197
0.44280 0.19622 0.01258
0.44462 0.19689 0.02571
0.44733 0.19789 0.04537
0.45132 0.19935 0.07434
0.45929 0.20228 0.13225
0.47566 0.20829 0.25149
0.50939 0.22067 0.49875
0.57949 0.24634 1.01789
0.44906 0.20766 0.01318
0.45088 0.20834 0.02644
0.45360 0.20934 0.04628
0.45761 0.21083 0.07553
0.46561 0.21378 0.13398
0.48203 0.21985 0.25429
0.51587 0.23234 0.50361
0.58618 0.25822 1.02652
0.45805 0.22470 0.01408
0.45988 0.22538 0.02752
0.46261 0.22640 0.04762
0.46664 0.22790 0.07726
0.47469 0.23090 0.13646
0.49119 0.23704 0.25827
0.52521 0.24969 0.51051
0.59583 0.27587 1.03879
0.47530 0.25925 0.01590
0.47715 0.25995 0.02967
0.47992 0.26100 0.05026
0.48399 0.26254 0.08061
0.49212 0.26560 0.14121
0.50880 0.27190 0.26582
0.54316 0.28483 0.52349
0.61443 0.31158 1.06186
0.50854 0.33231 0.01979
0.51043 0.33304 0.03414
0.51326 0.33413 0.05561
0.51742 0.33573 0.08723
0.52573 0.33893 0.15035
0.54277 0.34548 0.28000
0.57783 0.35894 0.54753
0.65046 0.38671 1.10447
0.57112 0.49003 0.02823
0.57310 0.49081 0.04355
0.57604 0.49197 0.06645
0.58038 0.49368 0.10019
0.58903 0.49709 0.16747
0.60676 0.50408 0.30549
0.64320 0.51840 0.58958
0.71848 0.54790 1.17825
0.68844 0.83910 0.04704
0.69054 0.83995 0.06380
0.69369 0.84122 0.08886
0.69833 0.84310 0.12575
0.70757 0.84683 0.19928
0.72650 0.85446 0.34992
0.76534 0.87009 0.65925
0.84532 0.90221 1.29724
