graphics/cube/Rec2100HlgFull-Part2_894.cube
TITLE "QA_Rec2100HlgFull-Part2_894"
# Copyright (c) 2026 @xsscx David H Hoyt LLC
# https://xss.cx
# Profiles applied (by profile description):
# - LutBased Rec. 2100 RGB with HLG
LUT_3D_SIZE 39
LUT_3D_INPUT_RANGE 0.1469000 0.7725000
0.0978321 0.1044237 0.1500581
0.1021541 0.1059633 0.1864049
0.1074451 0.1078482 0.2309013
0.1146953 0.1104310 0.2918741
0.1246867 0.1139902 0.3759003
0.1384859 0.1189060 0.4919494
0.1575786 0.1257075 0.6525161
0.1840344 0.1351319 0.8750045
0.2207357 0.1482063 1.1836571
0.2716981 0.1663608 1.6122419
0.3425141 0.1915879 2.2077930
0.4409750 0.2266631 3.0358322
0.0829787 0.0991324 0.0251433
0.0832170 0.0992173 0.0271473
0.0837746 0.0994159 0.0318364
0.0847190 0.0997524 0.0397787
0.0861032 0.1002455 0.0514199
0.0879720 0.1009112 0.0671362
0.0903646 0.1017635 0.0872573
0.0933162 0.1028150 0.1120796
0.0968589 0.1040770 0.1418735
0.1010226 0.1055603 0.1768893
0.1059777 0.1073255 0.2185613
0.1126764 0.1097118 0.2748960
0.1219022 0.1129983 0.3524835
0.1346377 0.1175351 0.4595863
0.1522511 0.1238097 0.6077130
0.1766490 0.1325010 0.8128951
0.2104865 0.1445551 1.0974631
0.2574621 0.1612895 1.4925197
0.3227282 0.1845395 2.0413971
0.4134599 0.2168613 2.8044353
0.0829585 0.0991252 0.0249732
0.0831313 0.0991868 0.0264264
0.0836026 0.0993547 0.0303900
0.0844457 0.0996550 0.0374808
0.0857165 0.1001077 0.0481678
0.0874614 0.1007293 0.0628416
0.0897207 0.1015341 0.0818420
0.1015331 0.1220263 0.1510198
0.1058551 0.1235659 0.1873666
0.1111461 0.1254508 0.2318630
0.1183962 0.1280335 0.2928358
0.1283876 0.1315928 0.3768620
0.1421869 0.1365086 0.4929111
0.1612796 0.1433101 0.6534778
0.1877353 0.1527345 0.8759663
0.2244367 0.1658088 1.1846188
0.2753991 0.1839634 1.6132035
0.3462151 0.2091905 2.2087548
0.4446760 0.2442657 3.0367939
0.0866797 0.1167350 0.0261050
0.0869180 0.1168199 0.0281090
0.0874756 0.1170185 0.0327981
0.0884200 0.1173549 0.0407404
0.0898042 0.1178481 0.0523816
0.0916730 0.1185138 0.0680979
0.0940656 0.1193661 0.0882190
0.0970172 0.1204176 0.1130413
0.1005599 0.1216796 0.1428352
0.1047236 0.1231629 0.1778510
0.1096787 0.1249280 0.2195230
0.1163774 0.1273143 0.2758577
0.1256032 0.1306009 0.3534452
0.1383386 0.1351377 0.4605480
0.1559521 0.1414122 0.6086747
0.1803500 0.1501036 0.8138568
0.2141875 0.1621577 1.0984248
0.2611631 0.1788920 1.4934815
0.3264292 0.2021421 2.0423586
0.4171609 0.2344639 2.8053970
0.0866595 0.1167278 0.0259349
0.0868323 0.1167893 0.0273881
0.0873036 0.1169573 0.0313517
0.0881467 0.1172576 0.0384425
0.0894175 0.1177103 0.0491295
0.0911623 0.1183319 0.0638033
0.0934216 0.1191367 0.0828037
0.1060639 0.1435757 0.1521971
0.1103859 0.1451153 0.1885439
0.1156769 0.1470001 0.2330403
0.1229270 0.1495829 0.2940132
0.1329185 0.1531422 0.3780394
0.1467177 0.1580580 0.4940884
0.1658104 0.1648595 0.6546552
0.1922661 0.1742839 0.8771436
0.2289675 0.1873582 1.1857960
0.2799298 0.2055127 1.6143811
0.3507459 0.2307399 2.2099321
0.4492067 0.2658150 3.0379710
0.0912105 0.1382844 0.0272823
0.0914488 0.1383693 0.0292864
0.0920064 0.1385679 0.0339755
0.0929508 0.1389043 0.0419178
0.0943350 0.1393974 0.0535590
0.0962038 0.1400632 0.0692752
0.0985964 0.1409155 0.0893964
0.1015480 0.1419669 0.1142187
0.1050907 0.1432290 0.1440126
0.1092544 0.1447122 0.1790283
0.1142095 0.1464774 0.2207003
0.1209082 0.1488637 0.2770350
0.1301340 0.1521503 0.3546226
0.1428694 0.1566871 0.4617254
0.1604830 0.1629616 0.6098521
0.1848808 0.1716530 0.8150342
0.2187183 0.1837071 1.0996021
0.2656939 0.2004414 1.4946588
0.3309600 0.2236915 2.0435362
0.4216917 0.2560132 2.8065741
0.0911903 0.1382772 0.0271123
0.0913631 0.1383387 0.0285654
0.0918344 0.1385066 0.0325291
0.0926775 0.1388070 0.0396199
0.0939483 0.1392597 0.0503069
0.0956931 0.1398813 0.0649806
0.0979525 0.1406861 0.0839810
0.1122724 0.1731045 0.1538104
0.1165944 0.1746441 0.1901572
0.1218854 0.1765290 0.2346536
0.1291355 0.1791117 0.2956264
0.1391270 0.1826710 0.3796526
0.1529262 0.1875868 0.4957017
0.1720189 0.1943883 0.6562685
0.1984746 0.2038127 0.8787568
0.2351760 0.2168870 1.1874093
0.2861384 0.2350416 1.6159943
0.3569544 0.2602687 2.2115455
0.4554152 0.2953439 3.0395846
0.0974190 0.1678132 0.0288956
0.0976573 0.1678981 0.0308997
0.0982149 0.1680967 0.0355887
0.0991593 0.1684331 0.0435310
0.1005435 0.1689263 0.0551722
0.1024123 0.1695920 0.0708885
0.1048049 0.1704443 0.0910096
0.1077565 0.1714958 0.1158319
0.1112992 0.1727578 0.1456259
0.1154629 0.1742411 0.1806416
0.1204180 0.1760063 0.2223136
0.1271167 0.1783926 0.2786483
0.1363425 0.1816791 0.3562359
0.1490780 0.1862159 0.4633387
0.1666915 0.1924904 0.6114653
0.1910893 0.2011818 0.8166474
0.2249268 0.2132359 1.1012154
0.2719024 0.2299702 1.4962721
0.3371685 0.2532203 2.0451493
0.4279002 0.2855421 2.8081877
0.0973988 0.1678060 0.0287256
0.0975716 0.1678676 0.0301787
0.0980429 0.1680354 0.0341424
0.0988861 0.1683358 0.0412332
0.1001568 0.1687885 0.0519201
0.1019017 0.1694101 0.0665939
0.1041610 0.1702149 0.0855943
0.1208283 0.2137980 0.1560337
0.1251503 0.2153376 0.1923805
0.1304413 0.2172224 0.2368769
0.1376914 0.2198052 0.2978497
0.1476829 0.2233645 0.3818759
0.1614821 0.2282802 0.4979250
0.1805748 0.2350817 0.6584917
0.2070305 0.2445062 0.8809801
0.2437319 0.2575805 1.1896327
0.2946943 0.2757351 1.6182175
0.3655103 0.3009622 2.2137687
0.4639711 0.3360373 3.0418081
0.1059749 0.2085067 0.0311188
0.1062132 0.2085916 0.0331229
0.1067708 0.2087902 0.0378120
0.1077152 0.2091266 0.0457543
0.1090994 0.2096197 0.0573955
0.1109682 0.2102855 0.0731118
0.1133608 0.2111378 0.0932329
0.1163124 0.2121892 0.1180552
0.1198551 0.2134513 0.1478491
0.1240188 0.2149345 0.1828649
0.1289739 0.2166997 0.2245368
0.1356726 0.2190860 0.2808716
0.1448984 0.2223726 0.3584591
0.1576338 0.2269094 0.4655619
0.1752474 0.2331839 0.6136886
0.1996452 0.2418753 0.8188707
0.2334827 0.2539294 1.1034386
0.2804583 0.2706637 1.4984953
0.3457245 0.2939138 2.0473726
0.4364561 0.3262355 2.8104110
0.1059547 0.2084995 0.0309488
0.1061275 0.2085610 0.0324019
0.1065988 0.2087289 0.0363656
0.1074419 0.2090293 0.0434564
0.1087127 0.2094820 0.0541434
0.1104576 0.2101035 0.0688171
0.1127169 0.2109084 0.0878175
0.1326449 0.2700000 0.1591042
0.1369669 0.2715396 0.1954510
0.1422579 0.2734244 0.2399474
0.1495080 0.2760072 0.3009203
0.1594995 0.2795665 0.3849464
0.1732987 0.2844822 0.5009955
0.1923914 0.2912837 0.6615623
0.2188472 0.3007082 0.8840507
0.2555486 0.3137825 1.1927031
0.3065109 0.3319370 1.6212881
0.3773269 0.3571642 2.2168393
0.4757877 0.3922393 3.0448785
0.1177915 0.2647087 0.0341894
0.1180298 0.2647935 0.0361935
0.1185874 0.2649922 0.0408826
0.1195318 0.2653286 0.0488249
0.1209160 0.2658217 0.0604661
0.1227848 0.2664874 0.0761823
0.1251774 0.2673398 0.0963034
0.1281290 0.2683912 0.1211257
0.1316717 0.2696533 0.1509197
0.1358354 0.2711365 0.1859354
0.1407905 0.2729017 0.2276074
0.1474892 0.2752880 0.2839421
0.1567150 0.2785746 0.3615296
0.1694504 0.2831114 0.4686325
0.1870639 0.2893859 0.6167591
0.2114618 0.2980773 0.8219412
0.2452994 0.3101314 1.1065092
0.2922749 0.3268657 1.5015661
0.3575411 0.3501157 2.0504432
0.4482727 0.3824375 2.8134813
0.1177713 0.2647015 0.0340194
0.1179441 0.2647630 0.0354725
0.1184154 0.2649309 0.0394362
0.1192586 0.2652313 0.0465270
0.1205293 0.2656839 0.0572140
0.1222742 0.2663055 0.0718877
0.1245335 0.2671104 0.0908881
0.1489945 0.3477616 0.1633527
0.1533165 0.3493012 0.1996995
0.1586075 0.3511861 0.2441959
0.1658576 0.3537689 0.3051687
0.1758491 0.3573281 0.3891949
0.1896483 0.3622439 0.5052440
0.2087410 0.3690454 0.6658107
0.2351967 0.3784699 0.8882991
0.2718981 0.3915441 1.1969516
0.3228605 0.4096987 1.6255366
0.3936765 0.4349259 2.2210877
0.4921373 0.4700010 3.0491269
0.1341411 0.3424703 0.0384378
0.1343794 0.3425552 0.0404419
0.1349370 0.3427538 0.0451310
0.1358814 0.3430903 0.0530733
0.1372656 0.3435834 0.0647145
0.1391344 0.3442491 0.0804308
0.1415270 0.3451014 0.1005519
0.1444786 0.3461529 0.1253742
0.1480213 0.3474149 0.1551681
0.1521850 0.3488982 0.1901839
0.1571401 0.3506634 0.2318559
0.1638388 0.3530497 0.2881906
0.1730646 0.3563362 0.3657781
0.1858000 0.3608730 0.4728809
0.2034135 0.3671476 0.6210076
0.2278114 0.3758389 0.8261897
0.2616489 0.3878931 1.1107577
0.3086245 0.4046274 1.5058143
0.3738906 0.4278774 2.0546916
0.4646223 0.4601992 2.8177299
0.1341209 0.3424631 0.0382678
0.1342937 0.3425247 0.0397209
0.1347650 0.3426926 0.0436846
0.1356081 0.3429930 0.0507754
0.1368789 0.3434456 0.0614624
0.1386237 0.3440672 0.0761361
0.1408830 0.3448721 0.0951366
0.1716492 0.4555116 0.1692395
0.1759712 0.4570512 0.2055863
0.1812621 0.4589361 0.2500827
0.1885123 0.4615188 0.3110555
0.1985037 0.4650781 0.3950817
0.2123030 0.4699939 0.5111308
0.2313957 0.4767954 0.6716975
0.2578514 0.4862198 0.8941860
0.2945528 0.4992941 1.2028384
0.3455151 0.5174487 1.6314234
0.4163312 0.5426758 2.2269745
0.5147920 0.5777510 3.0550134
0.1567958 0.4502203 0.0443247
0.1570341 0.4503052 0.0463288
0.1575917 0.4505038 0.0510178
0.1585361 0.4508403 0.0589601
0.1599203 0.4513333 0.0706013
0.1617891 0.4519991 0.0863176
0.1641817 0.4528514 0.1064387
0.1671332 0.4539028 0.1312610
0.1706760 0.4551649 0.1610550
0.1748397 0.4566482 0.1960707
0.1797948 0.4584134 0.2377427
0.1864935 0.4607997 0.2940774
0.1957193 0.4640862 0.3716649
0.2084547 0.4686230 0.4787678
0.2260682 0.4748975 0.6268944
0.2504661 0.4835889 0.8320765
0.2843036 0.4956430 1.1166445
0.3312792 0.5123773 1.5117012
0.3965453 0.5356274 2.0605786
0.4872770 0.5679491 2.8236167
0.1567756 0.4502131 0.0441546
0.1569483 0.4502747 0.0456078
0.1574197 0.4504426 0.0495715
0.1582628 0.4507429 0.0566623
0.1595336 0.4511956 0.0673492
0.1612784 0.4518172 0.0820230
0.1635377 0.4526220 0.1010234
0.2030775 0.6049904 0.1774062
0.2073994 0.6065301 0.2137530
0.2126904 0.6084149 0.2582494
0.2199406 0.6109976 0.3192222
0.2299320 0.6145570 0.4032484
0.2437312 0.6194727 0.5192975
0.2628240 0.6262742 0.6798642
0.2892797 0.6356987 0.9023526
0.3259811 0.6487730 1.2110051
0.3769434 0.6669275 1.6395900
0.4477595 0.6921546 2.2351413
0.5462204 0.7272298 3.0631804
0.1882241 0.5996991 0.0524913
0.1884624 0.5997841 0.0544954
0.1890199 0.5999827 0.0591845
0.1899643 0.6003191 0.0671268
0.1913486 0.6008122 0.0787680
0.1932174 0.6014779 0.0944843
0.1956100 0.6023302 0.1146054
0.1985615 0.6033817 0.1394277
0.2021043 0.6046438 0.1692216
0.2062680 0.6061270 0.2042373
0.2112231 0.6078922 0.2459093
0.2179218 0.6102785 0.3022441
0.2271476 0.6135650 0.3798316
0.2398830 0.6181018 0.4869344
0.2574965 0.6243764 0.6350611
0.2818944 0.6330677 0.8402432
0.3157319 0.6451219 1.1248112
0.3627075 0.6618562 1.5198678
0.4279736 0.6851062 2.0687451
0.5187053 0.7174280 2.8317833
0.1882039 0.5996920 0.0523213
0.1883767 0.5997535 0.0537744
0.1888480 0.5999214 0.0577381
0.1896911 0.6002218 0.0648289
0.1909619 0.6006745 0.0755159
0.1927067 0.6012960 0.0901897
0.1949660 0.6021008 0.1091900
0.2467178 0.8125519 0.1887461
0.2510397 0.8140916 0.2250929
0.2563307 0.8159764 0.2695893
0.2635809 0.8185592 0.3305622
0.2735723 0.8221185 0.4145884
0.2873715 0.8270342 0.5306374
0.3064643 0.8338357 0.6912042
0.3329200 0.8432602 0.9136925
0.3696214 0.8563344 1.2223450
0.4205837 0.8744890 1.6509300
0.4913998 0.8997161 2.2464812
0.5898606 0.9347913 3.0745201
0.2318644 0.8072606 0.0638313
0.2321027 0.8073456 0.0658354
0.2326602 0.8075442 0.0705245
0.2336046 0.8078806 0.0784668
0.2349889 0.8083737 0.0901080
0.2368577 0.8090394 0.1058242
0.2392503 0.8098917 0.1259454
0.2422018 0.8109432 0.1507677
0.2457446 0.8122053 0.1805616
0.2499082 0.8136885 0.2155773
0.2548634 0.8154537 0.2572493
0.2615621 0.8178400 0.3135840
0.2707879 0.8211265 0.3911716
0.2835233 0.8256633 0.4982744
0.3011368 0.8319379 0.6464010
0.3255347 0.8406292 0.8515831
0.3593722 0.8526833 1.1361511
0.4063478 0.8694177 1.5312079
0.4716139 0.8926678 2.0800853
0.5623456 0.9249895 2.8431234
0.2318442 0.8072535 0.0636613
0.2320169 0.8073150 0.0651144
0.2324883 0.8074829 0.0690781
0.2333314 0.8077832 0.0761689
0.2346022 0.8082359 0.0868559
0.2363470 0.8088575 0.1015296
0.2386063 0.8096623 0.1205300
0.3073593 1.1009744 0.2045039
0.3116813 1.1025140 0.2408507
0.3169722 1.1043988 0.2853471
0.3242224 1.1069816 0.3463199
0.3342139 1.1105409 0.4303461
0.3480131 1.1154567 0.5463952
0.3671058 1.1222582 0.7069619
0.3935615 1.1316826 0.9294503
0.4302629 1.1447570 1.2381028
0.4812253 1.1629115 1.6666878
0.5520413 1.1881386 2.2622390
0.6505021 1.2232138 3.0902781
0.2925059 1.0956831 0.0795890
0.2927442 1.0957680 0.0815931
0.2933018 1.0959666 0.0862822
0.2942462 1.0963030 0.0942245
0.2956304 1.0967962 0.1058657
0.2974992 1.0974618 0.1215820
0.2998918 1.0983143 0.1417031
0.3028433 1.0993657 0.1665254
0.3063861 1.1006278 0.1963193
0.3105497 1.1021110 0.2313351
0.3155049 1.1038761 0.2730070
0.3222035 1.1062624 0.3293418
0.3314294 1.1095490 0.4069293
0.3441648 1.1140858 0.5140321
0.3617783 1.1203603 0.6621587
0.3861762 1.1290518 0.8673408
0.4200137 1.1411058 1.1519088
0.4669893 1.1578401 1.5469656
0.5322554 1.1810901 2.0958428
0.6229871 1.2134119 2.8588812
0.2924857 1.0956758 0.0794190
0.2926584 1.0957375 0.0808721
0.2931297 1.0959053 0.0848358
0.2939729 1.0962057 0.0919266
0.2952437 1.0966583 0.1026136
0.2969885 1.0972799 0.1172874
0.2992478 1.0980848 0.1362877
0.3916737 1.5019896 0.2264130
0.3959956 1.5035292 0.2627598
0.4012866 1.5054141 0.3072562
0.4085368 1.5079968 0.3682291
0.4185282 1.5115560 0.4522552
0.4323274 1.5164719 0.5683044
0.4514202 1.5232733 0.7288710
0.4778759 1.5326978 0.9513595
0.5145773 1.5457722 1.2600119
0.5655397 1.5639267 1.6885968
0.6363557 1.5891538 2.2841482
0.7348166 1.6242290 3.1121874
0.3768203 1.4966984 0.1014982
0.3770586 1.4967833 0.1035023
0.3776161 1.4969819 0.1081914
0.3785606 1.4973183 0.1161337
0.3799448 1.4978114 0.1277748
0.3818136 1.4984771 0.1434911
0.3842062 1.4993294 0.1636123
0.3871577 1.5003809 0.1884345
0.3907005 1.5016429 0.2182285
0.3948641 1.5031261 0.2532442
0.3998193 1.5048914 0.2949162
0.4065180 1.5072776 0.3512509
0.4157438 1.5105642 0.4288385
0.4284792 1.5151010 0.5359412
0.4460927 1.5213755 0.6840680
0.4704906 1.5300670 0.8892500
0.5043281 1.5421209 1.1738180
0.5513037 1.5588554 1.5688747
0.6165698 1.5821054 2.1177518
0.7073015 1.6144272 2.8807905
0.3768001 1.4966911 0.1013282
0.3769729 1.4967527 0.1027813
0.3774441 1.4969206 0.1067450
0.3782873 1.4972210 0.1138358
0.3795581 1.4976736 0.1245228
0.3813029 1.4982952 0.1391965
0.3835622 1.4991000 0.1581969
0.0851128 0.0439281 0.1467529
0.0894347 0.0454677 0.1830997
0.0947257 0.0473526 0.2275962
0.1019759 0.0499353 0.2885690
0.1119673 0.0534946 0.3725952
0.1257665 0.0584104 0.4886443
0.1448593 0.0652119 0.6492110
0.1713150 0.0746363 0.8716993
0.2080164 0.0877106 1.1803519
0.2589788 0.1058652 1.6089369
0.3297948 0.1310923 2.2044880
0.4282556 0.1661675 3.0325270
0.0702594 0.0386368 0.0218381
0.0704977 0.0387217 0.0238422
0.0710552 0.0389203 0.0285313
0.0719997 0.0392568 0.0364736
0.0733839 0.0397499 0.0481148
0.0752527 0.0404156 0.0638310
0.0776452 0.0412679 0.0839522
0.0805968 0.0423194 0.1087745
0.0841396 0.0435814 0.1385684
0.0883032 0.0450647 0.1735841
0.0932584 0.0468299 0.2152561
0.0999571 0.0492162 0.2715909
0.1091829 0.0525027 0.3491784
0.1219183 0.0570395 0.4562812
0.1395318 0.0633141 0.6044079
0.1639297 0.0720054 0.8095899
0.1977672 0.0840595 1.0941579
0.2447428 0.1007939 1.4892147
0.3100089 0.1240439 2.0380921
0.4007406 0.1563657 2.8011303
0.0702391 0.0386296 0.0216681
0.0704119 0.0386912 0.0231212
0.0708833 0.0388591 0.0270849
0.0717264 0.0391594 0.0341757
0.0729972 0.0396121 0.0448627
0.0747420 0.0402337 0.0595364
0.0770013 0.0410385 0.0785368
0.0853168 0.0448987 0.1468060
0.0896388 0.0464383 0.1831528
0.0949298 0.0483231 0.2276492
0.1021800 0.0509059 0.2886220
0.1121714 0.0544652 0.3726482
0.1259706 0.0593810 0.4886973
0.1450633 0.0661824 0.6492640
0.1715191 0.0756069 0.8717524
0.2082205 0.0886812 1.1804050
0.2591828 0.1068358 1.6089898
0.3299989 0.1320629 2.2045412
0.4284597 0.1671381 3.0325801
0.0704634 0.0396074 0.0218912
0.0707017 0.0396923 0.0238952
0.0712593 0.0398909 0.0285843
0.0722037 0.0402273 0.0365266
0.0735879 0.0407204 0.0481678
0.0754567 0.0413862 0.0638841
0.0778493 0.0422385 0.0840052
0.0808009 0.0432899 0.1088275
0.0843436 0.0445520 0.1386214
0.0885073 0.0460352 0.1736372
0.0934625 0.0478004 0.2153092
0.1001611 0.0501867 0.2716439
0.1093869 0.0534733 0.3492314
0.1221224 0.0580101 0.4563342
0.1397359 0.0642846 0.6044609
0.1641338 0.0729760 0.8096430
0.1979713 0.0850301 1.0942110
0.2449468 0.1017644 1.4892676
0.3102129 0.1250145 2.0381451
0.4009446 0.1573362 2.8011835
0.0704432 0.0396002 0.0217211
0.0706160 0.0396617 0.0231743
0.0710873 0.0398296 0.0271379
0.0719305 0.0401300 0.0342287
0.0732012 0.0405827 0.0449157
0.0749461 0.0412042 0.0595895
0.0772054 0.0420091 0.0785899
0.0857943 0.0471696 0.1469300
0.0901163 0.0487092 0.1832768
0.0954072 0.0505940 0.2277733
0.1026574 0.0531768 0.2887461
0.1126489 0.0567361 0.3727723
0.1264481 0.0616519 0.4888214
0.1455408 0.0684533 0.6493881
0.1719965 0.0778778 0.8718765
0.2086979 0.0909521 1.1805290
0.2596603 0.1091067 1.6091139
0.3304763 0.1343338 2.2046652
0.4289371 0.1694089 3.0327041
0.0709409 0.0418783 0.0220152
0.0711792 0.0419632 0.0240193
0.0717368 0.0421618 0.0287084
0.0726812 0.0424982 0.0366507
0.0740654 0.0429913 0.0482919
0.0759342 0.0436571 0.0640081
0.0783268 0.0445094 0.0841293
0.0812784 0.0455608 0.1089516
0.0848211 0.0468229 0.1387455
0.0889848 0.0483061 0.1737612
0.0939399 0.0500713 0.2154332
0.1006386 0.0524576 0.2717679
0.1098644 0.0557442 0.3493555
0.1225998 0.0602810 0.4564583
0.1402133 0.0665555 0.6045850
0.1646112 0.0752469 0.8097671
0.1984487 0.0873010 1.0943350
0.2454243 0.1040353 1.4893918
0.3106904 0.1272854 2.0382690
0.4014221 0.1596071 2.8013072
0.0709207 0.0418711 0.0218452
0.0710935 0.0419326 0.0232983
0.0715648 0.0421005 0.0272620
0.0724079 0.0424009 0.0343528
0.0736787 0.0428536 0.0450398
0.0754235 0.0434752 0.0597135
0.0776828 0.0442800 0.0787139
0.0866030 0.0510160 0.1471402
0.0909250 0.0525556 0.1834870
0.0962160 0.0544405 0.2279834
0.1034662 0.0570232 0.2889562
0.1134576 0.0605825 0.3729824
0.1272568 0.0654983 0.4890315
0.1463495 0.0722998 0.6495982
0.1728052 0.0817242 0.8720866
0.2095066 0.0947985 1.1807392
0.2604690 0.1129531 1.6093240
0.3312850 0.1381802 2.2048752
0.4297459 0.1732554 3.0329144
0.0717496 0.0457247 0.0222254
0.0719879 0.0458096 0.0242294
0.0725455 0.0460082 0.0289185
0.0734899 0.0463446 0.0368608
0.0748741 0.0468378 0.0485020
0.0767429 0.0475035 0.0642183
0.0791355 0.0483558 0.0843394
0.0820871 0.0494073 0.1091617
0.0856298 0.0506693 0.1389557
0.0897935 0.0521525 0.1739714
0.0947486 0.0539177 0.2156434
0.1014473 0.0563040 0.2719781
0.1106731 0.0595906 0.3495657
0.1234085 0.0641274 0.4566684
0.1410221 0.0704019 0.6047952
0.1654199 0.0790933 0.8099772
0.1992574 0.0911474 1.0945451
0.2462330 0.1078817 1.4896019
0.3114991 0.1311318 2.0384791
0.4022308 0.1634535 2.8015175
0.0717294 0.0457175 0.0220553
0.0719022 0.0457790 0.0235085
0.0723735 0.0459469 0.0274721
0.0732166 0.0462473 0.0345629
0.0744874 0.0467000 0.0452499
0.0762323 0.0473216 0.0599237
0.0784916 0.0481264 0.0789241
0.0877884 0.0566538 0.1474482
0.0921103 0.0581934 0.1837950
0.0974013 0.0600782 0.2282914
0.1046515 0.0626610 0.2892642
0.1146429 0.0662203 0.3732904
0.1284421 0.0711360 0.4893395
0.1475349 0.0779375 0.6499063
0.1739906 0.0873620 0.8723946
0.2106920 0.1004363 1.1810471
0.2616543 0.1185908 1.6096321
0.3324704 0.1438180 2.2051833
0.4309312 0.1788931 3.0332222
0.0729350 0.0513625 0.0225334
0.0731733 0.0514474 0.0245375
0.0737308 0.0516460 0.0292266
0.0746752 0.0519824 0.0371688
0.0760595 0.0524755 0.0488101
0.0779283 0.0531413 0.0645263
0.0803209 0.0539936 0.0846474
0.0832724 0.0550450 0.1094697
0.0868152 0.0563071 0.1392637
0.0909788 0.0577903 0.1742794
0.0959340 0.0595555 0.2159514
0.1026327 0.0619418 0.2722861
0.1118585 0.0652284 0.3498737
0.1245939 0.0697652 0.4569765
0.1422074 0.0760397 0.6051031
0.1666053 0.0847311 0.8102852
0.2004428 0.0967852 1.0948532
0.2474184 0.1135195 1.4899100
0.3126845 0.1367696 2.0387874
0.4034162 0.1690913 2.8018255
0.0729147 0.0513553 0.0223634
0.0730875 0.0514168 0.0238165
0.0735588 0.0515847 0.0277802
0.0744020 0.0518851 0.0348710
0.0756728 0.0523378 0.0455579
0.0774176 0.0529593 0.0602317
0.0796769 0.0537642 0.0792321
0.0893887 0.0642651 0.1478640
0.0937106 0.0658047 0.1842109
0.0990016 0.0676895 0.2287073
0.1062518 0.0702723 0.2896801
0.1162432 0.0738316 0.3737063
0.1300424 0.0787473 0.4897553
0.1491352 0.0855488 0.6503221
0.1755909 0.0949733 0.8728105
0.2122923 0.1080476 1.1814630
0.2632546 0.1262021 1.6100478
0.3340707 0.1514293 2.2055991
0.4325315 0.1865044 3.0336382
0.0745353 0.0589738 0.0229492
0.0747736 0.0590587 0.0249533
0.0753311 0.0592573 0.0296424
0.0762755 0.0595937 0.0375847
0.0776598 0.0600868 0.0492259
0.0795286 0.0607526 0.0649421
0.0819211 0.0616049 0.0850633
0.0848727 0.0626563 0.1098856
0.0884155 0.0639184 0.1396795
0.0925791 0.0654016 0.1746953
0.0975343 0.0671668 0.2163672
0.1042330 0.0695531 0.2727019
0.1134588 0.0728397 0.3502895
0.1261942 0.0773765 0.4573923
0.1438077 0.0836510 0.6055190
0.1682056 0.0923424 0.8107011
0.2020431 0.1043965 1.0952691
0.2490187 0.1211308 1.4903258
0.3142848 0.1443809 2.0392029
0.4050165 0.1767026 2.8022413
0.0745150 0.0589666 0.0227792
0.0746878 0.0590281 0.0242323
0.0751591 0.0591960 0.0281960
0.0760023 0.0594964 0.0352868
0.0772731 0.0599491 0.0459738
0.0790179 0.0605706 0.0606475
0.0812772 0.0613755 0.0796479
0.0914375 0.0740096 0.1483964
0.0957594 0.0755493 0.1847432
0.1010504 0.0774341 0.2292396
0.1083006 0.0800169 0.2902125
0.1182920 0.0835762 0.3742386
0.1320913 0.0884919 0.4902877
0.1511840 0.0952934 0.6508545
0.1776397 0.1047179 0.8733429
0.2143411 0.1177922 1.1819954
0.2653034 0.1359467 1.6105803
0.3361195 0.1611739 2.2061315
0.4345803 0.1962490 3.0341704
0.0765841 0.0687183 0.0234816
0.0768224 0.0688032 0.0254857
0.0773799 0.0690019 0.0301748
0.0783244 0.0693383 0.0381171
0.0797086 0.0698314 0.0497583
0.0815774 0.0704971 0.0654745
0.0839700 0.0713494 0.0855957
0.0869215 0.0724009 0.1104180
0.0904643 0.0736630 0.1402119
0.0946280 0.0751462 0.1752276
0.0995831 0.0769114 0.2168996
0.1062818 0.0792977 0.2732343
0.1155076 0.0825842 0.3508219
0.1282430 0.0871210 0.4579247
0.1458565 0.0933956 0.6060513
0.1702544 0.1020870 0.8112335
0.2040919 0.1141411 1.0958015
0.2510675 0.1308754 1.4908582
0.3163336 0.1541254 2.0397356
0.4070653 0.1864472 2.8027737
0.0765639 0.0687111 0.0233116
0.0767366 0.0687727 0.0247647
0.0772080 0.0689406 0.0287284
0.0780511 0.0692410 0.0358192
0.0793219 0.0696936 0.0465062
0.0810667 0.0703152 0.0611799
0.0833260 0.0711201 0.0801803
0.0939650 0.0860309 0.1490532
0.0982869 0.0875706 0.1854000
0.1035779 0.0894554 0.2298964
0.1108281 0.0920382 0.2908693
0.1208196 0.0955975 0.3748954
0.1346188 0.1005132 0.4909445
0.1537115 0.1073147 0.6515113
0.1801672 0.1167392 0.8739997
0.2168686 0.1298135 1.1826521
0.2678309 0.1479680 1.6112370
0.3386470 0.1731952 2.2067883
0.4371078 0.2082703 3.0348272
0.0791116 0.0807396 0.0241384
0.0793499 0.0808245 0.0261425
0.0799075 0.0810232 0.0308316
0.0808519 0.0813596 0.0387738
0.0822361 0.0818527 0.0504150
0.0841049 0.0825184 0.0661313
0.0864975 0.0833708 0.0862524
0.0894491 0.0844222 0.1110747
0.0929918 0.0856843 0.1408687
0.0971555 0.0871675 0.1758844
0.1021106 0.0889327 0.2175564
0.1088093 0.0913190 0.2738911
0.1180351 0.0946056 0.3514786
0.1307705 0.0991424 0.4585815
0.1483840 0.1054169 0.6067081
0.1727819 0.1141083 0.8118902
0.2066194 0.1261624 1.0964582
0.2535950 0.1428967 1.4915149
0.3188611 0.1661467 2.0403922
0.4095928 0.1984685 2.8034306
0.0790914 0.0807324 0.0239684
0.0792642 0.0807940 0.0254215
0.0797355 0.0809619 0.0293852
0.0805786 0.0812623 0.0364760
0.0818494 0.0817150 0.0471629
0.0835942 0.0823365 0.0618367
0.0858535 0.0831414 0.0808371
0.0969988 0.1004600 0.1498415
0.1013207 0.1019996 0.1861883
0.1066117 0.1038845 0.2306847
0.1138619 0.1064672 0.2916576
0.1238533 0.1100265 0.3756838
0.1376525 0.1149423 0.4917328
0.1567452 0.1217438 0.6522996
0.1832010 0.1311682 0.8747880
0.2199024 0.1442425 1.1834404
0.2708647 0.1623971 1.6120254
0.3416807 0.1876242 2.2075765
0.4401416 0.2226994 3.0356157
