graphics/cube/RGBWProjectorSpectral_595.cube
TITLE "QA_RGBWProjectorSpectral_595"
# Copyright (c) 2026 @xsscx David H Hoyt LLC
# https://xss.cx
# Profiles applied (by profile description):
# - RGBW Projector Spectral Emission (Rec709-like gamma)
LUT_3D_SIZE 4
LUT_3D_INPUT_RANGE 0.09770 0.93840
0.01304 0.01266 0.01228
0.02477 0.01492 0.07727
0.04920 0.01964 0.21266
0.08776 0.02708 0.42633
0.02805 0.05576 0.01389
0.03978 0.05803 0.07888
0.06421 0.06275 0.21428
0.10277 0.07019 0.42794
0.05931 0.14557 0.01725
0.07104 0.14783 0.08225
0.09547 0.15255 0.21764
0.13403 0.15999 0.43130
0.10864 0.28728 0.02256
0.12037 0.28955 0.08755
0.14481 0.29426 0.22295
0.18336 0.30171 0.43661
0.05615 0.03438 0.01229
0.06788 0.03664 0.07729
0.09231 0.04136 0.21268
0.13087 0.04880 0.42634
0.07115 0.07748 0.01391
0.08288 0.07975 0.07890
0.10732 0.08447 0.21430
0.14587 0.09191 0.42796
0.10242 0.16729 0.01727
0.11415 0.16955 0.08226
0.13858 0.17427 0.21766
0.17714 0.18171 0.43132
0.15175 0.30900 0.02258
0.16348 0.31127 0.08757
0.18791 0.31598 0.22297
0.22647 0.32343 0.43663
0.14595 0.07962 0.01233
0.15768 0.08189 0.07732
0.18211 0.08660 0.21272
0.22067 0.09405 0.42638
0.16095 0.12273 0.01394
0.17268 0.12499 0.07894
0.19712 0.12971 0.21433
0.23567 0.13716 0.42799
0.19221 0.21253 0.01731
0.20394 0.21480 0.08230
0.22838 0.21951 0.21769
0.26693 0.22696 0.43136
0.24155 0.35425 0.02261
0.25328 0.35651 0.08761
0.27771 0.36123 0.22300
0.31627 0.36867 0.43666
0.28766 0.15103 0.01239
0.29938 0.15329 0.07738
0.32382 0.15801 0.21277
0.36238 0.16545 0.42643
0.30266 0.19413 0.01400
0.31439 0.19640 0.07899
0.33882 0.20111 0.21439
0.37738 0.20856 0.42805
0.33392 0.28394 0.01736
0.34565 0.28620 0.08236
0.37009 0.29092 0.21775
0.40864 0.29836 0.43141
0.38326 0.42565 0.02267
0.39499 0.42792 0.08766
0.41942 0.43263 0.22306
0.45798 0.44008 0.43672
