graphics/cube/RGBWProjectorSpectral_595.cube
TITLE "QA_RGBWProjectorSpectral_595"
# Copyright (c) 2026 @xsscx David H Hoyt LLC
# https://xss.cx
# Profiles applied (by profile description):
# - RGBW Projector Spectral Emission (Rec709-like gamma)
LUT_3D_SIZE 28
LUT_3D_INPUT_RANGE 0.09770 0.93840
0.01304 0.01266 0.01228
0.01378 0.01280 0.01636
0.01465 0.01297 0.02118
0.01566 0.01316 0.02676
0.01680 0.01338 0.03312
0.01810 0.01363 0.04029
0.01954 0.01391 0.04827
0.02113 0.01422 0.05709
0.02287 0.01455 0.06675
0.02477 0.01492 0.07727
0.02683 0.01532 0.08867
0.02904 0.01575 0.10095
0.03142 0.01621 0.11413
0.03396 0.01670 0.12822
0.03667 0.01722 0.14323
0.03955 0.01777 0.15917
0.04260 0.01836 0.17605
0.04581 0.01898 0.19387
0.04920 0.01964 0.21266
0.05277 0.02033 0.23242
0.05651 0.02105 0.25315
0.06043 0.02181 0.27487
0.06453 0.02260 0.29759
0.06881 0.02342 0.32130
0.07327 0.02428 0.34602
0.07792 0.02518 0.37177
0.08275 0.02611 0.39853
0.08776 0.02708 0.42633
0.01398 0.01536 0.01238
0.01472 0.01550 0.01646
0.01559 0.01567 0.02128
0.01660 0.01587 0.02686
0.01775 0.01609 0.03322
0.01904 0.01634 0.04039
0.02048 0.01662 0.04837
0.02207 0.01692 0.05719
0.02381 0.01726 0.06685
0.02571 0.01763 0.07737
0.02777 0.01802 0.08877
0.02999 0.01845 0.10105
0.03236 0.01891 0.11423
0.03491 0.01940 0.12832
0.03762 0.01992 0.14333
0.04049 0.02048 0.15927
0.04354 0.02107 0.17615
0.04676 0.02169 0.19398
0.05015 0.02234 0.21276
0.05371 0.02303 0.23252
0.05745 0.02375 0.25326
0.06137 0.02451 0.27498
0.06547 0.02530 0.29769
0.06975 0.02613 0.32140
0.07421 0.02699 0.34613
0.07886 0.02789 0.37187
0.08369 0.02882 0.39863
0.08870 0.02979 0.42643
0.01510 0.01856 0.01250
0.01583 0.01870 0.01658
0.01670 0.01887 0.02140
0.01771 0.01906 0.02698
0.01886 0.01929 0.03334
0.02015 0.01953 0.04051
0.02159 0.01981 0.04849
0.02318 0.02012 0.05731
0.02493 0.02046 0.06697
0.02683 0.02082 0.07749
0.02888 0.02122 0.08889
0.03110 0.02165 0.10117
0.03348 0.02211 0.11435
0.03602 0.02260 0.12844
0.03873 0.02312 0.14345
0.04160 0.02368 0.15939
0.04465 0.02426 0.17627
0.04787 0.02489 0.19410
0.05126 0.02554 0.21288
0.05482 0.02623 0.23264
0.05857 0.02695 0.25338
0.06249 0.02771 0.27509
0.06658 0.02850 0.29781
0.07086 0.02933 0.32152
0.07533 0.03019 0.34625
0.07997 0.03108 0.37199
0.08480 0.03202 0.39875
0.08982 0.03298 0.42655
0.01639 0.02226 0.01264
0.01712 0.02240 0.01671
0.01799 0.02257 0.02153
0.01900 0.02277 0.02712
0.02015 0.02299 0.03348
0.02144 0.02324 0.04065
0.02288 0.02352 0.04863
0.02447 0.02382 0.05745
0.02622 0.02416 0.06711
0.02811 0.02453 0.07763
0.03017 0.02492 0.08903
0.03239 0.02535 0.10131
0.03477 0.02581 0.11449
0.03731 0.02630 0.12858
0.04002 0.02682 0.14359
0.04289 0.02738 0.15953
0.04594 0.02797 0.17640
0.04916 0.02859 0.19423
0.05255 0.02924 0.21302
0.05611 0.02993 0.23278
0.05985 0.03065 0.25351
0.06377 0.03141 0.27523
0.06787 0.03220 0.29795
0.07215 0.03303 0.32166
0.07661 0.03389 0.34638
0.08126 0.03479 0.37213
0.08609 0.03572 0.39889
0.09111 0.03669 0.42669
0.01786 0.02648 0.01279
0.01859 0.02663 0.01687
0.01946 0.02679 0.02169
0.02047 0.02699 0.02728
0.02162 0.02721 0.03364
0.02291 0.02746 0.04081
0.02435 0.02774 0.04879
0.02594 0.02804 0.05760
0.02769 0.02838 0.06727
0.02958 0.02875 0.07779
0.03164 0.02915 0.08918
0.03386 0.02957 0.10147
0.03624 0.03003 0.11465
0.03878 0.03052 0.12873
0.04149 0.03105 0.14374
0.04436 0.03160 0.15968
0.04741 0.03219 0.17656
0.05063 0.03281 0.19439
0.05402 0.03347 0.21318
0.05758 0.03415 0.23294
0.06132 0.03488 0.25367
0.06524 0.03563 0.27539
0.06934 0.03642 0.29810
0.07362 0.03725 0.32182
0.07808 0.03811 0.34654
0.08273 0.03901 0.37228
0.08756 0.03994 0.39905
0.09258 0.04091 0.42684
0.01951 0.03124 0.01297
0.02025 0.03138 0.01705
0.02112 0.03155 0.02187
0.02212 0.03174 0.02745
0.02327 0.03196 0.03382
0.02457 0.03221 0.04098
0.02601 0.03249 0.04897
0.02760 0.03280 0.05778
0.02934 0.03313 0.06744
0.03124 0.03350 0.07797
0.03330 0.03390 0.08936
0.03551 0.03433 0.10164
0.03789 0.03478 0.11482
0.04043 0.03528 0.12891
0.04314 0.03580 0.14392
0.04602 0.03635 0.15986
0.04906 0.03694 0.17674
0.05228 0.03756 0.19457
0.05567 0.03822 0.21336
0.05924 0.03891 0.23312
0.06298 0.03963 0.25385
0.06690 0.04039 0.27557
0.07100 0.04118 0.29828
0.07528 0.04200 0.32200
0.07974 0.04286 0.34672
0.08438 0.04376 0.37246
0.08921 0.04469 0.39923
0.09423 0.04566 0.42702
0.02135 0.03653 0.01317
0.02209 0.03667 0.01725
0.02296 0.03684 0.02207
0.02397 0.03704 0.02765
0.02512 0.03726 0.03402
0.02641 0.03751 0.04118
0.02785 0.03778 0.04917
0.02944 0.03809 0.05798
0.03118 0.03843 0.06764
0.03308 0.03879 0.07816
0.03514 0.03919 0.08956
0.03735 0.03962 0.10184
0.03973 0.04008 0.11502
0.04228 0.04057 0.12911
0.04498 0.04109 0.14412
0.04786 0.04165 0.16006
0.05091 0.04224 0.17694
0.05412 0.04286 0.19477
0.05751 0.04351 0.21356
0.06108 0.04420 0.23331
0.06482 0.04492 0.25405
0.06874 0.04568 0.27577
0.07284 0.04647 0.29848
0.07712 0.04730 0.32220
0.08158 0.04816 0.34692
0.08623 0.04906 0.37266
0.09106 0.04999 0.39942
0.09607 0.05096 0.42722
0.02339 0.04238 0.01339
0.02412 0.04252 0.01747
0.02499 0.04269 0.02229
0.02600 0.04288 0.02787
0.02715 0.04310 0.03424
0.02844 0.04335 0.04140
0.02988 0.04363 0.04938
0.03147 0.04394 0.05820
0.03322 0.04427 0.06786
0.03512 0.04464 0.07838
0.03717 0.04504 0.08978
0.03939 0.04547 0.10206
0.04177 0.04593 0.11524
0.04431 0.04642 0.12933
0.04702 0.04694 0.14434
0.04990 0.04749 0.16028
0.05294 0.04808 0.17716
0.05616 0.04870 0.19499
0.05955 0.04936 0.21378
0.06312 0.05005 0.23353
0.06686 0.05077 0.25427
0.07078 0.05153 0.27599
0.07488 0.05232 0.29870
0.07916 0.05314 0.32241
0.08362 0.05401 0.34714
0.08826 0.05490 0.37288
0.09309 0.05583 0.39964
0.09811 0.05680 0.42744
0.02562 0.04879 0.01363
0.02636 0.04893 0.01771
0.02723 0.04910 0.02253
0.02823 0.04929 0.02811
0.02938 0.04951 0.03448
0.03067 0.04976 0.04164
0.03211 0.05004 0.04962
0.03371 0.05035 0.05844
0.03545 0.05068 0.06810
0.03735 0.05105 0.07862
0.03940 0.05145 0.09002
0.04162 0.05187 0.10230
0.04400 0.05233 0.11548
0.04654 0.05282 0.12957
0.04925 0.05335 0.14458
0.05213 0.05390 0.16052
0.05517 0.05449 0.17740
0.05839 0.05511 0.19523
0.06178 0.05577 0.21402
0.06535 0.05646 0.23377
0.06909 0.05718 0.25451
0.07301 0.05793 0.27623
0.07711 0.05873 0.29894
0.08139 0.05955 0.32265
0.08585 0.06041 0.34738
0.09049 0.06131 0.37312
0.09532 0.06224 0.39988
0.10034 0.06321 0.42768
0.02805 0.05576 0.01389
0.02878 0.05591 0.01797
0.02965 0.05607 0.02279
0.03066 0.05627 0.02837
0.03181 0.05649 0.03474
0.03310 0.05674 0.04190
0.03454 0.05702 0.04989
0.03613 0.05733 0.05870
0.03788 0.05766 0.06836
0.03978 0.05803 0.07888
0.04183 0.05843 0.09028
0.04405 0.05885 0.10256
0.04643 0.05931 0.11574
0.04897 0.05980 0.12983
0.05168 0.06033 0.14484
0.05456 0.06088 0.16078
0.05760 0.06147 0.17766
0.06082 0.06209 0.19549
0.06421 0.06275 0.21428
0.06778 0.06343 0.23404
0.07152 0.06416 0.25477
0.07544 0.06491 0.27649
0.07954 0.06570 0.29920
0.08382 0.06653 0.32292
0.08828 0.06739 0.34764
0.09292 0.06829 0.37338
0.09775 0.06922 0.40014
0.10277 0.07019 0.42794
0.03068 0.06332 0.01417
0.03142 0.06347 0.01825
0.03229 0.06363 0.02307
0.03329 0.06383 0.02866
0.03444 0.06405 0.03502
0.03574 0.06430 0.04219
0.03718 0.06458 0.05017
0.03877 0.06488 0.05898
0.04051 0.06522 0.06864
0.04241 0.06559 0.07917
0.04447 0.06598 0.09056
0.04668 0.06641 0.10285
0.04906 0.06687 0.11603
0.05160 0.06736 0.13011
0.05431 0.06789 0.14512
0.05719 0.06844 0.16106
0.06023 0.06903 0.17794
0.06345 0.06965 0.19577
0.06684 0.07030 0.21456
0.07041 0.07099 0.23432
0.07415 0.07172 0.25505
0.07807 0.07247 0.27677
0.08217 0.07326 0.29948
0.08645 0.07409 0.32320
0.09091 0.07495 0.34792
0.09555 0.07585 0.37366
0.10038 0.07678 0.40043
0.10540 0.07775 0.42822
0.03352 0.07147 0.01448
0.03425 0.07161 0.01856
0.03512 0.07178 0.02338
0.03613 0.07197 0.02896
0.03728 0.07220 0.03533
0.03857 0.07245 0.04249
0.04001 0.07272 0.05047
0.04160 0.07303 0.05929
0.04335 0.07337 0.06895
0.04524 0.07373 0.07947
0.04730 0.07413 0.09087
0.04952 0.07456 0.10315
0.05190 0.07502 0.11633
0.05444 0.07551 0.13042
0.05715 0.07603 0.14543
0.06002 0.07659 0.16137
0.06307 0.07718 0.17825
0.06629 0.07780 0.19608
0.06968 0.07845 0.21487
0.07324 0.07914 0.23462
0.07698 0.07986 0.25536
0.08090 0.08062 0.27708
0.08500 0.08141 0.29979
0.08928 0.08224 0.32350
0.09374 0.08310 0.34823
0.09839 0.08399 0.37397
0.10322 0.08493 0.40073
0.10824 0.08590 0.42853
0.03656 0.08021 0.01481
0.03730 0.08035 0.01889
0.03816 0.08052 0.02371
0.03917 0.08072 0.02929
0.04032 0.08094 0.03565
0.04161 0.08119 0.04282
0.04305 0.08147 0.05080
0.04465 0.08177 0.05962
0.04639 0.08211 0.06928
0.04829 0.08248 0.07980
0.05034 0.08287 0.09120
0.05256 0.08330 0.10348
0.05494 0.08376 0.11666
0.05748 0.08425 0.13075
0.06019 0.08477 0.14576
0.06307 0.08533 0.16170
0.06611 0.08592 0.17858
0.06933 0.08654 0.19640
0.07272 0.08719 0.21519
0.07629 0.08788 0.23495
0.08003 0.08860 0.25568
0.08395 0.08936 0.27740
0.08805 0.09015 0.30012
0.09233 0.09098 0.32383
0.09679 0.09184 0.34855
0.10143 0.09274 0.37430
0.10626 0.09367 0.40106
0.11128 0.09464 0.42886
0.03981 0.08956 0.01516
0.04055 0.08970 0.01924
0.04142 0.08987 0.02406
0.04243 0.09006 0.02964
0.04357 0.09028 0.03600
0.04487 0.09053 0.04317
0.04631 0.09081 0.05115
0.04790 0.09112 0.05997
0.04964 0.09145 0.06963
0.05154 0.09182 0.08015
0.05360 0.09222 0.09155
0.05581 0.09265 0.10383
0.05819 0.09310 0.11701
0.06073 0.09360 0.13110
0.06344 0.09412 0.14611
0.06632 0.09467 0.16205
0.06937 0.09526 0.17893
0.07258 0.09588 0.19675
0.07597 0.09654 0.21554
0.07954 0.09723 0.23530
0.08328 0.09795 0.25603
0.08720 0.09871 0.27775
0.09130 0.09950 0.30047
0.09558 0.10032 0.32418
0.10004 0.10118 0.34890
0.10469 0.10208 0.37465
0.10952 0.10301 0.40141
0.11453 0.10398 0.42921
0.04328 0.09951 0.01553
0.04401 0.09965 0.01961
0.04488 0.09982 0.02443
0.04589 0.10002 0.03001
0.04704 0.10024 0.03638
0.04833 0.10049 0.04354
0.04977 0.10077 0.05152
0.05136 0.10107 0.06034
0.05311 0.10141 0.07000
0.05501 0.10178 0.08052
0.05706 0.10217 0.09192
0.05928 0.10260 0.10420
0.06166 0.10306 0.11738
0.06420 0.10355 0.13147
0.06691 0.10407 0.14648
0.06979 0.10463 0.16242
0.07283 0.10522 0.17930
0.07605 0.10584 0.19713
0.07944 0.10649 0.21592
0.08301 0.10718 0.23567
0.08675 0.10790 0.25641
0.09067 0.10866 0.27813
0.09476 0.10945 0.30084
0.09904 0.11028 0.32455
0.10351 0.11114 0.34928
0.10815 0.11204 0.37502
0.11298 0.11297 0.40178
0.11800 0.11394 0.42958
0.04696 0.11008 0.01593
0.04769 0.11023 0.02000
0.04856 0.11039 0.02482
0.04957 0.11059 0.03041
0.05072 0.11081 0.03677
0.05201 0.11106 0.04394
0.05345 0.11134 0.05192
0.05504 0.11164 0.06073
0.05679 0.11198 0.07040
0.05869 0.11235 0.08092
0.06074 0.11274 0.09231
0.06296 0.11317 0.10460
0.06534 0.11363 0.11778
0.06788 0.11412 0.13187
0.07059 0.11465 0.14687
0.07347 0.11520 0.16281
0.07651 0.11579 0.17969
0.07973 0.11641 0.19752
0.08312 0.11706 0.21631
0.08669 0.11775 0.23607
0.09043 0.11848 0.25680
0.09435 0.11923 0.27852
0.09845 0.12002 0.30124
0.10272 0.12085 0.32495
0.10719 0.12171 0.34967
0.11183 0.12261 0.37541
0.11666 0.12354 0.40218
0.12168 0.12451 0.42997
0.05086 0.12128 0.01634
0.05159 0.12142 0.02042
0.05246 0.12159 0.02524
0.05347 0.12178 0.03083
0.05462 0.12201 0.03719
0.05591 0.12225 0.04436
0.05735 0.12253 0.05234
0.05894 0.12284 0.06115
0.06069 0.12318 0.07082
0.06258 0.12354 0.08134
0.06464 0.12394 0.09273
0.06686 0.12437 0.10502
0.06924 0.12483 0.11820
0.07178 0.12532 0.13228
0.07449 0.12584 0.14729
0.07736 0.12640 0.16323
0.08041 0.12698 0.18011
0.08363 0.12761 0.19794
0.08702 0.12826 0.21673
0.09058 0.12895 0.23649
0.09432 0.12967 0.25722
0.09824 0.13043 0.27894
0.10234 0.13122 0.30165
0.10662 0.13205 0.32537
0.11108 0.13291 0.35009
0.11573 0.13380 0.37583
0.12056 0.13474 0.40260
0.12558 0.13570 0.43039
0.05497 0.13310 0.01679
0.05571 0.13325 0.02087
0.05658 0.13341 0.02569
0.05759 0.13361 0.03127
0.05873 0.13383 0.03763
0.06003 0.13408 0.04480
0.06147 0.13436 0.05278
0.06306 0.13467 0.06160
0.06480 0.13500 0.07126
0.06670 0.13537 0.08178
0.06876 0.13577 0.09318
0.07097 0.13619 0.10546
0.07335 0.13665 0.11864
0.07590 0.13714 0.13273
0.07860 0.13767 0.14774
0.08148 0.13822 0.16368
0.08453 0.13881 0.18056
0.08774 0.13943 0.19839
0.09113 0.14009 0.21717
0.09470 0.14077 0.23693
0.09844 0.14150 0.25767
0.10236 0.14225 0.27938
0.10646 0.14305 0.30210
0.11074 0.14387 0.32581
0.11520 0.14473 0.35054
0.11985 0.14563 0.37628
0.12468 0.14656 0.40304
0.12969 0.14753 0.43084
0.05931 0.14557 0.01725
0.06005 0.14571 0.02133
0.06092 0.14588 0.02615
0.06192 0.14607 0.03174
0.06307 0.14629 0.03810
0.06437 0.14654 0.04527
0.06581 0.14682 0.05325
0.06740 0.14713 0.06206
0.06914 0.14746 0.07172
0.07104 0.14783 0.08225
0.07310 0.14823 0.09364
0.07531 0.14866 0.10593
0.07769 0.14912 0.11911
0.08023 0.14961 0.13319
0.08294 0.15013 0.14820
0.08582 0.15068 0.16414
0.08886 0.15127 0.18102
0.09208 0.15189 0.19885
0.09547 0.15255 0.21764
0.09904 0.15324 0.23740
0.10278 0.15396 0.25813
0.10670 0.15472 0.27985
0.11080 0.15551 0.30256
0.11508 0.15633 0.32628
0.11954 0.15719 0.35100
0.12418 0.15809 0.37674
0.12901 0.15902 0.40351
0.13403 0.15999 0.43130
0.06387 0.15867 0.01774
0.06461 0.15881 0.02182
0.06548 0.15898 0.02664
0.06649 0.15918 0.03223
0.06763 0.15940 0.03859
0.06893 0.15965 0.04576
0.07037 0.15993 0.05374
0.07196 0.16023 0.06255
0.07370 0.16057 0.07222
0.07560 0.16094 0.08274
0.07766 0.16133 0.09413
0.07987 0.16176 0.10642
0.08225 0.16222 0.11960
0.08480 0.16271 0.13369
0.08750 0.16323 0.14869
0.09038 0.16379 0.16463
0.09343 0.16438 0.18151
0.09664 0.16500 0.19934
0.10003 0.16565 0.21813
0.10360 0.16634 0.23789
0.10734 0.16706 0.25862
0.11126 0.16782 0.28034
0.11536 0.16861 0.30306
0.11964 0.16944 0.32677
0.12410 0.17030 0.35149
0.12875 0.17120 0.37723
0.13358 0.17213 0.40400
0.13859 0.17310 0.43179
0.06866 0.17242 0.01826
0.06940 0.17257 0.02234
0.07027 0.17273 0.02716
0.07127 0.17293 0.03274
0.07242 0.17315 0.03911
0.07371 0.17340 0.04627
0.07516 0.17368 0.05425
0.07675 0.17398 0.06307
0.07849 0.17432 0.07273
0.08039 0.17469 0.08325
0.08245 0.17508 0.09465
0.08466 0.17551 0.10693
0.08704 0.17597 0.12011
0.08958 0.17646 0.13420
0.09229 0.17699 0.14921
0.09517 0.17754 0.16515
0.09821 0.17813 0.18203
0.10143 0.17875 0.19986
0.10482 0.17940 0.21865
0.10839 0.18009 0.23840
0.11213 0.18082 0.25914
0.11605 0.18157 0.28086
0.12015 0.18236 0.30357
0.12443 0.18319 0.32728
0.12889 0.18405 0.35201
0.13353 0.18495 0.37775
0.13836 0.18588 0.40451
0.14338 0.18685 0.43231
0.07367 0.18683 0.01880
0.07441 0.18697 0.02288
0.07528 0.18714 0.02770
0.07629 0.18733 0.03328
0.07744 0.18756 0.03965
0.07873 0.18780 0.04681
0.08017 0.18808 0.05479
0.08176 0.18839 0.06361
0.08350 0.18873 0.07327
0.08540 0.18909 0.08379
0.08746 0.18949 0.09519
0.08968 0.18992 0.10747
0.09205 0.19038 0.12065
0.09460 0.19087 0.13474
0.09731 0.19139 0.14975
0.10018 0.19195 0.16569
0.10323 0.19253 0.18257
0.10645 0.19316 0.20040
0.10984 0.19381 0.21919
0.11340 0.19450 0.23894
0.11714 0.19522 0.25968
0.12106 0.19598 0.28140
0.12516 0.19677 0.30411
0.12944 0.19760 0.32782
0.13390 0.19846 0.35255
0.13855 0.19935 0.37829
0.14338 0.20029 0.40505
0.14839 0.20125 0.43285
0.07892 0.20189 0.01936
0.07966 0.20204 0.02344
0.08052 0.20220 0.02826
0.08153 0.20240 0.03385
0.08268 0.20262 0.04021
0.08397 0.20287 0.04738
0.08541 0.20315 0.05536
0.08701 0.20345 0.06417
0.08875 0.20379 0.07383
0.09065 0.20416 0.08436
0.09270 0.20456 0.09575
0.09492 0.20498 0.10803
0.09730 0.20544 0.12121
0.09984 0.20593 0.13530
0.10255 0.20646 0.15031
0.10543 0.20701 0.16625
0.10847 0.20760 0.18313
0.11169 0.20822 0.20096
0.11508 0.20888 0.21975
0.11865 0.20956 0.23951
0.12239 0.21029 0.26024
0.12631 0.21104 0.28196
0.13041 0.21183 0.30467
0.13469 0.21266 0.32839
0.13915 0.21352 0.35311
0.14379 0.21442 0.37885
0.14862 0.21535 0.40562
0.15364 0.21632 0.43341
0.08439 0.21762 0.01995
0.08513 0.21776 0.02403
0.08600 0.21793 0.02885
0.08701 0.21813 0.03443
0.08816 0.21835 0.04080
0.08945 0.21860 0.04796
0.09089 0.21888 0.05595
0.09248 0.21918 0.06476
0.09422 0.21952 0.07442
0.09612 0.21989 0.08495
0.09818 0.22028 0.09634
0.10040 0.22071 0.10862
0.10277 0.22117 0.12180
0.10532 0.22166 0.13589
0.10803 0.22218 0.15090
0.11090 0.22274 0.16684
0.11395 0.22333 0.18372
0.11717 0.22395 0.20155
0.12056 0.22460 0.22034
0.12412 0.22529 0.24010
0.12786 0.22601 0.26083
0.13178 0.22677 0.28255
0.13588 0.22756 0.30526
0.14016 0.22839 0.32898
0.14462 0.22925 0.35370
0.14927 0.23015 0.37944
0.15410 0.23108 0.40621
0.15911 0.23205 0.43400
0.09010 0.23402 0.02057
0.09084 0.23416 0.02465
0.09171 0.23433 0.02947
0.09272 0.23453 0.03505
0.09387 0.23475 0.04141
0.09516 0.23500 0.04858
0.09660 0.23528 0.05656
0.09819 0.23558 0.06538
0.09993 0.23592 0.07504
0.10183 0.23629 0.08556
0.10389 0.23668 0.09696
0.10610 0.23711 0.10924
0.10848 0.23757 0.12242
0.11103 0.23806 0.13651
0.11373 0.23858 0.15152
0.11661 0.23914 0.16746
0.11966 0.23973 0.18434
0.12287 0.24035 0.20216
0.12627 0.24100 0.22095
0.12983 0.24169 0.24071
0.13357 0.24241 0.26144
0.13749 0.24317 0.28316
0.14159 0.24396 0.30588
0.14587 0.24479 0.32959
0.15033 0.24565 0.35432
0.15498 0.24655 0.38006
0.15981 0.24748 0.40682
0.16482 0.24845 0.43462
0.09605 0.25109 0.02121
0.09678 0.25124 0.02528
0.09765 0.25140 0.03010
0.09866 0.25160 0.03569
0.09981 0.25182 0.04205
0.10110 0.25207 0.04922
0.10254 0.25235 0.05720
0.10413 0.25266 0.06602
0.10588 0.25299 0.07568
0.10778 0.25336 0.08620
0.10983 0.25376 0.09760
0.11205 0.25418 0.10988
0.11443 0.25464 0.12306
0.11697 0.25513 0.13715
0.11968 0.25566 0.15216
0.12255 0.25621 0.16810
0.12560 0.25680 0.18497
0.12882 0.25742 0.20280
0.13221 0.25808 0.22159
0.13577 0.25876 0.24135
0.13952 0.25949 0.26208
0.14344 0.26024 0.28380
0.14753 0.26103 0.30652
0.15181 0.26186 0.33023
0.15627 0.26272 0.35495
0.16092 0.26362 0.38070
0.16575 0.26455 0.40746
0.17077 0.26552 0.43526
0.10223 0.26885 0.02187
0.10296 0.26899 0.02595
0.10383 0.26916 0.03077
0.10484 0.26935 0.03635
0.10599 0.26957 0.04272
0.10728 0.26982 0.04988
0.10872 0.27010 0.05787
0.11031 0.27041 0.06668
0.11206 0.27074 0.07634
0.11396 0.27111 0.08686
0.11601 0.27151 0.09826
0.11823 0.27194 0.11054
0.12061 0.27239 0.12372
0.12315 0.27289 0.13781
0.12586 0.27341 0.15282
0.12873 0.27396 0.16876
0.13178 0.27455 0.18564
0.13500 0.27517 0.20347
0.13839 0.27583 0.22226
0.14195 0.27652 0.24202
0.14570 0.27724 0.26275
0.14961 0.27800 0.28447
0.15371 0.27879 0.30718
0.15799 0.27961 0.33090
0.16245 0.28047 0.35562
0.16710 0.28137 0.38136
0.17193 0.28230 0.40812
0.17695 0.28327 0.43592
0.10864 0.28728 0.02256
0.10938 0.28742 0.02664
0.11025 0.28759 0.03146
0.11126 0.28779 0.03704
0.11241 0.28801 0.04341
0.11370 0.28826 0.05057
0.11514 0.28854 0.05856
0.11673 0.28884 0.06737
0.11847 0.28918 0.07703
0.12037 0.28955 0.08755
0.12243 0.28994 0.09895
0.12465 0.29037 0.11123
0.12702 0.29083 0.12441
0.12957 0.29132 0.13850
0.13228 0.29184 0.15351
0.13515 0.29240 0.16945
0.13820 0.29299 0.18633
0.14142 0.29361 0.20416
0.14481 0.29426 0.22295
0.14837 0.29495 0.24271
0.15211 0.29567 0.26344
0.15603 0.29643 0.28516
0.16013 0.29722 0.30787
0.16441 0.29805 0.33159
0.16887 0.29891 0.35631
0.17352 0.29981 0.38205
0.17835 0.30074 0.40882
0.18336 0.30171 0.43661
0.01575 0.01402 0.01228
0.01648 0.01416 0.01636
0.01735 0.01433 0.02118
0.01836 0.01452 0.02676
0.01951 0.01475 0.03312
0.02080 0.01500 0.04029
0.02224 0.01527 0.04827
0.02383 0.01558 0.05709
0.02558 0.01592 0.06675
0.02748 0.01628 0.07727
0.02953 0.01668 0.08867
0.03175 0.01711 0.10095
0.03413 0.01757 0.11413
0.03667 0.01806 0.12822
0.03938 0.01858 0.14323
0.04225 0.01914 0.15917
0.04530 0.01973 0.17605
0.04852 0.02035 0.19388
0.05191 0.02100 0.21266
0.05547 0.02169 0.23242
0.05922 0.02241 0.25316
0.06314 0.02317 0.27487
0.06723 0.02396 0.29759
0.07151 0.02479 0.32130
0.07598 0.02565 0.34603
0.08062 0.02654 0.37177
0.08545 0.02748 0.39853
0.09047 0.02845 0.42633
0.01669 0.01672 0.01238
0.01742 0.01687 0.01646
0.01829 0.01704 0.02128
0.01930 0.01723 0.02686
0.02045 0.01745 0.03323
0.02174 0.01770 0.04039
0.02318 0.01798 0.04837
0.02478 0.01829 0.05719
0.02652 0.01862 0.06685
0.02842 0.01899 0.07737
0.03047 0.01939 0.08877
0.03269 0.01981 0.10105
0.03507 0.02027 0.11423
0.03761 0.02076 0.12832
0.04032 0.02129 0.14333
0.04320 0.02184 0.15927
0.04624 0.02243 0.17615
0.04946 0.02305 0.19398
0.05285 0.02371 0.21277
0.05642 0.02439 0.23252
0.06016 0.02512 0.25326
0.06408 0.02587 0.27498
0.06818 0.02667 0.29769
0.07246 0.02749 0.32140
0.07692 0.02835 0.34613
0.08156 0.02925 0.37187
0.08639 0.03018 0.39863
0.09141 0.03115 0.42643
0.01780 0.01992 0.01250
0.01854 0.02006 0.01658
0.01941 0.02023 0.02140
0.02042 0.02043 0.02698
0.02156 0.02065 0.03335
0.02286 0.02090 0.04051
0.02430 0.02118 0.04849
0.02589 0.02148 0.05731
0.02763 0.02182 0.06697
0.02953 0.02219 0.07749
0.03159 0.02258 0.08889
0.03380 0.02301 0.10117
0.03618 0.02347 0.11435
0.03872 0.02396 0.12844
0.04143 0.02448 0.14345
0.04431 0.02504 0.15939
0.04736 0.02563 0.17627
0.05057 0.02625 0.19410
0.05396 0.02690 0.21289
0.05753 0.02759 0.23264
0.06127 0.02831 0.25338
0.06519 0.02907 0.27510
0.06929 0.02986 0.29781
0.07357 0.03069 0.32152
0.07803 0.03155 0.34625
0.08268 0.03245 0.37199
0.08751 0.03338 0.39875
0.09252 0.03435 0.42655
0.01909 0.02362 0.01264
0.01983 0.02377 0.01672
0.02070 0.02393 0.02154
0.02170 0.02413 0.02712
0.02285 0.02435 0.03348
0.02415 0.02460 0.04065
0.02559 0.02488 0.04863
0.02718 0.02519 0.05745
0.02892 0.02552 0.06711
0.03082 0.02589 0.07763
0.03288 0.02629 0.08903
0.03509 0.02671 0.10131
0.03747 0.02717 0.11449
0.04001 0.02766 0.12858
0.04272 0.02819 0.14359
0.04560 0.02874 0.15953
0.04864 0.02933 0.17641
0.05186 0.02995 0.19424
0.05525 0.03061 0.21302
0.05882 0.03129 0.23278
0.06256 0.03202 0.25352
0.06648 0.03277 0.27523
0.07058 0.03357 0.29795
0.07486 0.03439 0.32166
0.07932 0.03525 0.34639
0.08396 0.03615 0.37213
0.08879 0.03708 0.39889
0.09381 0.03805 0.42669
0.02056 0.02785 0.01280
0.02130 0.02799 0.01687
0.02217 0.02816 0.02169
0.02317 0.02835 0.02728
