graphics/cube/sRGB_D65_colorimetric_59.cube
TITLE "QA_sRGB_D65_colorimetric_59"
# Copyright (c) 2026 @xsscx David H Hoyt LLC
# https://xss.cx
# Profiles applied (by profile description):
# - sRGB D65 colorimetric
LUT_3D_SIZE 9
LUT_3D_INPUT_RANGE 0.087200000882 0.804499983788
0.005533855408 0.005797444377 0.005854379851
0.007170099299 0.006451941561 0.014471930452
0.009993041866 0.007581118960 0.029339430854
0.014170490205 0.009252099320 0.051340665668
0.019843408838 0.011521266773 0.081218034029
0.027135081589 0.014437936246 0.119620859623
0.036156058311 0.018046323210 0.167131304741
0.047007121146 0.022386750206 0.224280253053
0.059781372547 0.027496453375 0.291557997465
0.008776430041 0.012282593176 0.006935238373
0.010412673466 0.012937089428 0.015552788973
0.013235615566 0.014066267759 0.030420290306
0.017413062975 0.015737248585 0.052421525121
0.023085985333 0.018006414175 0.082298897207
0.030377656221 0.020923085511 0.120701722801
0.039398629218 0.024531470612 0.168212160468
0.050249695778 0.028871897608 0.225361108780
0.063023939729 0.033981602639 0.292638838291
0.014370709658 0.023471150547 0.008799998090
0.016006954014 0.024125648662 0.017417546362
0.018829895183 0.025254825130 0.032285053283
0.023007344455 0.026925804093 0.054286282510
0.028680263087 0.029194973409 0.084163650870
0.035971939564 0.032111644745 0.122566476464
0.044992908835 0.035720031708 0.170076921582
0.055843975395 0.040060456842 0.227225869894
0.068618223071 0.045170161873 0.294503599405
0.022649236023 0.040028207004 0.011559508741
0.024285480380 0.040682706982 0.020177057013
0.027108423412 0.041811883450 0.035044562072
0.031285874546 0.043482866138 0.057045798749
0.036958795041 0.045752029866 0.086923159659
0.044250465930 0.048668701202 0.125325992703
0.053271435201 0.052277091891 0.172836437821
0.064122490585 0.056617517024 0.229985371232
0.076896749437 0.061727218330 0.297263085842
0.033891364932 0.062512464821 0.015306883492
0.035527613014 0.063166961074 0.023924432695
0.038350556046 0.064296148717 0.038791935891
0.042528003454 0.065967120230 0.060793168843
0.048200920224 0.068236291409 0.090670540929
0.055492594838 0.071152962744 0.129073366523
0.064513556659 0.074761345983 0.176583811641
0.075364619493 0.079101771116 0.233732759953
0.088138878345 0.084211468697 0.301010459661
0.048341419548 0.091412566602 0.020123565570
0.049977663904 0.092067070305 0.028741113842
0.052800603211 0.093196235597 0.043608617038
0.056978046894 0.094867214561 0.065609849989
0.062650971115 0.097136385739 0.095487214625
0.069942638278 0.100053057075 0.133890062571
0.078963607550 0.103661440313 0.181400507689
0.089814677835 0.108001872897 0.238549441099
0.102588929236 0.113111570477 0.305827140808
0.066218435764 0.127166613936 0.026082573459
0.067854672670 0.127821117640 0.034700125456
0.070677615702 0.128950297832 0.049567624927
0.074855066836 0.130621254444 0.071568854153
0.080527983606 0.132890447974 0.101446233690
0.087819658220 0.135807096958 0.139849051833
0.096840627491 0.139415487647 0.187359496951
0.107691697776 0.143755912781 0.244508430362
0.120465941727 0.148865610361 0.311786144972
0.087722189724 0.170174121857 0.033250495791
0.089358426630 0.170828625560 0.041868042201
0.092181369662 0.171957805753 0.056735541672
0.096358828247 0.173628777266 0.078736774623
0.102031737566 0.175897955894 0.108614146709
0.109323412180 0.178814619780 0.147016972303
0.118344388902 0.182423010468 0.194527402520
0.129195451736 0.186763420701 0.251676350832
0.141969710588 0.191873118281 0.318954080343
0.113037161529 0.220804080367 0.041688814759
0.114673405886 0.221458584070 0.050306368619
0.117496341467 0.222587749362 0.065173864365
0.121673800051 0.224258735776 0.087175101042
0.127346724272 0.226527899504 0.117052473128
0.134638398886 0.229444563389 0.155455306172
0.143659368157 0.233052954078 0.202965751290
0.154510423541 0.237393379211 0.260114699602
0.167284682393 0.242503076792 0.327392399311
0.009272852913 0.007725364529 0.006029645447
0.010909096338 0.008379861712 0.014647196047
0.013732039370 0.009509040043 0.029514698312
0.017909485847 0.011180019006 0.051515933126
0.023582408205 0.013449186459 0.081393294036
0.030874079093 0.016365857795 0.119796119630
0.039895053953 0.019974242896 0.167306572199
0.050746120512 0.024314671755 0.224455520511
0.063520364463 0.029424371198 0.291733235121
0.012515427545 0.014210512862 0.007110503968
0.014151670039 0.014865010977 0.015728054568
0.016974614933 0.015994187444 0.030595555902
0.021152062342 0.017665168270 0.052596788853
0.026824982837 0.019934335724 0.082474164665
0.034116659313 0.022851007059 0.120876982808
0.043137624860 0.026459392160 0.168387442827
0.053988691419 0.030799819157 0.225536376238
0.066762939095 0.035909518600 0.292814105749
0.018109705299 0.025399072096 0.008975263685
0.019745949656 0.026053568348 0.017592813820
0.022568892688 0.027182746679 0.032460317016
0.026746341959 0.028853725642 0.054461553693
0.032419260591 0.031122894958 0.084338910878
0.039710935205 0.034039564431 0.122741736472
0.048731904477 0.037647951394 0.170252189040
0.059582971036 0.041988372803 0.227401137352
0.072357214987 0.047098077834 0.294678866863
0.026388235390 0.041956126690 0.011734773405
0.028024479747 0.042610626668 0.020352324471
0.030847422779 0.043739806861 0.035219825804
0.035024873912 0.045410785824 0.057221058756
0.040697794408 0.047679953277 0.087098427117
0.047989465296 0.050596624613 0.125501260161
0.057010434568 0.054205011576 0.173011705279
0.067861497402 0.058545436710 0.230160638690
0.080635748804 0.063655138016 0.297438353300
0.037630364299 0.064440399408 0.015482149087
0.039266608655 0.065094888210 0.024099696428
0.042089547962 0.066224068403 0.038967199624
0.046266999096 0.067895047367 0.060968436301
0.051939919591 0.070164218545 0.090845808387
0.059231594205 0.073080889881 0.129248633981
0.068252556026 0.076689273119 0.176759079099
0.079103618860 0.081029698253 0.233908027411
0.091877870262 0.086139395833 0.301185756922
0.052080411464 0.093340486288 0.020298829302
0.053716659546 0.093994989991 0.028916381299
0.056539602578 0.095124155283 0.043783884495
0.060717046261 0.096795134246 0.065785109997
0.066389963031 0.099064305425 0.095662489533
0.073681637645 0.101980976760 0.134065315127
0.082702614367 0.105589359999 0.181575760245
0.093553669751 0.109929785132 0.238724693656
0.106327921152 0.115039497614 0.306002408266
0.069957427680 0.129094526172 0.026257839054
0.071593672037 0.129749029875 0.034875385463
0.074416615069 0.130878210068 0.049742896110
0.078594066203 0.132549166679 0.071744129062
0.084266982973 0.134818360209 0.101621493697
0.091558657587 0.137735024095 0.140024319291
0.100579619408 0.141343399882 0.187534764409
0.111430697143 0.145683825016 0.244683697820
0.124204941094 0.150793522596 0.311961442232
0.091461189091 0.172102048993 0.033425763249
0.093097425997 0.172756537795 0.042043305933
0.095920376480 0.173885717988 0.056910812855
0.100097820163 0.175556704402 0.078912042081
0.105770736933 0.177825868130 0.108789414167
0.113062411547 0.180742532015 0.147192239761
0.122083373368 0.184350922704 0.194702684879
0.132934466004 0.188691332936 0.251851648092
0.145708709955 0.193801030517 0.319129347801
0.116776160896 0.222731992602 0.041864082217
0.118412405252 0.223386496305 0.050481636077
0.121235348284 0.224515676498 0.065349124372
0.125412791967 0.226186648011 0.087350368500
0.131085708737 0.228455811739 0.117227740586
0.138377383351 0.231372475624 0.155630573630
0.147398367524 0.234980866313 0.203141003847
0.158249437809 0.239321291447 0.260289937258
0.171023681760 0.244430989027 0.327567666769
0.015723591670 0.011051524431 0.006332024001
0.017359834164 0.011706022546 0.014949574135
0.020182777196 0.012835200876 0.029817074537
0.024360224605 0.014506179839 0.051818307489
0.030033145100 0.016775347292 0.081695683300
0.037324819714 0.019692016765 0.120098508894
0.046345792711 0.023300403729 0.167608946562
0.057196855545 0.027640830725 0.224757879972
0.069971092045 0.032750535756 0.292035609484
0.018966162577 0.017536673695 0.007412882056
0.020602408797 0.018191171810 0.016030432656
0.023425351828 0.019320350140 0.030897933990
0.027602799237 0.020991327241 0.052899170667
0.033275719732 0.023260494694 0.082776531577
0.040567394346 0.026177167892 0.121179357171
0.049588363618 0.029785554856 0.168689802289
0.060439430177 0.034125979990 0.225838750601
0.073213681579 0.039235685021 0.293116480112
0.024560444057 0.028725232929 0.009277642705
0.026196688414 0.029379731044 0.017895191908
0.029019631445 0.030508909374 0.032762695104
0.033197082579 0.032179888338 0.054763928056
0.038870003074 0.034449055791 0.084641300142
0.046161673963 0.037365723401 0.123044125736
0.055182643235 0.040974110365 0.170554563403
0.066033698618 0.045314535499 0.227703511715
0.078807957470 0.050424240530 0.294981241226
0.032838974148 0.045282293111 0.012037151493
0.034475218505 0.045936789364 0.020654700696
0.037298161536 0.047065965831 0.035522203892
0.041475612670 0.048736948520 0.057523440570
0.047148529440 0.051006115973 0.087400808930
0.054440204054 0.053922783583 0.125803634524
0.063461169600 0.057531170547 0.173314094543
0.074312232435 0.061871595681 0.230463013053
0.087086483836 0.066981300712 0.297740727663
0.044081103057 0.067766554654 0.015784528106
0.045717347413 0.068421050906 0.024402076378
0.048540290445 0.069550216198 0.039269581437
0.052717741579 0.071221202612 0.061270814389
0.058390658349 0.073490366340 0.091148182750
0.065682336688 0.076407037675 0.129551023245
0.074703298509 0.080015428364 0.177061438560
0.085554361343 0.084355853498 0.234210386872
0.098328612745 0.089465551078 0.301488101482
0.058531150222 0.096666648984 0.020601209253
0.060167394578 0.097321145236 0.029218759388
0.062990337610 0.098450325429 0.044086262584
0.067167788744 0.100121296942 0.066087491810
0.072840698063 0.102390468121 0.095964863896
0.080132372677 0.105307139456 0.134367704391
0.089153341949 0.108915522695 0.181878134608
0.100004412234 0.113255955279 0.239027068019
0.112778656185 0.118365660310 0.306304812431
0.076408170164 0.132420688868 0.026560215279
0.078044414520 0.133075177670 0.035177771002
0.080867357552 0.134204357862 0.050045270473
0.085044801235 0.135875344276 0.072046495974
0.090717725456 0.138144508004 0.101923868060
0.098009400070 0.141061171889 0.140326708555
0.107030369341 0.144669562578 0.187837153673
0.117881432176 0.149009972811 0.244986087084
0.130655705929 0.154119685292 0.312263816595
0.097911924124 0.175428196788 0.033728137612
0.099548168480 0.176082685590 0.042345687747
0.102371111512 0.177211865783 0.057213187218
0.106548562646 0.178882852197 0.079214416444
0.112221479416 0.181152015924 0.109091788530
0.119513154030 0.184068679810 0.147494629025
0.128534123302 0.187677070498 0.195005074143
0.139385208488 0.192017510533 0.252154022455
0.152159452438 0.197127193213 0.319431722164
0.123226903379 0.226058155298 0.042166460305
0.124863140285 0.226712644100 0.050784014165
0.127686083317 0.227841824293 0.065651513636
0.131863534451 0.229512795806 0.087652742863
0.137536451221 0.231781959534 0.117530122399
0.144828125834 0.234698623419 0.155932947993
0.153849095106 0.238307014108 0.203443393111
0.164700180292 0.242647454143 0.260592341423
0.177474424243 0.247757151723 0.327870070934
0.025269523263 0.015973648056 0.006779489573
0.026905765757 0.016628146172 0.015397041105
0.029728710651 0.017757322639 0.030264541507
0.033906158060 0.019428301603 0.052265778184
0.039579082280 0.021697469056 0.082143142819
0.046870753169 0.024614140391 0.120545975864
0.055891726166 0.028222527355 0.168056413531
0.066742792726 0.032562952489 0.225205346942
0.079517036676 0.037672657520 0.292483091354
0.028512097895 0.022458797321 0.007860347629
0.030148340389 0.023113295436 0.016477897763
0.032971285284 0.024242471904 0.031345400959
0.037148736417 0.025913450867 0.053346633911
0.042821656913 0.028182618320 0.083224005997
0.050113327801 0.031099289656 0.121626831591
0.059134297073 0.034707680345 0.169137269258
0.069985359907 0.039048101753 0.226286202669
0.082759611309 0.044157803059 0.293563932180
0.034106377512 0.033647354692 0.009725106880
0.035742621869 0.034301850945 0.018342657015
0.038565564901 0.035431027412 0.033210162073
0.042743012309 0.037102010101 0.055211395025
0.048415932804 0.039371177554 0.085088767111
0.055707603693 0.042287848890 0.123491592705
0.064728572965 0.045896235853 0.171002030373
0.075579643250 0.050236660987 0.228150963783
0.088353887200 0.055346362293 0.295428693295
0.042384907603 0.050204414874 0.012484618463
0.044021151960 0.050858911127 0.021102167666
0.046844094992 0.051988091320 0.035969674587
0.051021542400 0.053659070283 0.057970903814
0.056694462895 0.055928237736 0.087848275900
0.063986130059 0.058844909072 0.126251101494
0.073007106781 0.062453296036 0.173761546612
0.083858162165 0.066793724895 0.230910494924
0.096632413566 0.071903429925 0.298188179731
0.053627040237 0.072688676417 0.016231993213
0.055263280869 0.073343172669 0.024849543348
0.058086223900 0.074472345412 0.039717044681
0.062263675034 0.076143324375 0.061718277633
0.067936584353 0.078412503004 0.091595649719
0.075228258967 0.081329166889 0.129998475313
0.084249228239 0.084937557578 0.177508920431
0.095100298524 0.089277982712 0.234657853842
0.107874542475 0.094387680292 0.301935583353
0.068077072501 0.101588763297 0.021048672497
0.069713324308 0.102243267000 0.029666224495
0.072536267340 0.103372439742 0.044533729553
0.076713711023 0.105043411255 0.066534966230
0.082386635244 0.107312589884 0.096412330866
0.089678309858 0.110229261220 0.134815156460
0.098699271679 0.113837644458 0.182325601578
0.109550341964 0.118178069592 0.239474549890
0.122324593365 0.123287774622 0.306752294302
0.085954099894 0.137342810631 0.027007682249
0.087590351701 0.137997314334 0.035625237972
0.090413279831 0.139126494527 0.050492737442
0.094590738416 0.140797466040 0.072493962944
0.100263655186 0.143066644669 0.102371335030
0.107555329800 0.145983293653 0.140774175525
0.116576299071 0.149591684341 0.188284605742
0.127427369356 0.153932109475 0.245433554053
0.140201613307 0.159041821957 0.312711268663
0.107457853854 0.180350333452 0.034175604582
0.109094105661 0.181004822254 0.042793154716
0.111917041242 0.182134002447 0.057660654187
0.116094492376 0.183804973960 0.079661883414
0.121767409146 0.186074152589 0.109539255500
0.129059091210 0.188990801573 0.147942095995
0.138080060482 0.192599192262 0.195452526212
0.148931115866 0.196939632297 0.252601444721
0.161705374718 0.202049329877 0.319879204035
0.132772848010 0.230980291963 0.042613927275
0.134409070015 0.231634765863 0.051231477410
0.137232020497 0.232763946056 0.066098980606
0.141409486532 0.234434932470 0.088100209832
0.147082388401 0.236704096198 0.117977589369
0.154374063015 0.239620760083 0.156380400062
0.163395032287 0.243229150772 0.203890845180
0.174246087670 0.247569590807 0.261039763689
0.187020346522 0.252679288387 0.328317523003
0.038232769817 0.022657819092 0.007387141697
0.039869014174 0.023312315345 0.016004692763
0.042691957206 0.024441495538 0.030872192234
0.046869408339 0.026112472638 0.052873425186
0.052542321384 0.028381640092 0.082750797272
0.059833999723 0.031298313290 0.121153622866
0.068854965270 0.034906700253 0.168664067984
0.079706028104 0.039247125387 0.225813016295
0.092480279505 0.044356822968 0.293090730906
0.041475344449 0.029142970219 0.008468000218
0.043111585081 0.029797468334 0.017085548490
0.045934528112 0.030926644802 0.031953051686
0.050111979246 0.032597627491 0.053954288363
0.055784896016 0.034866791219 0.083831652999
0.063076570630 0.037783462554 0.122234478593
0.072097539902 0.041391849518 0.169744938612
0.082948602736 0.045732278377 0.226893872023
0.095722846687 0.050841979682 0.294171571732
0.047069624066 0.040331527591 0.010332759470
0.048705868423 0.040986023843 0.018950307742
0.051528811455 0.042115204036 0.033817812800
0.055706258863 0.043786183000 0.055819045752
0.061379175633 0.046055346727 0.085696414113
0.068670853972 0.048972021788 0.124099239707
0.077691815794 0.052580408752 0.171609699726
0.088542886078 0.056920833886 0.228758633137
0.101317130029 0.062030535191 0.296036332846
0.055348154157 0.056888584048 0.013092270121
0.056984398514 0.057543080300 0.021709820256
0.059807341546 0.058672260493 0.036577321589
0.063984788954 0.060343239456 0.058578558266
0.069657705724 0.062612406909 0.088455922902
0.076949380338 0.065529078245 0.126858755946
0.085970342159 0.069137468934 0.174369201064
0.096821412444 0.073477894068 0.231518134475
0.109595663846 0.078587599099 0.298795849085
0.066590271890 0.079372853041 0.016839643940
0.068226516247 0.080027341843 0.025457194075
0.071049466729 0.081156514585 0.040324699134
0.075226910412 0.082827500999 0.062325932086
0.080899827182 0.085096664727 0.092203304172
0.088191501796 0.088013336062 0.130606144667
0.097212471068 0.091621726751 0.178116589785
0.108063541353 0.095962144434 0.235265508294
0.120837785304 0.101071849465 0.302543252707
0.081040322781 0.108272947371 0.021656326950
0.082676567137 0.108927443624 0.030273877084
0.085499510169 0.110056616366 0.045141380280
0.089676961303 0.111727595329 0.067142605782
0.095349885523 0.113996766508 0.097019977868
0.102641560137 0.116913437843 0.135422810912
0.111662521958 0.120521821082 0.182933256030
0.122513584793 0.124862253666 0.240082189441
0.135287836194 0.129971951246 0.307359933853
0.098917342722 0.144026979804 0.027615332976
0.100553587079 0.144681483507 0.036232884973
0.103376522660 0.145810663700 0.051100388169
0.107553981245 0.147481635213 0.073101617396
0.113226890564 0.149750798941 0.102978996933
0.120518565178 0.152667462826 0.141381815076
0.129539534450 0.156275853515 0.188892260194
0.140390619636 0.160616278648 0.246041193604
0.153164863586 0.165725991130 0.313318938017
0.120421096683 0.187034487724 0.034783255309
0.122057341039 0.187688991427 0.043400805444
0.124880276620 0.188818171620 0.058268308640
0.129057750106 0.190489143133 0.080269537866
0.134730666876 0.192758306861 0.110146909952
0.142022326589 0.195674970746 0.148549735546
0.151043280959 0.199283361435 0.196060180664
0.161894366145 0.203623786569 0.253209114075
0.174668624997 0.208733499050 0.320486843586
0.145736083388 0.237664431334 0.043221578002
0.147372320294 0.238318935037 0.051839128137
0.150195270777 0.239448115230 0.066706620157
0.154372721910 0.241119086742 0.088707856834
0.160045638680 0.243388250470 0.118585236371
0.167337298393 0.246304914355 0.156988069415
0.176358252764 0.249913305044 0.204498499632
0.187209352851 0.254253774881 0.261647433043
0.199983596802 0.259363442659 0.328925162554
0.054895054549 0.031249310821 0.008168186061
0.056531295180 0.031903807074 0.016785735264
0.059354238212 0.033032987267 0.031653240323
0.063531689346 0.034703966230 0.053654477000
0.069204606116 0.036973129958 0.083531841636
0.076496280730 0.039889805019 0.121934667230
0.085517242551 0.043498191983 0.169445127249
0.096368312836 0.047838613391 0.226594045758
0.109142564237 0.052948318422 0.293871760368
0.058137629181 0.037734460086 0.009249045514
0.059773873538 0.038388960063 0.017866592854
0.062596812844 0.039518132806 0.032734099776
0.066774263978 0.041189115494 0.054735329002
0.072447173297 0.043458279222 0.084612697363
0.079738847911 0.046374950558 0.123015522957
0.088759817183 0.049983341247 0.170525982976
0.099610887468 0.054323766381 0.227674916387
0.112385138869 0.059433463961 0.294952660799
0.063731908798 0.048923019320 0.011113804765
0.065368153155 0.049577515572 0.019731353968
0.068191088736 0.050706692040 0.034598857164
0.072368539870 0.052377674729 0.056600093842
0.078041456640 0.054646838456 0.086477458477
0.085333131254 0.057563509792 0.124880284071
0.094354100525 0.061171896756 0.172390744090
0.105205170810 0.065512329340 0.229539662600
0.117979414761 0.070622034371 0.296817392111
0.072010435164 0.065480083227 0.013873314485
0.073646679521 0.066134579480 0.022490862757
0.076469630003 0.067263759673 0.037358365953
0.080647066236 0.068934731185 0.059359598905
0.086319990456 0.071203909814 0.089236967266
0.093611665070 0.074120573699 0.127639815211
0.102632626891 0.077728964388 0.175150245428
0.113483697176 0.082069389522 0.232299178839
0.126257941127 0.087179094553 0.299576908350
0.083252564073 0.087964341044 0.017620688304
0.084888800979 0.088618844748 0.026238238439
0.087711751461 0.089748010039 0.041105743498
0.091889195144 0.091418989003 0.063106968999
0.097562111914 0.093688160181 0.092984341085
0.104853786528 0.096604831517 0.131387189031
0.113874755800 0.100213214755 0.178897619247
0.124725818634 0.104553639889 0.236046567559
0.137500077486 0.109663344920 0.303324282169
0.097702607512 0.116864435375 0.022437371314
0.099338859320 0.117518931627 0.031054921448
0.102161794901 0.118648104370 0.045922424644
0.106339246035 0.120319083333 0.067923657596
0.112012170255 0.122588247061 0.097801029682
0.119303844869 0.125504910946 0.136203855276
0.128324806690 0.129113301635 0.183714285493
0.139175876975 0.133453726768 0.240863233805
0.151950120926 0.138563439250 0.308140963316
0.115579627454 0.152618467808 0.028396381065
0.117215864360 0.153272971511 0.037013929337
0.120038807392 0.154402151704 0.051881432533
0.124216265976 0.156073123217 0.073882669210
0.129889190197 0.158342301846 0.103760033846
0.137180864811 0.161258965731 0.142162874341
0.146201848984 0.164867356420 0.189673304558
0.157052904367 0.169207766652 0.246822237968
0.169827148318 0.174317464232 0.314099967480
0.137083381414 0.195625990629 0.035564299673
0.138719633222 0.196280479431 0.044181849808
0.141542568803 0.197409659624 0.059049353004
0.145720019937 0.199080646038 0.081050589681
0.151392951608 0.201349809766 0.110927954316
0.158684611320 0.204266473651 0.149330779910
0.167705595493 0.207874864340 0.196841225028
0.178556650877 0.212215274572 0.253990173340
0.191330909729 0.217324987054 0.321267873049
0.162398368120 0.246255934238 0.044002622366
0.164034605026 0.246910437942 0.052620172501
0.166857555509 0.248039618134 0.067487671971
0.171035006642 0.249710589647 0.089488901198
0.176707923412 0.251979768276 0.119366273284
0.183999583125 0.254896402359 0.157769113779
0.193020567298 0.258504807949 0.205279558897
0.203871622682 0.262845247984 0.262428492308
0.216645881534 0.267954945564 0.329706221819
0.075508959591 0.041878357530 0.009134463035
0.077145203948 0.042532857507 0.017752012238
0.079968139529 0.043662033975 0.032619517297
0.084145590663 0.045333012938 0.054620753974
0.089818507433 0.047602180392 0.084498122334
0.097110182047 0.050518855453 0.122900947928
0.106131158769 0.054127238691 0.170411393046
0.116982221603 0.058467663825 0.227560311556
0.129756480455 0.063577368855 0.294838070869
0.078751534224 0.048363506794 0.010215321556
0.080387786031 0.049018003047 0.018832869828
0.083210721612 0.050147179514 0.033700376749
0.087388172746 0.051818162203 0.055701605976
0.093061089516 0.054087325931 0.085578978062
0.100352771580 0.057003997266 0.123981803656
0.109373733401 0.060612387955 0.171492248774
0.120224803686 0.064952813089 0.228641182184
0.132999062538 0.070062518120 0.295918911695
0.084345810115 0.059552069753 0.012080080807
0.085982054472 0.060206562281 0.020697630942
0.088804990053 0.061335742474 0.035565134138
0.092982448637 0.063006728888 0.057566370815
0.098655365407 0.065275900066 0.087443739176
0.105947040021 0.068192563951 0.125846564770
0.114968009293 0.071800954640 0.173357009888
0.125819072127 0.076141372323 0.230505928397
0.138593330979 0.081251077354 0.297783643007
0.092624343932 0.076109133661 0.014839591458
0.094260580838 0.076763629913 0.023457141593
0.097083531320 0.077892810106 0.038324646652
0.101260982454 0.079563781619 0.060325879604
0.106933891773 0.081832960248 0.090203240514
0.114225566387 0.084749624133 0.128606095910
0.123246535659 0.088358014822 0.176116511226
0.134097605944 0.092698432505 0.233265459538
0.146871849895 0.097808137536 0.300543189049
0.103866472840 0.098593384027 0.018586967140
0.105502717197 0.099247872829 0.027204517275
0.108325652778 0.100377053022 0.042072020471
0.112503111362 0.102048031986 0.064073249698
0.118176020682 0.104317203164 0.093950621784
0.125467702746 0.107233874500 0.132353454828
