graphics/cube/sRGBDisplaySpectral_721.cube
TITLE "QA_sRGBDisplaySpectral_721"
# Copyright (c) 2026 @xsscx David H Hoyt LLC
# https://xss.cx
# Profiles applied (by profile description):
# - sRGB Display Spectral Emission (sRGB transfer, secondary green peak)
LUT_3D_SIZE 8
LUT_3D_INPUT_RANGE 0.20 0.80
0.62 0.68 0.85
0.57 0.71 1.00
0.50 0.74 1.13
0.42 0.76 1.24
0.32 0.78 1.34
0.13 0.81 1.43
-0.67 0.83 1.51
-1.53 0.85 1.59
0.47 0.92 0.82
0.38 0.94 0.98
0.26 0.96 1.11
-0.16 0.98 1.22
-1.02 0.99 1.32
-1.88 1.01 1.41
-2.74 1.03 1.50
-3.60 1.04 1.58
0.18 1.10 0.79
-0.51 1.11 0.96
-1.37 1.13 1.09
-2.23 1.14 1.21
-3.09 1.15 1.31
-3.95 1.17 1.40
-4.81 1.18 1.48
-5.68 1.19 1.56
-1.72 1.24 0.76
-2.58 1.25 0.93
-3.44 1.27 1.07
-4.30 1.28 1.19
-5.16 1.29 1.29
-6.02 1.30 1.39
-6.89 1.31 1.47
-7.75 1.33 1.55
-3.79 1.37 0.73
-4.65 1.38 0.91
-5.51 1.39 1.05
-6.37 1.40 1.17
-7.23 1.41 1.28
-8.10 1.42 1.37
-8.96 1.43 1.46
-9.82 1.44 1.54
-5.86 1.48 0.70
-6.72 1.49 0.88
-7.58 1.50 1.03
-8.44 1.51 1.15
-9.31 1.52 1.26
-10.17 1.53 1.36
-11.03 1.53 1.45
-11.89 1.54 1.53
-7.93 1.58 0.66
-8.79 1.59 0.86
-9.65 1.60 1.01
-10.51 1.60 1.14
-11.38 1.61 1.25
-12.24 1.62 1.34
-13.10 1.63 1.43
-13.96 1.64 1.52
-10.00 1.67 0.62
-10.86 1.68 0.83
-11.72 1.69 0.99
-12.59 1.70 1.12
-13.45 1.70 1.23
-14.31 1.71 1.33
-15.17 1.72 1.42
-16.03 1.73 1.50
0.87 0.45 0.86
0.83 0.49 1.01
0.79 0.53 1.14
0.75 0.57 1.25
0.71 0.60 1.35
0.66 0.63 1.44
0.61 0.66 1.52
0.55 0.69 1.59
0.78 0.78 0.84
0.73 0.80 0.99
0.69 0.83 1.12
0.64 0.85 1.23
0.58 0.87 1.33
0.52 0.89 1.42
0.44 0.91 1.51
0.35 0.93 1.58
0.67 0.99 0.81
0.62 1.01 0.97
0.56 1.02 1.10
0.49 1.04 1.22
0.41 1.05 1.32
0.30 1.07 1.41
0.06 1.09 1.49
-0.79 1.10 1.57
0.53 1.15 0.78
0.46 1.17 0.95
0.37 1.18 1.08
0.24 1.19 1.20
-0.28 1.21 1.30
-1.14 1.22 1.39
-2.00 1.23 1.48
-2.86 1.24 1.56
0.32 1.29 0.75
0.14 1.30 0.92
-0.63 1.31 1.06
-1.49 1.32 1.18
-2.35 1.33 1.29
-3.21 1.35 1.38
-4.07 1.36 1.47
-4.93 1.37 1.55
-0.98 1.41 0.72
-1.84 1.42 0.90
-2.70 1.43 1.04
-3.56 1.44 1.17
-4.42 1.45 1.27
-5.28 1.46 1.37
-6.14 1.47 1.45
-7.01 1.48 1.54
-3.05 1.51 0.68
-3.91 1.52 0.88
-4.77 1.53 1.02
-5.63 1.54 1.15
-6.49 1.55 1.26
-7.35 1.56 1.35
-8.22 1.57 1.44
-9.08 1.58 1.52
-5.12 1.61 0.65
-5.98 1.62 0.85
-6.84 1.63 1.00
-7.70 1.64 1.13
-8.56 1.65 1.24
-9.43 1.66 1.34
-10.29 1.66 1.43
-11.15 1.67 1.51
1.04 -1.15 0.88
1.02 -0.65 1.03
0.99 -0.16 1.15
0.96 0.17 1.26
0.92 0.28 1.36
0.89 0.35 1.44
0.86 0.41 1.52
0.82 0.46 1.60
0.97 0.60 0.85
0.94 0.63 1.01
0.91 0.66 1.13
0.88 0.69 1.24
0.84 0.71 1.34
0.80 0.74 1.43
0.76 0.76 1.51
0.72 0.79 1.59
0.90 0.87 0.83
0.86 0.89 0.98
0.83 0.90 1.11
0.79 0.92 1.23
0.75 0.94 1.33
0.70 0.96 1.42
0.65 0.98 1.50
0.60 0.99 1.58
0.81 1.05 0.80
0.77 1.07 0.96
0.73 1.08 1.10
0.68 1.10 1.21
0.63 1.11 1.31
0.57 1.13 1.40
0.51 1.14 1.49
0.43 1.16 1.57
0.71 1.20 0.77
0.66 1.22 0.94
0.61 1.23 1.08
0.55 1.24 1.19
0.48 1.25 1.30
0.40 1.27 1.39
0.28 1.28 1.48
-0.05 1.29 1.55
0.59 1.33 0.74
0.52 1.34 0.92
0.45 1.36 1.06
0.35 1.37 1.18
0.21 1.38 1.28
-0.40 1.39 1.38
-1.26 1.40 1.46
-2.12 1.41 1.54
0.41 1.45 0.70
0.30 1.46 0.89
0.09 1.47 1.04
-0.75 1.48 1.16
-1.61 1.49 1.27
-2.47 1.50 1.36
-3.33 1.51 1.45
-4.19 1.52 1.53
-0.23 1.55 0.67
-1.10 1.56 0.87
-1.96 1.57 1.02
-2.82 1.58 1.14
-3.68 1.59 1.25
-4.54 1.60 1.35
-5.40 1.61 1.44
-6.26 1.61 1.52
1.19 -4.47 0.89
1.16 -3.98 1.04
1.14 -3.49 1.16
1.12 -3.00 1.27
1.09 -2.51 1.36
1.06 -2.02 1.45
1.04 -1.53 1.53
1.01 -1.04 1.61
1.13 0.27 0.87
1.10 0.34 1.02
1.08 0.40 1.14
1.05 0.45 1.25
1.02 0.50 1.35
0.99 0.54 1.44
0.96 0.57 1.52
0.93 0.60 1.60
1.07 0.71 0.84
1.04 0.74 1.00
1.01 0.76 1.13
0.98 0.78 1.24
0.95 0.81 1.34
0.92 0.83 1.43
0.89 0.85 1.51
0.85 0.87 1.59
1.00 0.94 0.82
0.97 0.96 0.98
0.94 0.97 1.11
0.91 0.99 1.22
0.87 1.01 1.32
0.84 1.02 1.41
0.80 1.04 1.50
0.76 1.06 1.57
0.93 1.11 0.79
0.89 1.13 0.95
0.86 1.14 1.09
0.82 1.15 1.20
0.78 1.17 1.31
0.74 1.18 1.40
0.69 1.19 1.48
0.65 1.21 1.56
0.84 1.25 0.76
0.81 1.27 0.93
0.77 1.28 1.07
0.72 1.29 1.19
0.68 1.30 1.29
0.62 1.31 1.38
0.57 1.32 1.47
0.50 1.34 1.55
0.75 1.38 0.73
0.70 1.39 0.91
0.66 1.40 1.05
0.60 1.41 1.17
0.54 1.42 1.28
0.47 1.43 1.37
0.38 1.44 1.46
0.26 1.45 1.54
0.63 1.49 0.69
0.58 1.50 0.88
0.51 1.51 1.03
0.44 1.52 1.15
0.34 1.53 1.26
0.18 1.53 1.36
-0.52 1.54 1.44
-1.38 1.55 1.53
1.31 -7.80 0.91
1.29 -7.31 1.05
1.27 -6.82 1.17
1.25 -6.33 1.28
1.23 -5.83 1.37
1.20 -5.34 1.46
1.18 -4.85 1.54
1.16 -4.36 1.62
1.26 -2.57 0.89
1.24 -2.08 1.03
1.22 -1.59 1.15
1.19 -1.10 1.26
1.17 -0.61 1.36
1.15 -0.12 1.45
1.12 0.19 1.53
1.10 0.29 1.60
1.21 0.49 0.86
1.18 0.53 1.01
1.16 0.57 1.14
1.14 0.60 1.25
1.11 0.63 1.34
1.09 0.66 1.43
1.06 0.69 1.52
1.03 0.72 1.59
1.15 0.80 0.83
1.13 0.83 0.99
1.10 0.85 1.12
1.07 0.87 1.23
1.05 0.89 1.33
1.02 0.91 1.42
0.99 0.92 1.50
0.96 0.94 1.58
1.09 1.01 0.81
1.06 1.02 0.97
1.04 1.04 1.10
1.01 1.05 1.21
0.98 1.07 1.32
0.95 1.08 1.41
0.92 1.10 1.49
0.88 1.11 1.57
1.03 1.17 0.78
1.00 1.18 0.94
0.97 1.19 1.08
0.94 1.21 1.20
0.90 1.22 1.30
0.87 1.23 1.39
0.83 1.24 1.48
0.79 1.26 1.56
0.95 1.30 0.75
0.92 1.31 0.92
0.89 1.32 1.06
0.85 1.33 1.18
0.82 1.35 1.29
0.78 1.36 1.38
0.73 1.37 1.47
0.69 1.38 1.55
0.87 1.42 0.71
0.84 1.43 0.90
0.80 1.44 1.04
0.76 1.45 1.16
0.72 1.46 1.27
0.67 1.47 1.37
0.62 1.48 1.45
0.56 1.49 1.53
1.42 -11.12 0.92
1.40 -10.63 1.06
1.38 -10.14 1.18
1.36 -9.65 1.29
1.34 -9.16 1.38
1.32 -8.67 1.47
1.30 -8.18 1.55
1.28 -7.69 1.62
1.38 -5.90 0.90
1.36 -5.41 1.04
1.34 -4.92 1.17
1.32 -4.43 1.27
1.30 -3.94 1.37
1.28 -3.45 1.45
1.25 -2.96 1.54
1.23 -2.46 1.61
1.33 -0.67 0.88
1.31 -0.18 1.02
1.29 0.17 1.15
1.27 0.28 1.26
1.25 0.35 1.35
1.22 0.41 1.44
1.20 0.46 1.52
1.18 0.50 1.60
1.28 0.63 0.85
1.26 0.66 1.00
1.24 0.69 1.13
1.21 0.71 1.24
1.19 0.74 1.34
1.17 0.76 1.43
1.14 0.79 1.51
1.12 0.81 1.59
1.23 0.88 0.82
1.20 0.90 0.98
1.18 0.92 1.11
1.16 0.94 1.22
1.13 0.96 1.32
1.11 0.98 1.42
1.08 0.99 1.50
1.06 1.01 1.58
1.17 1.07 0.79
1.15 1.08 0.96
1.12 1.10 1.09
1.10 1.11 1.21
1.07 1.13 1.31
1.04 1.14 1.40
1.02 1.15 1.49
0.99 1.17 1.57
1.11 1.22 0.77
1.09 1.23 0.94
1.06 1.24 1.07
1.03 1.25 1.19
1.00 1.27 1.29
0.97 1.28 1.39
0.94 1.29 1.47
0.91 1.30 1.55
1.05 1.34 0.73
1.02 1.36 0.91
0.99 1.37 1.05
0.96 1.38 1.17
0.93 1.39 1.28
0.90 1.40 1.37
0.86 1.41 1.46
0.83 1.42 1.54
1.52 -14.45 0.94
1.50 -13.96 1.08
1.49 -13.47 1.19
1.47 -12.98 1.30
1.45 -12.49 1.39
1.43 -12.00 1.48
1.41 -11.51 1.56
1.40 -11.01 1.63
1.48 -9.22 0.92
1.46 -8.73 1.06
1.44 -8.24 1.18
1.43 -7.75 1.28
1.41 -7.26 1.38
1.39 -6.77 1.46
1.37 -6.28 1.54
1.35 -5.79 1.62
1.44 -4.00 0.89
1.42 -3.51 1.04
1.40 -3.02 1.16
1.38 -2.53 1.27
1.36 -2.04 1.36
1.34 -1.55 1.45
1.32 -1.06 1.53
1.30 -0.57 1.61
1.39 0.34 0.87
1.37 0.40 1.02
1.35 0.45 1.14
1.33 0.49 1.25
1.31 0.53 1.35
1.29 0.57 1.44
1.27 0.60 1.52
1.25 0.63 1.60
1.35 0.73 0.84
1.33 0.76 1.00
1.31 0.78 1.12
1.28 0.81 1.23
1.26 0.83 1.33
1.24 0.85 1.42
1.22 0.87 1.51
1.20 0.89 1.58
1.30 0.96 0.81
1.28 0.97 0.97
1.25 0.99 1.10
1.23 1.01 1.22
1.21 1.02 1.32
1.19 1.04 1.41
1.16 1.06 1.49
1.14 1.07 1.57
1.25 1.12 0.78
1.22 1.14 0.95
1.20 1.15 1.09
1.18 1.17 1.20
1.15 1.18 1.30
1.13 1.19 1.40
1.10 1.21 1.48
1.08 1.22 1.56
1.19 1.26 0.75
1.17 1.28 0.93
1.14 1.29 1.07
1.12 1.30 1.18
1.09 1.31 1.29
1.07 1.32 1.38
1.04 1.34 1.47
1.01 1.35 1.55
1.61 -17.77 0.95
1.60 -17.28 1.09
1.58 -16.79 1.20
1.56 -16.30 1.31
1.55 -15.81 1.40
1.53 -15.32 1.48
1.51 -14.83 1.56
1.50 -14.34 1.64
1.57 -12.55 0.93
1.56 -12.06 1.07
1.54 -11.57 1.19
1.52 -11.08 1.29
1.51 -10.59 1.39
1.49 -10.10 1.47
1.47 -9.61 1.55
1.46 -9.12 1.63
1.53 -7.33 0.91
1.52 -6.84 1.05
1.50 -6.35 1.17
1.48 -5.85 1.28
1.47 -5.36 1.37
1.45 -4.87 1.46
1.43 -4.38 1.54
1.41 -3.89 1.61
1.49 -2.10 0.88
1.48 -1.61 1.03
1.46 -1.12 1.15
1.44 -0.63 1.26
1.42 -0.14 1.36
1.40 0.18 1.45
1.39 0.28 1.53
1.37 0.35 1.60
1.45 0.53 0.86
1.43 0.57 1.01
1.42 0.60 1.13
1.40 0.63 1.24
1.38 0.66 1.34
1.36 0.69 1.43
1.34 0.71 1.51
1.32 0.74 1.59
1.41 0.82 0.83
1.39 0.85 0.99
1.37 0.87 1.12
1.35 0.89 1.23
1.33 0.91 1.33
1.31 0.92 1.42
1.29 0.94 1.50
1.27 0.96 1.58
1.36 1.02 0.80
1.34 1.04 0.97
1.32 1.05 1.10
1.30 1.07 1.21
1.28 1.08 1.31
1.26 1.10 1.41
1.24 1.11 1.49
1.22 1.13 1.57
1.31 1.18 0.77
1.29 1.19 0.94
1.27 1.20 1.08
1.25 1.22 1.20
1.23 1.23 1.30
1.21 1.24 1.39
1.18 1.26 1.48
1.16 1.27 1.56
