graphics/cube/sRGBDisplaySpectral_46.cube
TITLE "QA_sRGBDisplaySpectral_46"
# Copyright (c) 2026 @xsscx David H Hoyt LLC
# https://xss.cx
# Profiles applied (by profile description):
# - sRGB Display Spectral Emission (sRGB transfer, secondary green peak)
LUT_3D_SIZE 17
LUT_3D_INPUT_RANGE 0.0524000003934 0.8849999904633
0.0020247159991 0.0020776898600 0.0016643211711
0.0023525266442 0.0021224801894 0.0040100151673
0.0028714630753 0.0021933848038 0.0077233319171
0.0036045869347 0.0022935546003 0.0129692945629
0.0045717037283 0.0024256960023 0.0198896285146
0.0057903644629 0.0025922069326 0.0286099147052
0.0072764428332 0.0027952559758 0.0392437428236
0.0090445112437 0.0030368349981 0.0518953911960
0.0111080892384 0.0033187905792 0.0666615962982
0.0134798241779 0.0036428507883 0.0836328491569
0.0161716230214 0.0040106428787 0.1028943806887
0.0191947706044 0.0044237086549 0.1245268881321
0.0225599966943 0.0048835142516 0.1486072242260
0.0262775495648 0.0053914594464 0.1752086877823
0.0303572528064 0.0059488867410 0.2044015377760
0.0348085500300 0.0065570860170 0.2362533211708
0.0396405048668 0.0072172973305 0.2708290219307
0.0028687131125 0.0040074121207 0.0019470538246
0.0031965239905 0.0040522022173 0.0042927479371
0.0037154601887 0.0041231065989 0.0080060642213
0.0044485838152 0.0042232763954 0.0132520282641
0.0054157013074 0.0043554180302 0.0201723594218
0.0066343615763 0.0045219287276 0.0288926437497
0.0081204399467 0.0047249784693 0.0395264737308
0.0098885083571 0.0049665574916 0.0521781221032
0.0119520872831 0.0052485126071 0.0669443234801
0.0143238203600 0.0055725732818 0.0839155763388
0.0170156192034 0.0059403651394 0.1031771078706
0.0200387667865 0.0063534304500 0.1248096302152
0.0234039947391 0.0068132360466 0.1488899588585
0.0271215476096 0.0073211817071 0.1754914075136
0.0312012508512 0.0078786090016 0.2046842575073
0.0356525443494 0.0084868082777 0.2365360558033
0.0404844991863 0.0091470200568 0.2711117267609
0.0042047905736 0.0070622307248 0.0023946298752
0.0045326012187 0.0071070208214 0.0047403234057
0.0050515374169 0.0071779252030 0.0084536401555
0.0057846610434 0.0072780949995 0.0136996032670
0.0067517780699 0.0074102366343 0.0206199362874
0.0079704374075 0.0075767473318 0.0293402224779
0.0094565162435 0.0077797970735 0.0399740524590
0.0112245865166 0.0080213751644 0.0526256933808
0.0132881635800 0.0083033312112 0.0673919022083
0.0156598985195 0.0086273914203 0.0843631550670
0.0183516982943 0.0089951837435 0.1036246865988
0.0213748440146 0.0094082495198 0.1252571940422
0.0247400719672 0.0098680555820 0.1493375301361
0.0284576267004 0.0103760007769 0.1759389936924
0.0325373299420 0.0109334280714 0.2051318287849
0.0369886197150 0.0115416264161 0.2369836270809
0.0418205745518 0.0122018381953 0.2715593278408
0.0060923257843 0.0113779054955 0.0030269394629
0.0064201359637 0.0114226955920 0.0053726327606
0.0069390721619 0.0114935999736 0.0090859495103
0.0076721962541 0.0115937702358 0.0143319135532
0.0086393132806 0.0117259118706 0.0212522465736
0.0098579730839 0.0118924230337 0.0299725327641
0.0113440519199 0.0120954718441 0.0406063608825
0.0131121212617 0.0123370504007 0.0532580092549
0.0151756983250 0.0126190064475 0.0680242106318
0.0175474341959 0.0129430666566 0.0849954709411
0.0202392302454 0.0133108589798 0.1042570024729
0.0232623778284 0.0137239247561 0.1258895099163
0.0266276057810 0.0141837298870 0.1499698460102
0.0303451605141 0.0146916760132 0.1765712797642
0.0344248637557 0.0152491033077 0.2057641446590
0.0388761535287 0.0158573016524 0.2376159131527
0.0437081083655 0.0165175125003 0.2721916139126
0.0085823107511 0.0170710291713 0.0038610659540
0.0089101213962 0.0171158201993 0.0062067597173
0.0094290571287 0.0171867255121 0.0099200764671
0.0101621812209 0.0172868948430 0.0151660386473
0.0111292982474 0.0174190364778 0.0220863744617
0.0123479580507 0.0175855457783 0.0308066569269
0.0138340368867 0.0177885964513 0.0414404906332
0.0156021071598 0.0180301759392 0.0540921352804
0.0176656842232 0.0183121301234 0.0688583403826
0.0200374200940 0.0186361912638 0.0858295932412
0.0227292161435 0.0190039835870 0.1050911247730
0.0257523637265 0.0194170475006 0.1267236471176
0.0291175916791 0.0198768544942 0.1508039683104
0.0328351445496 0.0203847996891 0.1774054318666
0.0369148477912 0.0209422279149 0.2065982669592
0.0413661375642 0.0215504262596 0.2384500652552
0.0461980924010 0.0222106371075 0.2730257511139
0.0117199290544 0.0242449082434 0.0049121454358
0.0120477396995 0.0242896992713 0.0072578387335
0.0125666763633 0.0243606045842 0.0109711550176
0.0132997995242 0.0244607720524 0.0162171181291
0.0142669174820 0.0245929136872 0.0231374539435
0.0154855782166 0.0247594248503 0.0318577364087
0.0169716551900 0.0249624736607 0.0424915663898
0.0187397263944 0.0252040531486 0.0551432110369
0.0208033025265 0.0254860091954 0.0699094161391
0.0231750383973 0.0258100684732 0.0868806764483
0.0258668344468 0.0261778607965 0.1061422079802
0.0288899820298 0.0265909265727 0.1277747154236
0.0322552099824 0.0270507335663 0.1518550515175
0.0359727628529 0.0275586787611 0.1784564852715
0.0400524660945 0.0281161051244 0.2076493352652
0.0445037633181 0.0287243034691 0.2395011335611
0.0493357144296 0.0293845161796 0.2740768492222
0.0155460564420 0.0329929962754 0.0061938688159
0.0158738680184 0.0330377854407 0.0085395621136
0.0163928046823 0.0331086926162 0.0122528783977
0.0171259269118 0.0332088619471 0.0174988433719
0.0180930439383 0.0333410054445 0.0244191754609
0.0193117037416 0.0335075147450 0.0331394597888
0.0207977835089 0.0337105616927 0.0437732860446
0.0225658528507 0.0339521430433 0.0564249344170
0.0246294289827 0.0342340990901 0.0711911395192
0.0270011629909 0.0345581583679 0.0881623998284
0.0296929627657 0.0349259488285 0.1074239313602
0.0327161103487 0.0353390164673 0.1290564388037
0.0360813401639 0.0357988215983 0.1531367748976
0.0397988893092 0.0363067686558 0.1797382235527
0.0438785925508 0.0368641950190 0.2089310735464
0.0483298860490 0.0374723933637 0.2407828718424
0.0531618408859 0.0381326042116 0.2753585577011
0.0200982093811 0.0434010773897 0.0077188052237
0.0204260200262 0.0434458665550 0.0100644985214
0.0209449566901 0.0435167700052 0.0137778157368
0.0216780789196 0.0436169430614 0.0190237797797
0.0226451959461 0.0437490828335 0.0259441118687
0.0238638557494 0.0439155958593 0.0346643961966
0.0253499355167 0.0441186428070 0.0452982299030
0.0271180029958 0.0443602241576 0.0579498745501
0.0291815828532 0.0446421764791 0.0727160796523
0.0315533168614 0.0449662357569 0.0896873325109
0.0342451147735 0.0453340299428 0.1089488640428
0.0372682623565 0.0457470938563 0.1305813789368
0.0406334921718 0.0462068989873 0.1546617001295
0.0443510450423 0.0467148460448 0.1812631636858
0.0484307408333 0.0472722761333 0.2104559987783
0.0528820380569 0.0478804744780 0.2423077970743
0.0577139928937 0.0485406853259 0.2768835127354
0.0254111904651 0.0555487275124 0.0094986148179
0.0257390011102 0.0555935166776 0.0118443081155
0.0262579377741 0.0556644201279 0.0155576243997
0.0269910600036 0.0557645894587 0.0208035875112
0.0279581770301 0.0558967329562 0.0277239214629
0.0291768368334 0.0560632459819 0.0364442057908
0.0306629166007 0.0562662892044 0.0470780357718
0.0324309840798 0.0565078705549 0.0597296804190
0.0344945602119 0.0567898266017 0.0744958892465
0.0368662960827 0.0571138858795 0.0914671421051
0.0395580939949 0.0574816763401 0.1107286736369
0.0425812453032 0.0578947439790 0.1323611885309
0.0459464713931 0.0583545491099 0.1564415246248
0.0496640242636 0.0588624961674 0.1830429583788
0.0537437275052 0.0594199225307 0.2122358083725
0.0581950210035 0.0600281246006 0.2440875917673
0.0630269721150 0.0606883354485 0.2786633074284
0.0315175689757 0.0695103928447 0.0115442043170
0.0318453796208 0.0695551857352 0.0138898976147
0.0323643162847 0.0696260929108 0.0176032166928
0.0330974422395 0.0697262659669 0.0228491816670
0.0340645574033 0.0698584020138 0.0297695118934
0.0352832227945 0.0700249075890 0.0384897962213
0.0367693006992 0.0702279657125 0.0491236224771
0.0385373681784 0.0704695358872 0.0617752745748
0.0406009480357 0.0707514956594 0.0765414834023
0.0429726801813 0.0710755586624 0.0935127288103
0.0456644780934 0.0714433491230 0.1127742677927
0.0486876219511 0.0718564167619 0.1344067752361
0.0520528517663 0.0723162218928 0.1584871113300
0.0557704046369 0.0728241652250 0.1850885599852
0.0598501116037 0.0733815878630 0.2142813950777
0.0643014013767 0.0739897936583 0.2461331933737
0.0691333562136 0.0746500045061 0.2807089090347
0.0384479984641 0.0853561982512 0.0138658471406
0.0387758091092 0.0854009911418 0.0162115413696
0.0392947457731 0.0854718908668 0.0199248567224
0.0400278680027 0.0855720639229 0.0251708198339
0.0409949868917 0.0857042074203 0.0320911556482
0.0422136485577 0.0858707129955 0.0408114381135
0.0436997301877 0.0860737636685 0.0514452718198
0.0454677976668 0.0863153412938 0.0640969201922
0.0475313775241 0.0865972936153 0.0788631215692
0.0499031096697 0.0869213566184 0.0958343744278
0.0525949075818 0.0872891545296 0.1150959059596
0.0556180551648 0.0877022221684 0.1367284208536
0.0589832849801 0.0881620272994 0.1608087569475
0.0627008378506 0.0886699706316 0.1874102056026
0.0667805373669 0.0892273932695 0.2166030555964
0.0712318271399 0.0898355916142 0.2484548538923
0.0760637819767 0.0904958024621 0.2830305695534
0.0462315343320 0.1031525284052 0.0164732728153
0.0465593449771 0.1031973212957 0.0188189670444
0.0470782853663 0.1032682210207 0.0225322823972
0.0478114075959 0.1033684015274 0.0277782473713
0.0487785227597 0.1035005375743 0.0346985794604
0.0499971881509 0.1036670431495 0.0434188656509
0.0514832660556 0.1038701012731 0.0540526956320
0.0532513298094 0.1041116714478 0.0667043402791
0.0553149096668 0.1043936312199 0.0814705491066
0.0576866455376 0.1047176867723 0.0984418019652
0.0603784434497 0.1050854846835 0.1177033334970
0.0634015873075 0.1054985523224 0.1393358409405
0.0667668208480 0.1059583574533 0.1634161770344
0.0704843699932 0.1064663007855 0.1900176256895
0.0745640769601 0.1070237234235 0.2192104905844
0.0790153667331 0.1076319217682 0.2510622739792
0.0838473215699 0.1082921400666 0.2856379747391
0.0548958033323 0.1229625940323 0.0193757396191
0.0552236139774 0.1230073869228 0.0217214338481
0.0557425543666 0.1230782866478 0.0254347492009
0.0564756765962 0.1231784597039 0.0306807123125
0.0574427917600 0.1233106032014 0.0376010462642
0.0586614571512 0.1234771087766 0.0463213287294
0.0601475350559 0.1236801594496 0.0569551624358
0.0619155988097 0.1239217370749 0.0696068108082
0.0639791786671 0.1242036893964 0.0843730047345
0.0663509145379 0.1245277523994 0.1013442575932
0.0690427049994 0.1248955503106 0.1206057891250
0.0720658600330 0.1253086030483 0.1422383189201
0.0754310861230 0.1257684230804 0.1663186401129
0.0791486352682 0.1262763589621 0.1929201036692
0.0832283422351 0.1268337965012 0.2221129387617
0.0876796394587 0.1274420022964 0.2539647519588
0.0925115942955 0.1281021982431 0.2885404527187
0.0644671916962 0.1448466926813 0.0225820783526
0.0647950097919 0.1448914855719 0.0249277725816
0.0653139427304 0.1449623852968 0.0286410879344
0.0660470649600 0.1450625658035 0.0338870510459
0.0670141801238 0.1451947093010 0.0408073849976
0.0682328492403 0.1453612148762 0.0495276711881
0.0697189271450 0.1455642580986 0.0601615011692
0.0714869946241 0.1458058357239 0.0728131458163
0.0735505744815 0.1460878103971 0.0875793546438
0.0759223103523 0.1464118659496 0.1045506075025
0.0786141008139 0.1467796415091 0.1238121315837
0.0816372558475 0.1471927165985 0.1454446613789
0.0850024819374 0.1476525217295 0.1695249825716
0.0887200310826 0.1481604725122 0.1961264163256
0.0927997305989 0.1487178951502 0.2253192812204
0.0972510278225 0.1493261009455 0.2571710646152
0.1020829826593 0.1499863117933 0.2917467653751
0.0749709829688 0.1688626557589 0.0261007715017
0.0752987936139 0.1689074486494 0.0284464657307
0.0758177340031 0.1689783483744 0.0321597829461
0.0765508562326 0.1690785139799 0.0374057441950
0.0775179713964 0.1692106574774 0.0443260818720
0.0787366405129 0.1693771630526 0.0530463643372
0.0802227184176 0.1695802211761 0.0636801943183
0.0819907784462 0.1698217988014 0.0763318464160
0.0840543583035 0.1701037585735 0.0910980403423
0.0864260941744 0.1704278290272 0.1080693006516
0.0891178920865 0.1707956045866 0.1273308247328
0.0921410396695 0.1712086647749 0.1489633470774
0.0955062657595 0.1716684848070 0.1730436682701
0.0992238223553 0.1721764206886 0.1996451318264
0.1033035218716 0.1727338582277 0.2288379818201
0.1077548190951 0.1733420640230 0.2606897652149
0.1125867664814 0.1740022599697 0.2952654659748
0.0864314883947 0.1950660496950 0.0299399551004
0.0867592915893 0.1951108425856 0.0322856456041
0.0872782319784 0.1951817423105 0.0359989628196
0.0880113542080 0.1952819079161 0.0412449277937
0.0889784768224 0.1954140514135 0.0481652654707
0.0901971310377 0.1955805569887 0.0568855479360
0.0916832089424 0.1957836002111 0.0675193741918
0.0934512838721 0.1960251927376 0.0801710188389
0.0955148562789 0.1963071525097 0.0949372276664
0.0978865921497 0.1966312080622 0.1119084879756
0.1005783975124 0.1969989985228 0.1311700195074
0.1036015376449 0.1974120587111 0.1528025269508
0.1069667711854 0.1978718787432 0.1768828481436
0.1106843203306 0.1983798146248 0.2034842967987
0.1147640198469 0.1989372521639 0.2326771616936
0.1192153170705 0.1995454430580 0.2645289301872
0.1240472793579 0.2002056539059 0.2991046309471
0.0988720655441 0.2235102802515 0.0341074541211
0.0991998761892 0.2235550731421 0.0364531464875
0.0997188165784 0.2236259728670 0.0401664637029
0.1004519462585 0.2237261384726 0.0454124249518
0.1014190614223 0.2238582819700 0.0523327589035
0.1026377156377 0.2240247875452 0.0610530488193
0.1041237935424 0.2242278456688 0.0716868713498
0.1058918684721 0.2244694232941 0.0843385234475
0.1079554408789 0.2247513830662 0.0991047322750
0.1103271767497 0.2250754386187 0.1160759851336
0.1130189821124 0.2254432290792 0.1353375166655
0.1160421222448 0.2258562892675 0.1569700390100
0.1194073557854 0.2263161092997 0.1810503602028
0.1231249049306 0.2268240451813 0.2076517939568
0.1272046118975 0.2273814827204 0.2368446588516
0.1316559016705 0.2279896736145 0.2686964571476
0.1364878565073 0.2286498844624 0.3032721281052
0.0040542110801 0.0033882383723 0.0016673735809
0.0043820217252 0.0034330287017 0.0040130671114
0.0049009583890 0.0035039333161 0.0077263838612
0.0056340815499 0.0036041028798 0.0129723474383
0.0066011990421 0.0037362445146 0.0198926813900
0.0078198593110 0.0039027552120 0.0286129657179
0.0093059381470 0.0041058049537 0.0392467938364
0.0110740065575 0.0043473830447 0.0518984422088
0.0131375845522 0.0046293390915 0.0666646510363
0.0155093194917 0.0049533993006 0.0836359038949
0.0182011164725 0.0053211916238 0.1028974354267
0.0212242640555 0.0057342574000 0.1245299503207
0.0245894920081 0.0061940629967 0.1486102789640
0.0283070467412 0.0067020081915 0.1752117276192
0.0323867462575 0.0072594354860 0.2044045925140
0.0368380397558 0.0078676352277 0.2362563610077
0.0416699945927 0.0085278460756 0.2708320617676
0.0048982081935 0.0053179608658 0.0019501062343
0.0052260193042 0.0053627509624 0.0042957998812
0.0057449550368 0.0054336553439 0.0080091161653
0.0064780786633 0.0055338251404 0.0132550802082
0.0074451966211 0.0056659667753 0.0201754141599
0.0086638564244 0.0058324774727 0.0288956966251
0.0101499343291 0.0060355272144 0.0395295247436
0.0119180036709 0.0062771057710 0.0521811731160
0.0139815816656 0.0065590613522 0.0669473782182
0.0163533166051 0.0068831220269 0.0839186385274
0.0190451145172 0.0072509143502 0.1031801700592
0.0220682602376 0.0076639796607 0.1248126849532
0.0254334900528 0.0081237852573 0.1488930135965
0.0291510429233 0.0086317295209 0.1754944473505
0.0332307443023 0.0091891577467 0.2046873122454
0.0376820415258 0.0097973579541 0.2365391105413
0.0425139926374 0.0104575678706 0.2711147964001
0.0062342858873 0.0083727799356 0.0023976820521
0.0065620965324 0.0084175700322 0.0047433758155
0.0070810327306 0.0084884744138 0.0084566920996
0.0078141568229 0.0085886446759 0.0137026561424
0.0087812738493 0.0087207863107 0.0206229891628
0.0099999336526 0.0088872974738 0.0293432753533
0.0114860124886 0.0090903462842 0.0399771034718
0.0132540818304 0.0093319248408 0.0526287481189
0.0153176598251 0.0096138808876 0.0673949494958
0.0176893938333 0.0099379410967 0.0843662172556
0.0203811917454 0.0103057334200 0.1036277413368
0.0234043411911 0.0107187991962 0.1252602636814
0.0267695672810 0.0111786043271 0.1493405848742
0.0304871201515 0.0116865495220 0.1759420335293
0.0345668233931 0.0122439777479 0.2051348686218
0.0390181168914 0.0128521760926 0.2369866669178
0.0438500717282 0.0135123869404 0.2715623676777
0.0081218201667 0.0126884551719 0.0030299916398
0.0084496317431 0.0127332452685 0.0053756856360
0.0089685674757 0.0128041496500 0.0090890023857
0.0097016906366 0.0129043189809 0.0143349664286
0.0106688085943 0.0130364615470 0.0212552994490
0.0118874693289 0.0132029717788 0.0299755819142
0.0133735472336 0.0134060215205 0.0406094118953
0.0151416175067 0.0136476000771 0.0532610602677
0.0172051955014 0.0139295551926 0.0680272653699
0.0195769295096 0.0142536163330 0.0849985182285
0.0222687274218 0.0146214086562 0.1042600497603
0.0252918731421 0.0150344735011 0.1258925646544
0.0286571029574 0.0154942795634 0.1499728858471
0.0323746576905 0.0160022247583 0.1765743494034
0.0364543572068 0.0165596529841 0.2057672142982
0.0409056507051 0.0171678513288 0.2376189827919
0.0457376055419 0.0178280621767 0.2721946835518
0.0106118042022 0.0183815769851 0.0038641183637
0.0109396157786 0.0184263680130 0.0062098121271
0.0114585515112 0.0184972733259 0.0099231284112
0.0121916765347 0.0185974407941 0.0151690915227
0.0131587935612 0.0187295824289 0.0220894254744
0.0143774542958 0.0188960935920 0.0308097098023
0.0158635322005 0.0190991424024 0.0414435416460
0.0176316015422 0.0193407218903 0.0540951900184
0.0196951795369 0.0196226779372 0.0688613951206
0.0220669116825 0.0199467372149 0.0858326405287
0.0247587114573 0.0203145295382 0.1050941720605
0.0277818571776 0.0207275953144 0.1267266869545
0.0311470851302 0.0211874023080 0.1508070081472
0.0348646380007 0.0216953475028 0.1774084717035
0.0389443412423 0.0222527738661 0.2066013067961
0.0433956347406 0.0228609722108 0.2384531050920
0.0482275895774 0.0235211849213 0.2730288207531
0.0137494252995 0.0255554541945 0.0049151969142
0.0140772359446 0.0256002470851 0.0072608906776
0.0145961726084 0.0256711505353 0.0109742069617
0.0153292957693 0.0257713198662 0.0162201710045
0.0162964127958 0.0259034615010 0.0231405049562
0.0175150744617 0.0260699726641 0.0318607911468
0.0190011505038 0.0262730214745 0.0424946174026
0.0207692217082 0.0265146009624 0.0551462657750
0.0228327997029 0.0267965570092 0.0699124708772
0.0252045318484 0.0271206162870 0.0868837237358
0.0278963334858 0.0274884086102 0.1061452552676
0.0309194792062 0.0279014743865 0.1277777701616
0.0342847071588 0.0283612795174 0.1518581062555
0.0380022637546 0.0288692247123 0.1784595400095
0.0420819595456 0.0294266529381 0.2076523900032
0.0465332530439 0.0300348512828 0.2395041882992
0.0513652078807 0.0306950621307 0.2740798890591
0.0175755526870 0.0343035459518 0.0061969207600
0.0179033633322 0.0343483351171 0.0085426140577
0.0184222999960 0.0344192385674 0.0122559303418
0.0191554222256 0.0345194078982 0.0175018943846
0.0201225392520 0.0346515513957 0.0244222283363
0.0213411990553 0.0348180644214 0.0331425145268
0.0228272788227 0.0350211076438 0.0437763407826
0.0245953481644 0.0352626889944 0.0564279854298
0.0266589280218 0.0355446487665 0.0711941942573
0.0290306601673 0.0358687043190 0.0881654471159
0.0317224599421 0.0362364947796 0.1074269786477
0.0347456037998 0.0366495624185 0.1290594935417
0.0381108298898 0.0371093675494 0.1531398296356
0.0418283864856 0.0376173146069 0.1797412633896
0.0459080934525 0.0381747409701 0.2089341133833
0.0503593795002 0.0387829430401 0.2407859116793
0.0551913343370 0.0394431538880 0.2753616273403
0.0221277046949 0.0447116233408 0.0077218571678
0.0224555153400 0.0447564125061 0.0100675504655
0.0229744520038 0.0448273196816 0.0137808676809
0.0237075742334 0.0449274890125 0.0190268307924
0.0246746912599 0.0450596325099 0.0259471647441
0.0258933510631 0.0452261418104 0.0346674472094
0.0273794308305 0.0454291887581 0.0453012809157
0.0291475001723 0.0456707701087 0.0579529292881
0.0312110781670 0.0459527224302 0.0727191343904
0.0335828140378 0.0462767854333 0.0896903797984
0.0362746119499 0.0466445758939 0.1089519113302
0.0392977558076 0.0470576435328 0.1305844336748
0.0426629856229 0.0475174486637 0.1546647548676
0.0463805384934 0.0480253957212 0.1812662184238
0.0504602417350 0.0485828220844 0.2104590535164
0.0549115315080 0.0491910204291 0.2423108518124
0.0597434863448 0.0498512312770 0.2768865525723
0.0274406857789 0.0568592734635 0.0095016667619
0.0277684964240 0.0569040626287 0.0118473609909
0.0282874330878 0.0569749660790 0.0155606763437
0.0290205553174 0.0570751391351 0.0208066403866
0.0299876742065 0.0572072789073 0.0277269743383
0.0312063358724 0.0573737919331 0.0364472568035
0.0326924137771 0.0575768388808 0.0470810867846
0.0344604812562 0.0578184202313 0.0597327351570
0.0365240611136 0.0581003725529 0.0744989365339
0.0388957932591 0.0584244318306 0.0914701893926
0.0415875948966 0.0587922260165 0.1107317209244
0.0446107350290 0.0592052936554 0.1323642283678
0.0479759648442 0.0596650950611 0.1564445644617
0.0516935214400 0.0601730421185 0.1830460280180
0.0557732246816 0.0607304722071 0.2122388780117
0.0602245144546 0.0613386705518 0.2440906614065
0.0650564730167 0.0619988813996 0.2786663472652
0.0335470624268 0.0708209499717 0.0115472571924
0.0338748730719 0.0708657428622 0.0138929514214
0.0343938097358 0.0709366425872 0.0176062677056
0.0351269356906 0.0710368156433 0.0228522308171
0.0360940508544 0.0711689591408 0.0297725647688
0.0373127162457 0.0713354647160 0.0384928509593
0.0387987904251 0.0715385228395 0.0491266772151
0.0405668616295 0.0717800930142 0.0617783293128
0.0426304377615 0.0720620527864 0.0765445306897
0.0450021699071 0.0723861083388 0.0935157835484
0.0476939715445 0.0727539062500 0.1127773150802
0.0507171191275 0.0731669738889 0.1344098299742
0.0540823452175 0.0736267790198 0.1584901511669
0.0577998980880 0.0741347223520 0.1850916147232
0.0618796087801 0.0746921449900 0.2142844498158
0.0663308948278 0.0753003433347 0.2461362481117
0.0711628496647 0.0759605616331 0.2807119488716
0.0404774919152 0.0866667479277 0.0138689000160
0.0408053062856 0.0867115482688 0.0162145923823
0.0413242392242 0.0867824479938 0.0199279095978
0.0420573651791 0.0868826210499 0.0251738727093
0.0430244840682 0.0870147570968 0.0320942066610
0.0442431457341 0.0871812701225 0.0408144928515
0.0457292236388 0.0873843207955 0.0514483191073
0.0474972873926 0.0876258909702 0.0640999674797
0.0495608672500 0.0879078507423 0.0788661763072
0.0519326031208 0.0882319137454 0.0958374366164
0.0546244010329 0.0885997042060 0.1150989606977
0.0576475523412 0.0890127718449 0.1367314755917
0.0610127784312 0.0894725769758 0.1608118116856
0.0647303238511 0.0899805203080 0.1874132454395
0.0688100308180 0.0905379429460 0.2166061103344
0.0732613205910 0.0911461487412 0.2484579086304
0.0780932754278 0.0918063595891 0.2830336093903
0.0482610352337 0.1044630855322 0.0164763256907
0.0485888421535 0.1045078784227 0.0188220199198
0.0491077788174 0.1045787781477 0.0225353352726
0.0498409047723 0.1046789512038 0.0277813002467
0.0508080236614 0.1048110947013 0.0347016304731
0.0520266816020 0.1049776002765 0.0434219203889
0.0535127595067 0.1051806509495 0.0540557466447
0.0552808307111 0.1054222285748 0.0667073950171
0.0573444068432 0.1057041808963 0.0814735963941
0.0597161427140 0.1060282438993 0.0984448641539
0.0624079443514 0.1063960418105 0.1177063807845
0.0654310882092 0.1068091094494 0.1393388956785
0.0687963142991 0.1072689145803 0.1634192317724
0.0725138708949 0.1077768579125 0.1900206804276
0.0765935704112 0.1083342805505 0.2192135304213
0.0810448601842 0.1089424788952 0.2510653436184
0.0858768150210 0.1096026897430 0.2856410443783
0.0569253042340 0.1242731511593 0.0193787906319
