graphics/cube/sRGB_D65_colorimetric_59.cube
TITLE "QA_sRGB_D65_colorimetric_59"
# Copyright (c) 2026 @xsscx David H Hoyt LLC
# https://xss.cx
# Profiles applied (by profile description):
# - sRGB D65 colorimetric
LUT_3D_SIZE 5
LUT_3D_INPUT_RANGE 0.087200000882 0.804499983788
0.005533855408 0.005797444377 0.005854379851
0.009993041866 0.007581118960 0.029339430854
0.019843408838 0.011521266773 0.081218034029
0.036156058311 0.018046323210 0.167131304741
0.059781372547 0.027496453375 0.291557997465
0.014370709658 0.023471150547 0.008799998090
0.018829895183 0.025254825130 0.032285053283
0.028680263087 0.029194973409 0.084163650870
0.044992908835 0.035720031708 0.170076921582
0.068618223071 0.045170161873 0.294503599405
0.033891364932 0.062512464821 0.015306883492
0.038350556046 0.064296148717 0.038791935891
0.048200920224 0.068236291409 0.090670540929
0.064513556659 0.074761345983 0.176583811641
0.088138878345 0.084211468697 0.301010459661
0.066218435764 0.127166613936 0.026082573459
0.070677615702 0.128950297832 0.049567624927
0.080527983606 0.132890447974 0.101446233690
0.096840627491 0.139415487647 0.187359496951
0.120465941727 0.148865610361 0.311786144972
0.113037161529 0.220804080367 0.041688814759
0.117496341467 0.222587749362 0.065173864365
0.127346724272 0.226527899504 0.117052473128
0.143659368157 0.233052954078 0.202965751290
0.167284682393 0.242503076792 0.327392399311
0.015723591670 0.011051524431 0.006332024001
0.020182777196 0.012835200876 0.029817074537
0.030033145100 0.016775347292 0.081695683300
0.046345792711 0.023300403729 0.167608946562
0.069971092045 0.032750535756 0.292035609484
0.024560444057 0.028725232929 0.009277642705
0.029019631445 0.030508909374 0.032762695104
0.038870003074 0.034449055791 0.084641300142
0.055182643235 0.040974110365 0.170554563403
0.078807957470 0.050424240530 0.294981241226
0.044081103057 0.067766554654 0.015784528106
0.048540290445 0.069550216198 0.039269581437
0.058390658349 0.073490366340 0.091148182750
0.074703298509 0.080015428364 0.177061438560
0.098328612745 0.089465551078 0.301488101482
0.076408170164 0.132420688868 0.026560215279
0.080867357552 0.134204357862 0.050045270473
0.090717725456 0.138144508004 0.101923868060
0.107030369341 0.144669562578 0.187837153673
0.130655705929 0.154119685292 0.312263816595
0.123226903379 0.226058155298 0.042166460305
0.127686083317 0.227841824293 0.065651513636
0.137536451221 0.231781959534 0.117530122399
0.153849095106 0.238307014108 0.203443393111
0.177474424243 0.247757151723 0.327870070934
0.038232769817 0.022657819092 0.007387141697
0.042691957206 0.024441495538 0.030872192234
0.052542321384 0.028381640092 0.082750797272
0.068854965270 0.034906700253 0.168664067984
0.092480279505 0.044356822968 0.293090730906
0.047069624066 0.040331527591 0.010332759470
0.051528811455 0.042115204036 0.033817812800
0.061379175633 0.046055346727 0.085696414113
0.077691815794 0.052580408752 0.171609699726
0.101317130029 0.062030535191 0.296036332846
0.066590271890 0.079372853041 0.016839643940
0.071049466729 0.081156514585 0.040324699134
0.080899827182 0.085096664727 0.092203304172
0.097212471068 0.091621726751 0.178116589785
0.120837785304 0.101071849465 0.302543252707
0.098917342722 0.144026979804 0.027615332976
0.103376522660 0.145810663700 0.051100388169
0.113226890564 0.149750798941 0.102978996933
0.129539534450 0.156275853515 0.188892260194
0.153164863586 0.165725991130 0.313318938017
0.145736083388 0.237664431334 0.043221578002
0.150195270777 0.239448115230 0.066706620157
0.160045638680 0.243388250470 0.118585236371
0.176358252764 0.249913305044 0.204498499632
0.199983596802 0.259363442659 0.328925162554
0.075508959591 0.041878357530 0.009134463035
0.079968139529 0.043662033975 0.032619517297
0.089818507433 0.047602180392 0.084498122334
0.106131158769 0.054127238691 0.170411393046
0.129756480455 0.063577368855 0.294838070869
0.084345810115 0.059552069753 0.012080080807
0.088804990053 0.061335742474 0.035565134138
0.098655365407 0.065275900066 0.087443739176
0.114968009293 0.071800954640 0.173357009888
0.138593330979 0.081251077354 0.297783643007
0.103866472840 0.098593384027 0.018586967140
0.108325652778 0.100377053022 0.042072020471
0.118176020682 0.104317203164 0.093950621784
0.134488672018 0.110842257738 0.179863885045
0.158114001155 0.120292387903 0.304290592670
0.136193558574 0.163247510791 0.029362658039
0.140652745962 0.165031194687 0.052847705781
0.150503113866 0.168971344829 0.104726314545
0.166815742850 0.175496399403 0.190639585257
0.190441071987 0.184946507215 0.315066218376
0.183012276888 0.256884962320 0.044968899339
0.187471464276 0.258668631315 0.068453952670
0.197321832180 0.262608796358 0.120332553983
0.213634476066 0.269133836031 0.206245824695
0.237259790301 0.278583973646 0.330672472715
0.129495427012 0.069715134799 0.011665078811
0.133954614401 0.071498803794 0.035150133073
0.143804982305 0.075438953936 0.087028734386
0.160117641091 0.081964008510 0.172941997647
0.183742940426 0.091414138675 0.297368675470
0.138332277536 0.087388843298 0.014610696584
0.142791464925 0.089172519743 0.038095753640
0.152641832829 0.093112662435 0.089974351227
0.168954476714 0.099637717009 0.175887614489
0.192579790950 0.109087854624 0.300314307213
0.157852932811 0.126430138946 0.021117582917
0.162312120199 0.128213822842 0.044602632523
0.172162488103 0.132153972983 0.096481233835
0.188475117087 0.138679027557 0.182394504547
0.212100446224 0.148129135370 0.306821197271
0.190180018544 0.191084295511 0.031893271953
0.194639191031 0.192867964506 0.055378325284
0.204489558935 0.196808099747 0.107256926596
0.220802217722 0.203333154321 0.193170204759
0.244427517056 0.212783291936 0.317596822977
0.236998736858 0.284721732140 0.047499515116
0.241457909346 0.286505401134 0.070984564722
0.251308292150 0.290445536375 0.122863180935
0.267620950937 0.296970635653 0.208776444197
0.291246265173 0.306420773268 0.333203077316
