graphics/cube/sRGB_D65_colorimetric_303.cube
TITLE "QA_sRGB_D65_colorimetric_303"
# Copyright (c) 2026 @xsscx David H Hoyt LLC
# https://xss.cx
# Profiles applied (by profile description):
# - sRGB D65 colorimetric
LUT_3D_SIZE 44
LUT_3D_INPUT_RANGE 0.147100001574 0.959699988365
0.627562642097 0.562518954277 0.552388906479
0.612020909786 0.563982844353 0.589009702206
0.595954835415 0.565441906452 0.622924983501
0.579313457012 0.566896200180 0.654617071152
0.562037348747 0.568345725536 0.684441983700
0.544055998325 0.569790542126 0.712671101093
0.525285303593 0.571230709553 0.739516973495
0.505623579025 0.572666287422 0.765149474144
0.484945595264 0.574097216129 0.789706707001
0.463094890118 0.575523674488 0.813303112984
0.439871251583 0.576945483685 0.836034238338
0.415011644363 0.578363001347 0.857981204987
0.388159602880 0.579775989056 0.879213273525
0.358811110258 0.581184625626 0.899790465832
0.326213628054 0.582588911057 0.919764757156
0.289154201746 0.583988904953 0.939181923866
0.245442718267 0.585384547710 0.958082020283
0.190285205841 0.586775958538 0.976501047611
0.107616074383 0.588163256645 0.994470894337
-0.099055007100 0.589546263218 1.012019872665
-0.343404442072 0.590925216675 1.029173612595
-0.587753891945 0.592299997807 1.045955657959
-0.832104086876 0.593670725822 1.062387108803
-1.076453447342 0.595037341118 1.078487038612
-1.320802092552 0.596400022507 1.094272851944
-1.565152287483 0.597758710384 1.109760999680
-1.809501051903 0.599113464355 1.124965906143
-2.053851127625 0.600464284420 1.139901518822
-2.298200607300 0.601811230183 1.154580116272
-2.542550802231 0.603154361248 1.169013500214
-2.786900281906 0.604493558407 1.183212518692
-3.031248807907 0.605829000473 1.197186946869
-3.275598287582 0.607160747051 1.210946440697
-3.519947767258 0.608488619328 1.224499821663
-3.764298677444 0.609812855721 1.237855195999
-4.008647918701 0.611133515835 1.251019954681
-4.252996921539 0.612450361252 1.264001607895
-4.497346401215 0.613763630390 1.276806712151
-4.741694927216 0.615073263645 1.289441823959
-4.986044406891 0.616379439831 1.301912903786
-5.230395317078 0.617681980133 1.314225435257
-5.474744796753 0.618981003761 1.326384902000
-5.719094276428 0.620276510715 1.338396430016
-5.963442802429 0.621568620205 1.350264549255
0.577898979187 0.624327361584 0.544957578182
0.560566902161 0.625608682632 0.582170963287
0.542523205280 0.626886665821 0.616565942764
0.523682415485 0.628161311150 0.648656070232
0.503941178322 0.629432559013 0.678817987442
0.483171999454 0.630700588226 0.707337021828
0.461215257645 0.631965279579 0.734435439110
0.437866359949 0.633226692677 0.760290443897
0.412855893373 0.634484946728 0.785045683384
0.385817587376 0.635739982128 0.808819532394
0.356231659651 0.636991798878 0.831710934639
0.323317348957 0.638240456581 0.853803515434
0.285807162523 0.639486014843 0.875168561935
0.241383850574 0.640728414059 0.895867884159
0.184860587120 0.641967713833 0.915954828262
0.097700498998 0.643204033375 0.935476183891
-0.119417399168 0.644437193871 0.954473197460
-0.363766819239 0.645667314529 0.972982466221
-0.608116269112 0.646894514561 0.991036593914
-0.852465689182 0.648118615150 1.008664608002
-1.096815109253 0.649339735508 1.025892853737
-1.341164588928 0.650557994843 1.042744994164
-1.585514783859 0.651773273945 1.059242606163
-1.829864144325 0.652985572815 1.075405001640
-2.074212789536 0.654195070267 1.091250181198
-2.318562984467 0.655401587486 1.106794476509
-2.562911748886 0.656605303288 1.122053027153
-2.807261943817 0.657806158066 1.137039542198
-3.051611185074 0.659004211426 1.151766777039
-3.295961380005 0.660199463367 1.166246652603
-3.540310859680 0.661391913891 1.180490016937
-3.784659624100 0.662581503391 1.194507122040
-4.029008865356 0.663768470287 1.208307385445
-4.273358345032 0.664952635765 1.221899867058
-4.517709255219 0.666134059429 1.235292792320
-4.762058734894 0.667312800884 1.248493790627
-5.006407260895 0.668488919735 1.261510372162
-5.250756740570 0.669662296772 1.274348974228
-5.495105743408 0.670832991600 1.287016391754
-5.739454746246 0.672001123428 1.299518704414
-5.983806133270 0.673166573048 1.311861395836
-6.228155136108 0.674329459667 1.324050068855
-6.472504615784 0.675489723682 1.336089730263
-6.716853618622 0.676647484303 1.347985148430
0.522073328495 0.679121136665 0.537395060062
0.502251565456 0.680270850658 0.575227797031
0.481390118599 0.681418061256 0.610121369362
0.459325909615 0.682562828064 0.642623543739
0.435849875212 0.683705031872 0.673133075237
0.410686075687 0.684844732285 0.701950192451
0.383458107710 0.685982048512 0.729307711124
0.353629320860 0.687116920948 0.755390644073
0.320389688015 0.688249349594 0.780348181725
0.282413303852 0.689379394054 0.804303169250
0.237245529890 0.690506994724 0.827357828617
0.179258316755 0.691632270813 0.849598705769
0.086789943278 0.692755162716 0.871099114418
-0.139779791236 0.693875670433 0.891922533512
-0.384129226208 0.694993853569 0.912123739719
-0.628479003906 0.696109712124 0.931750953197
-0.872828423977 0.697223246098 0.950846135616
-1.117177844048 0.698334515095 0.969446957111
-1.361527323723 0.699443459511 0.987586438656
-1.605876684189 0.700550079346 1.005294680595
-1.850226163864 0.701654493809 1.022598147392
-2.094575643539 0.702756643295 1.039521098137
-2.338925838470 0.703856587410 1.056085467339
-2.583275318146 0.704954266548 1.072311162949
-2.827623844147 0.706049740314 1.088216304779
-3.071974039078 0.707142949104 1.103817582130
-3.316322803497 0.708234071732 1.119130015373
-3.560672998428 0.709322929382 1.134167909622
-3.805022239685 0.710409700871 1.148944258690
-4.049372673035 0.711494266987 1.163471102715
-4.293722152710 0.712576687336 1.177759289742
-4.538070678711 0.713656961918 1.191819190979
-4.782420158386 0.714735150337 1.205660700798
-5.026769638062 0.715811192989 1.219292640686
-5.271120548248 0.716885149479 1.232723474503
-5.515470027924 0.717957079411 1.245960950851
-5.759818553925 0.719026803970 1.259012341499
-6.004168033600 0.720094561577 1.271884918213
-6.248516559601 0.721160233021 1.284584879875
-6.492866039276 0.722223877907 1.297118544579
-6.737216949463 0.723285496235 1.309491634369
-6.981566429138 0.724345088005 1.321709632874
-7.225915908813 0.725402653217 1.333777666092
-7.470264434814 0.726458191872 1.345700502396
0.457426846027 0.728714764118 0.529694914818
0.433821797371 0.729764044285 0.568175911903
0.408502161503 0.730811417103 0.603588223457
0.381080687046 0.731856822968 0.636517107487
0.351003587246 0.732900321484 0.667385280132
0.317429840565 0.733941912651 0.696509003639
0.278971254826 0.734981477261 0.724132597446
0.233023703098 0.736019253731 0.750448882580
0.173462271690 0.737055063248 0.775613307953
0.074555598199 0.738088905811 0.799753248692
-0.160141408443 0.739121019840 0.822974562645
-0.404491215944 0.740151166916 0.845366358757
-0.648840665817 0.741179406643 0.867004454136
-0.893190085888 0.742205858231 0.887953996658
-1.137539505959 0.743230462074 0.908271372318
-1.381889343262 0.744253277779 0.928005874157
-1.626238703728 0.745274126530 0.947200715542
-1.870588183403 0.746293246746 0.965894162655
-2.114937543869 0.747310578823 0.984120309353
-2.359287023544 0.748326063156 1.001909613609
-2.603636503220 0.749339699745 1.019289255142
-2.847985982895 0.750351667404 1.036283969879
-3.092336177826 0.751361787319 1.052915811539
-3.336685419083 0.752370178699 1.069205403328
-3.581034183502 0.753376722336 1.085170984268
-3.825384378433 0.754381597042 1.100829720497
-4.069733142853 0.755384743214 1.116196751595
-4.314083099365 0.756386041641 1.131286621094
-4.558432579041 0.757385730743 1.146112561226
-4.802783012390 0.758383691311 1.160686612129
-5.047132015228 0.759379923344 1.175019979477
-5.291481018066 0.760374426842 1.189123153687
-5.535830497742 0.761367201805 1.203006148338
-5.780179977417 0.762358367443 1.216677904129
-6.024530887604 0.763347804546 1.230146884918
-6.268880367279 0.764335572720 1.243421077728
-6.513228893280 0.765321731567 1.256507873535
-6.757578372955 0.766306161880 1.269414305687
-7.001926898956 0.767288923264 1.282147169113
-7.246276378632 0.768270134926 1.294712424278
-7.490627288818 0.769249677658 1.307116150856
-7.734976768494 0.770227611065 1.319363594055
-7.979326248169 0.771203875542 1.331460118294
-8.223674774170 0.772178530693 1.343410611153
0.378684848547 0.774262964725 0.521850109100
0.348353683949 0.775232672691 0.561010539532
0.314436435699 0.776200711727 0.596962988377
0.275478422642 0.777167201042 0.630334198475
0.228712916374 0.778132140636 0.661572754383
0.167452126741 0.779095530510 0.691012263298
0.060441568494 0.780057311058 0.718908846378
-0.180504560471 0.781017541885 0.745464384556
-0.424854367971 0.781976342201 0.770840406418
-0.669204175472 0.782933473587 0.795169293880
-0.913553237915 0.783889174461 0.818560421467
-1.157903075218 0.784843266010 0.841105997562
-1.402252435684 0.785795867443 0.862884163857
-1.646601915359 0.786746978760 0.883961915970
-1.890951275826 0.787696599960 0.904397308826
-2.135301113129 0.788644671440 0.924240767956
-2.379650592804 0.789591312408 0.943536639214
-2.624000072479 0.790536463261 0.962324082851
-2.868349313736 0.791480123997 0.980637967587
-3.112698793411 0.792422294617 0.998509228230
-3.357048273087 0.793363034725 1.015965938568
-3.601397752762 0.794302284718 1.033033132553
-3.845747947693 0.795240104198 1.049733400345
-4.090097427368 0.796176552773 1.066087484360
-4.334445953369 0.797111392021 1.082114219666
-4.578796386719 0.798044919968 1.097830891609
-4.823144912720 0.798976957798 1.113253235817
-5.067494869232 0.799907624722 1.128395557404
-5.311844348907 0.800836861134 1.143271446228
-5.556194782257 0.801764667034 1.157893180847
-5.800544261932 0.802691102028 1.172272086143
-6.044892787933 0.803616166115 1.186419010162
-6.289242267609 0.804539740086 1.200343608856
-6.533591747284 0.805461943150 1.214055418968
-6.777942657471 0.806382894516 1.227563023567
-7.022292137146 0.807302355766 1.240874171257
-7.266640663147 0.808220446110 1.253996610641
-7.510990142822 0.809137165546 1.266937375069
-7.755338668823 0.810052514076 1.279703140259
-7.999688148499 0.810966610909 1.292300343513
-8.244039535522 0.811879277229 1.304734826088
-8.488388061523 0.812790572643 1.317011952400
-8.732737541199 0.813700616360 1.329137206078
-8.977087020874 0.814609289169 1.341115593910
0.271933257580 0.816553115845 0.513853013515
0.224308699369 0.817457616329 0.553726434708
0.161205887794 0.818360805511 0.590242207050
0.043368428946 0.819262742996 0.624072194099
-0.200867533684 0.820163369179 0.655693352222
-0.445216953754 0.821062624454 0.685458123684
-0.689566195011 0.821960628033 0.713635385036
-0.933915615082 0.822857320309 0.740436077118
-1.178265452385 0.823752820492 0.766028583050
-1.422615289688 0.824646949768 0.790550351143
-1.666964292526 0.825539827347 0.814114809036
-1.911314129829 0.826431453228 0.836817145348
-2.155663490295 0.827321887016 0.858737885952
-2.400012969971 0.828210949898 0.879946053028
-2.644362449646 0.829098820686 0.900501191616
-2.888712167740 0.829985380173 0.920455276966
-3.133061647415 0.830870807171 0.939853608608
-3.377411127090 0.831754922867 0.958736360073
-3.621760368347 0.832637846470 0.977139055729
-3.866109848022 0.833519458771 0.995093524456
-4.110459327698 0.834399998188 1.012628316879
-4.354808807373 0.835279226303 1.029768586159
-4.599158763885 0.836157202721 1.046538114548
-4.843508243561 0.837034046650 1.062957644463
-5.087857246399 0.837909638882 1.079046010971
-5.332207202911 0.838784039021 1.094821333885
-5.576555728912 0.839657247066 1.110299229622
-5.820906162262 0.840529263020 1.125494480133
-6.065255641937 0.841400086880 1.140420794487
-6.309605598450 0.842269778252 1.155090689659
-6.553955078125 0.843138158321 1.169515609741
-6.798303604126 0.844005525112 1.183706521988
-7.042653083801 0.844871580601 1.197673320770
-7.287002563477 0.845736563206 1.211425542831
-7.531353473663 0.846600353718 1.224971890450
-7.775702953339 0.847463011742 1.238320231438
-8.020051956177 0.848324477673 1.251478552818
-8.264401435852 0.849184870720 1.264453887939
-8.508749961853 0.850044012070 1.277252912521
-8.753099441528 0.850902140141 1.289882063866
-8.997449874878 0.851759016514 1.302347540855
-9.241799354553 0.852614820004 1.314654707909
-9.486148834229 0.853469431400 1.326808810234
-9.730497360229 0.854323029518 1.338815212250
0.023121049628 0.856149256229 0.505695402622
-0.221228569746 0.856999337673 0.546318352222
-0.465577811003 0.857848227024 0.583422005177
-0.709927439690 0.858696043491 0.617728412151
-0.954277038574 0.859542727470 0.649745225906
-1.198626518250 0.860388398170 0.679845035076
-1.442975759506 0.861232936382 0.708310723305
-1.687325119972 0.862076282501 0.735362827778
-1.931674957275 0.862918674946 0.761176943779
-2.176024675369 0.863759994507 0.785895884037
-2.420373678207 0.864600181580 0.809637129307
-2.664723634720 0.865439295769 0.832499146461
-2.909073114395 0.866277337074 0.854565083981
-3.153422355652 0.867114305496 0.875905811787
-3.397771835327 0.867950260639 0.896582722664
-3.642121791840 0.868785083294 0.916649103165
-3.886471033096 0.869618892670 0.936151325703
-4.130820751190 0.870451688766 0.955130755901
-4.375169754028 0.871283352375 0.973623573780
-4.619519233704 0.872114062309 0.991662204266
-4.863868713379 0.872943639755 1.009275913239
-5.108218193054 0.873772263527 1.026490449905
-5.352568626404 0.874599814415 1.043329834938
-5.596918106079 0.875426352024 1.059815168381
-5.841266632080 0.876251876354 1.075966238976
-6.085616588593 0.877076327801 1.091800570488
-6.329965591431 0.877899765968 1.107334733009
-6.574315547943 0.878722250462 1.122583389282
-6.818665027618 0.879543662071 1.137560606003
-7.063014984131 0.880364060402 1.152279138565
-7.307364463806 0.881183445454 1.166750311852
-7.551713466644 0.882001876831 1.180985689163
-7.796062946320 0.882819294930 1.194994926453
-8.040411949158 0.883635699749 1.208787798882
-8.284763336182 0.884451091290 1.222373247147
-8.529112815857 0.885265588760 1.235759258270
-8.773461341858 0.886078953743 1.248953700066
-9.017810821533 0.886891424656 1.261963725090
-9.262159347534 0.887702882290 1.274796366692
-9.506508827209 0.888513386250 1.287457823753
-9.750859260559 0.889322936535 1.299954414368
-9.995208740234 0.890131533146 1.312291741371
-10.239558219910 0.890939116478 1.324475049973
-10.483906745911 0.891745686531 1.336509346962
-0.730289995670 0.893471956253 0.497368097305
-0.974639594555 0.894275605679 0.538780093193
-1.218988895416 0.895078241825 0.576498150826
-1.463338494301 0.895879924297 0.611299633980
-1.707688093185 0.896680772305 0.643725872040
-1.952037572861 0.897480547428 0.674171328545
-2.196386814117 0.898279428482 0.702933549881
-2.440736293793 0.899077415466 0.730243563652
-2.685086011887 0.899874448776 0.756284594536
-2.929435729980 0.900670528412 0.781204998493
-3.173784732819 0.901465713978 0.805126786232
-3.418134689331 0.902259945869 0.828151583672
-3.662484169006 0.903053224087 0.850365221500
-3.906833410263 0.903845667839 0.871840894222
-4.151183128357 0.904637157917 0.892641544342
-4.395532608032 0.905427694321 0.912821948528
-4.639882087708 0.906217396259 0.932429671288
-4.884231567383 0.907006144524 0.951507031918
-5.128581047058 0.907793939114 0.970091044903
-5.372930526733 0.908580899239 0.988214910030
-5.617280006409 0.909366965294 1.005908489227
-5.861629486084 0.910152077675 1.023198246956
-6.105979442596 0.910936355591 1.040108323097
-6.350328922272 0.911719799042 1.056660532951
-6.594677448273 0.912502229214 1.072874426842
-6.839027881622 0.913283824921 1.088768720627
-7.083376407623 0.914064466953 1.104359626770
-7.327726840973 0.914844334126 1.119662284851
-7.572075843811 0.915623307228 1.134690761566
-7.816426277161 0.916401386261 1.149458289146
-8.060775756836 0.917178571224 1.163976311684
-8.305124282837 0.917954981327 1.178256392479
-8.549473762512 0.918730378151 1.192308425903
-8.793823242188 0.919505059719 1.206142425537
-9.038174629211 0.920278847218 1.219767332077
-9.282523155212 0.921051740646 1.233191132545
-9.526872634888 0.921823740005 1.246421933174
-9.771222114563 0.922594845295 1.259467005730
-10.015570640564 0.923365235329 1.272333383560
-10.259920120239 0.924134731293 1.285027384758
-10.504270553589 0.924903333187 1.297555446625
-10.748620033264 0.925671160221 1.309923052788
-10.992969512939 0.926438152790 1.322135448456
-11.237318038940 0.927204251289 1.334198355675
-1.483701825142 0.928844094276 0.488861203194
-1.728051424026 0.929607629776 0.531105518341
-1.972400665283 0.930370271206 0.569466412067
-2.216750383377 0.931132078171 0.604782819748
-2.461099863052 0.931893169880 0.637633025646
-2.705449342728 0.932653367519 0.668435096741
-2.949798583984 0.933412730694 0.697502374649
-3.194148063660 0.934171319008 0.725077092648
-3.438497781754 0.934929013252 0.751350522041
-3.682847738266 0.935685992241 0.776477038860
-3.927196741104 0.936442136765 0.800583004951
-4.171546459198 0.937197387218 0.823773801327
-4.415895938873 0.937951982021 0.846137940884
-4.660245418549 0.938705742359 0.867750883102
-4.904594898224 0.939458608627 0.888677299023
-5.148944377899 0.940210700035 0.908973395824
-5.393293857574 0.940962076187 0.928688287735
-5.637643337250 0.941712617874 0.947864949703
-5.881992816925 0.942462325096 0.966541469097
-6.126342296600 0.943211257458 0.984751760960
-6.370691776276 0.943959474564 1.002526283264
-6.615041255951 0.944706857204 1.019891858101
-6.859391212463 0.945453464985 1.036873579025
-7.103740692139 0.946199238300 1.053493142128
-7.348089218140 0.946944296360 1.069770932198
-7.592439651489 0.947688639164 1.085725665092
-7.836788177490 0.948432147503 1.101373791695
-8.081138610840 0.949174821377 1.116730928421
-8.325488090515 0.949916779995 1.131811380386
-8.569838523865 0.950658023357 1.146628260612
-8.814187049866 0.951398432255 1.161193490028
-9.058536529541 0.952138125896 1.175518631935
-9.302886009216 0.952876985073 1.189613938332
-9.547234535217 0.953615248203 1.203489303589
-9.791585922241 0.954352557659 1.217153906822
-10.035935401917 0.955089271069 1.230615854263
-10.280283927917 0.955825150013 1.243883252144
-10.524633407593 0.956560194492 1.256963849068
-10.768981933594 0.957294642925 1.269863963127
-11.013331413269 0.958028256893 1.282590866089
-11.257682800293 0.958761155605 1.295150399208
-11.502032279968 0.959493458271 1.307548403740
-11.746381759644 0.960224807262 1.319790601730
-11.990730285645 0.960955560207 1.331881880760
-2.237112760544 0.962519824505 0.480163812637
-2.481462478638 0.963248193264 0.523287534714
-2.725811719894 0.963975846767 0.562321960926
-2.970161437988 0.964702785015 0.598174571991
-3.214510917664 0.965429008007 0.631464242935
-3.458860635757 0.966154515743 0.662634432316
-3.703209638596 0.966879189014 0.692015826702
-3.947559118271 0.967603266239 0.719862341881
-4.191908836365 0.968326628208 0.746373891830
-4.436258792877 0.969049274921 0.771711111069
-4.680607795715 0.969771087170 0.796005308628
-4.924957752228 0.970492303371 0.819365382195
-5.169306755066 0.971212804317 0.841882765293
-5.413656234741 0.971932590008 0.863635301590
-5.658005714417 0.972651660442 0.884689569473
-5.902355670929 0.973370015621 0.905103385448
-6.146705150604 0.974087655544 0.924926817417
-6.391054630280 0.974804580212 0.944204270840
-6.635404109955 0.975520789623 0.962974488735
-6.879753112793 0.976236402988 0.981272399426
-7.124102592468 0.976951301098 0.999128639698
-7.368452072144 0.977665483952 1.016571283340
-7.612802505493 0.978378951550 1.033625125885
-7.857151985168 0.979091703892 1.050312995911
-8.101500511169 0.979803860188 1.066655278206
-8.345850944519 0.980515301228 1.082671046257
-8.590199470520 0.981226027012 1.098376989365
-8.834549903870 0.981936156750 1.113789081573
-9.078899383545 0.982645571232 1.128921866417
-9.323248863220 0.983354151249 1.143788814545
-9.567598342896 0.984062254429 1.158401608467
-9.811946868896 0.984769523144 1.172772288322
-10.056296348572 0.985476195812 1.186911225319
-10.300645828247 0.986182272434 1.200828313828
-10.544997215271 0.986887633801 1.214532971382
-10.789346694946 0.987592279911 1.228033423424
-11.033695220947 0.988296210766 1.241337776184
-11.278044700623 0.988999545574 1.254453659058
-11.522393226624 0.989702284336 1.267388105392
-11.766742706299 0.990404307842 1.280147910118
-12.011093139648 0.991105616093 1.292739391327
-12.255442619324 0.991806328297 1.305168151855
-12.499792098999 0.992506325245 1.317439913750
-12.744140625000 0.993205726147 1.329559922218
-2.990523099899 0.994703114033 0.471263945103
-3.234872817993 0.995400488377 0.515318751335
-3.479221820831 0.996097147465 0.555059909821
-3.723571538925 0.996793210506 0.591471433640
-3.967921495438 0.997488677502 0.625216841698
-4.212270736694 0.998183429241 0.656767427921
-4.456619739532 0.998877465725 0.686472237110
-4.700969219208 0.999570906162 0.714598000050
-4.945319175720 1.000263810158 0.741353571415
-5.189669132233 1.000956058502 0.766906440258
-5.434018135071 1.001647710800 0.791392803192
-5.678367614746 1.002338647842 0.814925491810
-5.922717094421 1.003028988838 0.837599098682
-6.167066574097 1.003718495369 0.859493732452
-6.411416053772 1.004407763481 0.880677998066
-6.655766010284 1.005096077919 0.901211261749
-6.900115489960 1.005783796310 0.921145021915
-7.144464969635 1.006471037865 0.940524637699
-7.388813972473 1.007157564163 0.959389984608
-7.633163452148 1.007843494415 0.977776467800
-7.877512931824 1.008528828621 0.995715677738
-8.121862411499 1.009213566780 1.013236165047
-8.366212844849 1.009897589684 1.030363202095
-8.610562324524 1.010581016541 1.047120094299
-8.854910850525 1.011263966560 1.063527584076
-9.099261283875 1.011946082115 1.079604864120
-9.343609809875 1.012627720833 1.095369338989
-9.587960243225 1.013308763504 1.110837101936
-9.832308769226 1.013989210129 1.126022696495
-10.076659202576 1.014669060707 1.140939831734
-10.321008682251 1.015348196030 1.155600786209
-10.565357208252 1.016026854515 1.170017361641
-10.809706687927 1.016704797745 1.184200286865
-11.054056167603 1.017382264137 1.198159456253
-11.298407554626 1.018059015274 1.211904287338
-11.542757034302 1.018735170364 1.225443482399
-11.787105560303 1.019410848618 1.238785147667
-12.031455039978 1.020085811615 1.251936793327
-12.275803565979 1.020760297775 1.264905929565
-12.520153045654 1.021434068680 1.277698874474
-12.764503479004 1.022107243538 1.290322303772
-13.008852958679 1.022779941559 1.302782058716
-13.253203392029 1.023452043533 1.315083742142
-13.497550964355 1.024123549461 1.327232480049
-3.743936300278 1.025561451912 0.462148189545
-3.988286256790 1.026230931282 0.507190942764
-4.232635021210 1.026900053024 0.547674715519
-4.476984977722 1.027568459511 0.584669530392
-4.721334934235 1.028236389160 0.618888020515
-4.965684413910 1.028903722763 0.650831878185
-5.210033416748 1.029570579529 0.680869996548
-5.454382896423 1.030236721039 0.709282696247
-5.698732376099 1.030902266502 0.736288547516
-5.943082332611 1.031567335129 0.762062072754
-6.187431335449 1.032231807709 0.786744773388
-6.431781291962 1.032895684242 0.810453712940
-6.676130771637 1.033559083939 0.833286464214
-6.920479774475 1.034221768379 0.855325698853
-7.164829730988 1.034884095192 0.876642227173
-7.409179210663 1.035545706749 0.897296905518
-7.653528690338 1.036206722260 0.917342662811
-7.897878170013 1.036867260933 0.936825931072
-8.142227172852 1.037527203560 0.955787599087
-8.386576652527 1.038186669350 0.974263966084
-8.630926132202 1.038845419884 0.992287218571
-8.875275611877 1.039503812790 1.009886503220
-9.119626045227 1.040161490440 1.027087569237
-9.363975524902 1.040818691254 1.043914198875
-9.608324050903 1.041475296021 1.060387492180
-9.852674484253 1.042131423950 1.076527118683
-10.097023010254 1.042786955833 1.092350721359
-10.341373443604 1.043441891670 1.107874512672
-10.585722923279 1.044096350670 1.123113393784
-10.830072402954 1.044750332832 1.138081431389
-11.074421882629 1.045403718948 1.152790904045
-11.318770408630 1.046056389809 1.167253732681
-11.563119888306 1.046708703041 1.181480884552
