graphics/cube/srgbCalc++Test_970.cube
TITLE "QA_srgbCalc++Test_970"
# Copyright (c) 2026 @xsscx David H Hoyt LLC
# https://xss.cx
# Profiles applied (by profile description):
# - sRGB calc tester
LUT_3D_SIZE 9
LUT_3D_INPUT_RANGE 0.19210 0.85650
0.93838 0.13226 0.63388
0.94410 0.03751 0.79408
0.94978 -0.45593 0.92028
0.95542 -0.94938 1.02697
0.96101 -1.44283 1.12065
0.96656 -1.93628 1.20489
0.97206 -2.42973 1.28191
0.97753 -2.92317 1.35317
0.98296 -3.41662 1.41970
0.85557 0.61403 0.63833
0.86203 0.58114 0.79741
0.86842 0.54568 0.92302
0.87476 0.50701 1.02934
0.88104 0.46421 1.12276
0.88726 0.41579 1.20681
0.89342 0.35914 1.28367
0.89953 0.28881 1.35481
0.90558 0.18847 1.42124
0.76058 0.82923 0.64274
0.76811 0.80735 0.80071
0.77554 0.78467 0.92575
0.78288 0.76110 1.03170
0.79013 0.73653 1.12487
0.79730 0.71085 1.20872
0.80438 0.68390 1.28543
0.81138 0.65550 1.35644
0.81831 0.62541 1.42277
0.64685 0.98846 0.64711
0.65611 0.97121 0.80400
0.66521 0.95355 0.92847
0.67415 0.93544 1.03406
0.68294 0.91685 1.12697
0.69158 0.89776 1.21063
0.70009 0.87811 1.28719
0.70846 0.85787 1.35808
0.71671 0.83697 1.42431
0.49868 1.11935 0.65144
0.51150 1.10478 0.80727
0.52393 1.08994 0.93118
0.53599 1.07483 1.03641
0.54772 1.05943 1.12906
0.55914 1.04373 1.21254
0.57027 1.02770 1.28895
0.58113 1.01134 1.35971
0.59173 0.99461 1.42584
0.24692 1.23247 0.65573
0.27547 1.21967 0.81052
0.30092 1.20670 0.93388
0.32405 1.19353 1.03875
0.34535 1.18017 1.13115
0.36517 1.16660 1.21444
0.38377 1.15282 1.29070
0.40132 1.13882 1.36134
0.41798 1.12458 1.42737
-1.13952 1.33314 0.65999
-0.98422 1.32164 0.81376
-0.82891 1.31000 0.93657
-0.67361 1.29823 1.04109
-0.51830 1.28631 1.13324
-0.36300 1.27423 1.21633
-0.20769 1.26201 1.29244
-0.05239 1.24962 1.36297
0.10292 1.23706 1.42889
-3.24766 1.42451 0.66421
-3.09236 1.41400 0.81698
-2.93705 1.40338 0.93924
-2.78175 1.39266 1.04342
-2.62644 1.38182 1.13532
-2.47114 1.37087 1.21823
-2.31583 1.35979 1.29419
-2.16053 1.34860 1.36459
-2.00522 1.33728 1.43042
-5.35581 1.50859 0.66840
-5.20050 1.49887 0.82018
-5.04520 1.48906 0.94191
-4.88989 1.47916 1.04574
-4.73459 1.46918 1.13739
-4.57928 1.45910 1.22011
-4.42397 1.44893 1.29593
-4.26867 1.43866 1.36621
-4.11336 1.42829 1.43194
1.15442 -2.95184 0.56359
1.15877 -3.44529 0.74321
1.16310 -3.93874 0.87890
1.16741 -4.43218 0.99143
1.17170 -4.92563 1.08914
1.17597 -5.41908 1.17638
1.18022 -5.91253 1.25573
1.18445 -6.40597 1.32886
1.18865 -6.89942 1.39694
1.09301 0.28407 0.56876
1.09769 0.18070 0.74683
1.10235 0.18776 0.88181
1.10697 -0.30569 0.99391
1.11158 -0.79914 1.09134
1.11615 -1.29259 1.17836
1.12071 -1.78603 1.25754
1.12524 -2.27948 1.33054
1.12974 -2.77293 1.39852
1.02662 0.65380 0.57386
1.03170 0.62360 0.75043
1.03676 0.59140 0.88471
1.04178 0.55678 0.99639
1.04676 0.51917 1.09352
1.05172 0.47775 1.18034
1.05665 0.43125 1.25935
1.06154 0.37750 1.33222
1.06641 0.31224 1.40008
0.95396 0.85667 0.57891
0.95957 0.83574 0.75401
0.96513 0.81409 0.88760
0.97064 0.79167 0.99886
0.97612 0.76837 1.09570
0.98156 0.74412 1.18231
0.98695 0.71879 1.26116
0.99231 0.69225 1.33389
0.99763 0.66431 1.40165
0.87313 1.01038 0.58390
0.87942 0.99363 0.75756
0.88565 0.97650 0.89047
0.89183 0.95897 1.00132
0.89795 0.94100 1.09788
0.90402 0.92256 1.18427
0.91003 0.90363 1.26296
0.91599 0.88415 1.33556
0.92190 0.86410 1.40322
0.78099 1.13800 0.58883
0.78827 1.12374 0.76110
0.79546 1.10924 0.89333
0.80256 1.09449 1.00377
0.80958 1.07946 1.10005
0.81652 1.06415 1.18623
0.82339 1.04854 1.26476
0.83018 1.03262 1.33723
0.83690 1.01636 1.40478
0.67185 1.24889 0.59372
0.68068 1.23633 0.76461
0.68936 1.22359 0.89618
0.69790 1.21067 1.00621
0.70631 1.19756 1.10221
0.71459 1.18426 1.18819
0.72275 1.17076 1.26655
0.73079 1.15704 1.33890
0.73871 1.14311 1.40634
0.53291 1.34794 0.59855
0.54472 1.33662 0.76810
0.55622 1.32516 0.89902
0.56742 1.31356 1.00865
0.57835 1.30183 1.10437
0.58902 1.28995 1.19014
0.59944 1.27793 1.26835
0.60964 1.26575 1.34056
0.61963 1.25341 1.40790
0.31826 1.43806 0.60334
0.33999 1.42769 0.77157
0.36017 1.41721 0.90185
0.37907 1.40663 1.01107
0.39687 1.39593 1.10652
0.41375 1.38513 1.19209
0.42981 1.37421 1.27014
0.44516 1.36318 1.34223
0.45988 1.35202 1.40945
1.32663 -6.43464 0.47984
1.33024 -6.92809 0.68733
1.33384 -7.42154 0.83478
1.33743 -7.91498 0.95411
1.34101 -8.40843 1.05637
1.34457 -8.90188 1.14691
1.34812 -9.39533 1.22879
1.35166 -9.88877 1.30394
1.35519 -10.38222 1.37368
1.27617 -2.30815 0.48615
1.27998 -2.80159 0.69134
1.28378 -3.29504 0.83789
1.28755 -3.78849 0.95672
1.29132 -4.28194 1.05866
1.29507 -4.77539 1.14896
1.29880 -5.26883 1.23066
1.30252 -5.76228 1.30566
1.30622 -6.25573 1.37528
1.22289 0.37408 0.49236
1.22692 0.30793 0.69532
1.23094 0.21813 0.84099
1.23493 0.33801 0.95933
1.23891 -0.15544 1.06093
1.24287 -0.64889 1.15100
1.24682 -1.14234 1.23252
1.25075 -1.63578 1.30738
1.25466 -2.12923 1.37689
1.16630 0.69066 0.49848
1.17060 0.66264 0.69926
1.17487 0.63299 0.84408
1.17912 0.60144 0.96192
1.18335 0.56761 1.06321
1.18757 0.53098 1.15304
1.19176 0.49083 1.23438
1.19593 0.44605 1.30910
1.20008 0.39482 1.37849
1.10578 0.88300 0.50450
1.11039 0.86291 0.70318
1.11497 0.84218 0.84715
1.11953 0.82076 0.96451
1.12407 0.79858 1.06547
1.12858 0.77556 1.15507
1.13306 0.75162 1.23623
1.13753 0.72663 1.31082
1.14197 0.70047 1.38009
1.04048 1.03168 0.51043
1.04548 1.01540 0.70708
1.05044 0.99877 0.85020
1.05538 0.98176 0.96708
1.06028 0.96435 1.06773
1.06515 0.94652 1.15710
1.07000 0.92823 1.23809
1.07481 0.90945 1.31253
1.07960 0.89014 1.38169
0.96922 1.15624 0.51628
0.97471 1.14229 0.71094
0.98015 1.12811 0.85324
0.98556 1.11368 0.96965
0.99093 1.09901 1.06998
0.99626 1.08406 1.15912
1.00155 1.06884 1.23993
1.00680 1.05333 1.31424
1.01202 1.03750 1.38328
0.89024 1.26503 0.52205
0.89637 1.25269 0.71478
0.90245 1.24017 0.85627
0.90848 1.22749 0.97221
0.91445 1.21462 1.07222
0.92038 1.20157 1.16114
0.92625 1.18833 1.24178
0.93207 1.17489 1.31594
0.93785 1.16124 1.38488
0.80073 1.36253 0.52773
0.80777 1.35137 0.71859
0.81474 1.34008 0.85928
0.82162 1.32866 0.97476
0.82843 1.31711 1.07446
0.83517 1.30542 1.16315
0.84184 1.29358 1.24362
0.84844 1.28160 1.31765
0.85497 1.26947 1.38647
1.47305 -9.91744 0.37188
1.47619 -10.41089 0.62484
1.47932 -10.90434 0.78736
1.48245 -11.39779 0.91475
1.48556 -11.89123 1.02219
1.48867 -12.38468 1.11640
1.49176 -12.87813 1.20104
1.49485 -13.37158 1.27836
1.49793 -13.86502 1.34987
1.42948 -5.79095 0.38049
1.43275 -6.28440 0.62937
1.43601 -6.77784 0.79072
1.43926 -7.27129 0.91752
1.44250 -7.76474 1.02458
1.44574 -8.25819 1.11852
1.44896 -8.75163 1.20296
1.45217 -9.24508 1.28013
1.45537 -9.73853 1.35151
1.38405 -1.66445 0.38886
1.38746 -2.15790 0.63386
1.39087 -2.65135 0.79406
1.39426 -3.14479 0.92027
1.39764 -3.63824 1.02696
1.40101 -4.13169 1.12064
1.40437 -4.62514 1.20488
1.40772 -5.11859 1.28190
1.41106 -5.61203 1.35316
1.33651 0.44328 0.39702
1.34009 0.39159 0.63830
1.34365 0.32978 0.79738
1.34721 0.24947 0.92301
1.35075 0.11479 1.02933
1.35428 -0.00519 1.12275
1.35780 -0.49864 1.20680
1.36130 -0.99209 1.28366
1.36479 -1.48554 1.35480
1.28658 0.72514 0.40498
1.29034 0.69891 0.64271
1.29410 0.67133 0.80069
1.29783 0.64221 0.92574
1.30156 0.61127 1.03169
1.30527 0.57818 1.12485
1.30896 0.54247 1.20871
1.31264 0.50349 1.28542
1.31631 0.46027 1.35643
1.23390 0.90834 0.41275
1.23788 0.88900 0.64708
1.24185 0.86909 0.80398
1.24580 0.84857 0.92846
1.24973 0.82736 1.03405
1.25365 0.80542 1.12695
1.25755 0.78267 1.21062
1.26143 0.75901 1.28718
1.26530 0.73435 1.35807
1.17802 1.05241 0.42035
1.18226 1.03657 0.65141
1.18648 1.02039 0.80725
1.19068 1.00387 0.93116
1.19485 0.98698 1.03640
1.19901 0.96970 1.12905
1.20315 0.95200 1.21252
1.20727 0.93385 1.28893
1.21137 0.91522 1.35970
1.11836 1.17410 0.42778
1.12290 1.16044 0.65570
1.12741 1.14656 0.81050
1.13191 1.13245 0.93386
1.13637 1.11810 1.03874
1.14082 1.10350 1.13114
1.14524 1.08864 1.21442
1.14964 1.07351 1.29069
1.15402 1.05808 1.36133
1.05410 1.28090 0.43505
1.05902 1.26876 0.65996
1.06390 1.25646 0.81374
1.06875 1.24400 0.93655
1.07357 1.23137 1.04107
1.07837 1.21856 1.13322
1.08313 1.20557 1.21632
1.08787 1.19239 1.29243
1.09258 1.17901 1.36296
1.60207 -13.40024 0.19695
1.60487 -13.89369 0.55305
1.60767 -14.38714 0.73587
1.61046 -14.88059 0.87302
1.61325 -15.37403 0.98642
1.61603 -15.86748 1.08473
1.61880 -16.36093 1.17240
1.62157 -16.85438 1.25208
1.62433 -17.34783 1.32548
1.56332 -9.27375 0.21437
1.56622 -9.76720 0.55834
1.56911 -10.26064 0.73954
1.57199 -10.75409 0.87596
1.57487 -11.24754 0.98892
1.57774 -11.74099 1.08693
1.58060 -12.23444 1.17439
1.58346 -12.72788 1.25390
1.58631 -13.22133 1.32716
1.52322 -5.14725 0.23033
1.52622 -5.64070 0.56356
1.52921 -6.13415 0.74318
1.53220 -6.62760 0.87888
1.53518 -7.12104 0.99141
1.53815 -7.61449 1.08913
1.54112 -8.10794 1.17637
1.54407 -8.60139 1.25571
1.54702 -9.09484 1.32885
1.48164 -1.02076 0.24513
1.48476 -1.51421 0.56872
1.48786 -2.00765 0.74681
1.49096 -2.50110 0.88179
1.49405 -2.99455 0.99390
1.49714 -3.48800 1.09132
1.50021 -3.98144 1.17835
1.50327 -4.47489 1.25753
1.50633 -4.96834 1.33053
1.43842 0.50110 0.25898
1.44167 0.45760 0.57383
1.44490 0.40819 0.75041
1.44813 0.35001 0.88469
1.45134 0.27685 0.99637
1.45454 0.16841 1.09351
1.45774 0.14505 1.18032
1.46093 -0.34840 1.25934
1.46410 -0.84184 1.33221
1.39338 0.75761 0.27202
1.39677 0.73289 0.57888
1.40014 0.70703 0.75398
1.40351 0.67988 0.88758
1.40686 0.65125 0.99884
1.41020 0.62090 1.09569
1.41353 0.58851 1.18229
1.41685 0.55365 1.26114
1.42016 0.51575 1.33388
1.34629 0.93278 0.28437
1.34983 0.91412 0.58387
1.35337 0.89495 0.75754
1.35689 0.87522 0.89045
1.36040 0.85489 1.00130
1.36389 0.83389 1.09787
1.36738 0.81218 1.18426
1.37085 0.78969 1.26295
1.37431 0.76632 1.33555
1.29687 1.07262 0.29612
1.30060 1.05718 0.58880
1.30431 1.04143 0.76107
1.30801 1.02536 0.89331
1.31169 1.00894 1.00375
1.31536 0.99216 1.10004
1.31902 0.97500 1.18622
1.32266 0.95743 1.26475
1.32630 0.93942 1.33722
1.24478 1.19161 0.30734
1.24872 1.17822 0.59369
1.25264 1.16462 0.76459
1.25654 1.15081 0.89616
1.26043 1.13677 1.00619
1.26430 1.12250 1.10220
1.26816 1.10798 1.18818
1.27200 1.09320 1.26654
1.27583 1.07815 1.33889
1.71836 -16.88305 -0.31476
1.72092 -17.37650 0.46684
1.72346 -17.86994 0.67919
1.72600 -18.36339 0.82848
1.72854 -18.85684 0.94884
1.73107 -19.35029 1.05177
1.73360 -19.84373 1.14279
1.73612 -20.33718 1.22503
1.73863 -20.83063 1.30047
1.68321 -12.75655 -0.24247
1.68583 -13.25000 0.47337
1.68845 -13.74345 0.68326
1.69107 -14.23689 0.83163
1.69367 -14.73034 0.95147
1.69627 -15.22379 1.05407
1.69887 -15.71724 1.14485
1.70146 -16.21069 1.22691
1.70405 -16.70413 1.30220
1.64703 -8.63006 -0.17018
1.64973 -9.12350 0.47980
1.65243 -9.61695 0.68730
1.65512 -10.11040 0.83476
1.65780 -10.60385 0.95409
1.66048 -11.09729 1.05636
1.66315 -11.59074 1.14690
1.66582 -12.08419 1.22878
1.66848 -12.57764 1.30393
1.60974 -4.50356 -0.09789
1.61253 -4.99701 0.48611
1.61531 -5.49046 0.69131
1.61808 -5.98390 0.83787
1.62085 -6.47735 0.95671
1.62361 -6.97080 1.05864
1.62637 -7.46425 1.14895
1.62912 -7.95769 1.23064
1.63186 -8.45114 1.30565
1.57125 -0.37706 -0.02560
1.57413 -0.87051 0.49232
1.57700 -1.36396 0.69529
1.57986 -1.85741 0.84097
1.58272 -2.35085 0.95931
1.58557 -2.84430 1.06092
1.58842 -3.33775 1.15099
1.59126 -3.83120 1.23251
1.59409 -4.32465 1.30737
1.53143 0.55154 0.04669
1.53441 0.51344 0.49844
1.53738 0.47138 0.69924
1.54035 0.42399 0.84406
1.54331 0.36892 0.96191
1.54626 0.30138 1.06319
1.54920 0.20824 1.15303
1.55214 0.29530 1.23437
1.55506 -0.19815 1.30909
1.49016 0.78835 0.11899
1.49326 0.76493 0.50446
1.49634 0.74053 0.70316
1.49942 0.71503 0.84713
1.50248 0.68830 0.96449
1.50554 0.66014 1.06546
1.50859 0.63034 1.15506
1.51163 0.59861 1.23622
1.51467 0.56456 1.31080
1.44729 0.95640 0.19128
1.45051 0.93836 0.51040
1.45372 0.91986 0.70705
1.45691 0.90084 0.85018
1.46010 0.88129 0.96707
1.46328 0.86114 1.06771
1.46645 0.84036 1.15709
1.46961 0.81887 1.23807
1.47276 0.79662 1.31252
1.40264 1.09233 0.26357
1.40599 1.07726 0.51625
1.40934 1.06191 0.71092
1.41267 1.04626 0.85322
1.41599 1.03028 0.96963
1.41931 1.01398 1.06996
1.42261 0.99731 1.15911
1.42590 0.98027 1.23992
1.42918 0.96283 1.31423
1.82486 -20.36585 -1.37219
1.82721 -20.85929 0.35384
1.82956 -21.35274 0.61562
1.83190 -21.84619 0.78055
1.83424 -22.33964 0.90918
1.83657 -22.83309 1.01738
1.83891 -23.32653 1.11213
1.84123 -23.81998 1.19716
1.84356 -24.31343 1.27480
1.79252 -16.23935 -1.29989
1.79493 -16.73280 0.36297
1.79733 -17.22625 0.62024
1.79973 -17.71969 0.78395
1.80213 -18.21314 0.91196
1.80452 -18.70659 1.01979
1.80691 -19.20004 1.11426
1.80929 -19.69349 1.19910
1.81167 -20.18693 1.27658
1.75937 -12.11285 -1.22760
1.76184 -12.60630 0.37183
1.76431 -13.09975 0.62481
1.76677 -13.59320 0.78733
1.76922 -14.08665 0.91474
1.77168 -14.58009 1.02218
1.77412 -15.07354 1.11639
1.77657 -15.56699 1.20103
1.77901 -16.06044 1.27835
1.72535 -7.98636 -1.15531
1.72788 -8.47981 0.38043
1.73042 -8.97325 0.62934
1.73294 -9.46670 0.79070
1.73547 -9.96015 0.91750
1.73798 -10.45360 1.02456
1.74050 -10.94705 1.11851
1.74300 -11.44049 1.20295
1.74551 -11.93394 1.28012
1.69039 -3.85986 -1.08302
1.69300 -4.35331 0.38881
1.69560 -4.84676 0.63383
1.69820 -5.34021 0.79404
1.70079 -5.83365 0.92025
1.70338 -6.32710 1.02694
1.70596 -6.82055 1.12062
1.70854 -7.31400 1.20487
1.71111 -7.80744 1.28189
1.65442 0.26663 -1.01073
1.65711 -0.22681 0.39697
1.65979 -0.72026 0.63827
1.66246 -1.21371 0.79736
1.66513 -1.70716 0.92299
1.66779 -2.20060 1.02931
1.67045 -2.69405 1.12273
1.67310 -3.18750 1.20679
1.67575 -3.68095 1.28365
1.61737 0.59670 -0.93844
1.62014 0.56250 0.40493
1.62290 0.52541 0.64268
1.62566 0.48467 0.80067
1.62841 0.43910 0.92572
1.63115 0.38671 1.03168
1.63389 0.32375 1.12484
1.63662 0.24103 1.20870
1.63934 0.09435 1.28541
1.57912 0.81760 -0.86614
1.58198 0.79531 0.41271
1.58484 0.77216 0.64705
1.58768 0.74807 0.80396
1.59052 0.72292 0.92844
1.59336 0.69658 1.03403
1.59618 0.66888 1.12694
1.59900 0.63961 1.21061
1.60181 0.60850 1.28717
1.53958 0.97927 -0.79385
1.54254 0.96180 0.42030
1.54550 0.94390 0.65138
1.54844 0.92554 0.80723
1.55138 0.90669 0.93115
1.55431 0.88730 1.03638
1.55723 0.86734 1.12904
1.56014 0.84676 1.21251
1.56305 0.82549 1.28892
1.92351 -23.84865 -2.42961
1.92570 -24.34209 0.15569
1.92788 -24.83554 0.54224
1.93007 -25.32899 0.72843
1.93225 -25.82244 0.86709
1.93442 -26.31589 0.98138
1.93659 -26.80933 1.08029
1.93876 -27.30278 1.16840
1.94093 -27.79623 1.24841
1.89345 -19.72215 -2.35731
1.89568 -20.21560 0.17754
1.89792 -20.70905 0.54766
1.90015 -21.20249 0.73215
1.90237 -21.69594 0.87005
1.90460 -22.18939 0.98390
1.90681 -22.68284 1.08250
1.90903 -23.17628 1.17039
1.91124 -23.66973 1.25024
1.86272 -15.59565 -2.28502
1.86501 -16.08910 0.19684
1.86729 -16.58255 0.55301
1.86957 -17.07600 0.73584
1.87185 -17.56944 0.87300
1.87412 -18.06289 0.98641
1.87639 -18.55634 1.08471
1.87865 -19.04979 1.17239
1.88091 -19.54324 1.25207
1.83129 -11.46916 -2.21273
1.83363 -11.96260 0.21426
1.83597 -12.45605 0.55830
1.83830 -12.94950 0.73951
1.84063 -13.44295 0.87594
1.84296 -13.93640 0.98891
1.84528 -14.42984 1.08692
1.84759 -14.92329 1.17437
1.84990 -15.41674 1.25389
1.79911 -7.34266 -2.14044
1.80151 -7.83611 0.23023
1.80390 -8.32956 0.56353
1.80629 -8.82300 0.74316
1.80868 -9.31645 0.87886
1.81106 -9.80990 0.99140
1.81343 -10.30335 1.08912
1.81580 -10.79680 1.17636
1.81817 -11.29024 1.25570
1.76613 -3.21616 -2.06815
1.76859 -3.70961 0.24504
1.77104 -4.20306 0.56869
1.77349 -4.69651 0.74678
1.77594 -5.18996 0.88178
1.77838 -5.68340 0.99388
1.78081 -6.17685 1.09131
1.78324 -6.67030 1.17834
1.78567 -7.16375 1.25752
1.73229 0.23517 -1.99586
1.73481 0.07807 0.25889
1.73733 -0.07657 0.57380
1.73985 -0.57001 0.75038
1.74236 -1.06346 0.88467
1.74486 -1.55691 0.99636
1.74736 -2.05036 1.09350
1.74985 -2.54380 1.18031
1.75234 -3.03725 1.25933
1.69753 0.63785 -1.92357
1.70012 0.60663 0.27194
1.70271 0.57319 0.57884
1.70529 0.53705 0.75396
1.70787 0.49753 0.88756
1.71044 0.45358 0.99882
1.71301 0.40355 1.09568
1.71557 0.34440 1.18228
1.71813 0.26939 1.26113
1.66177 0.84554 -1.85127
1.66444 0.82424 0.28429
1.66711 0.80218 0.58384
1.66976 0.77930 0.75752
1.67242 0.75551 0.89043
1.67506 0.73070 1.00128
1.67771 0.70473 1.09785
1.68034 0.67747 1.18425
1.68297 0.64870 1.26294
2.01571 -27.33145 -3.48703
2.01777 -27.82489 -0.45980
2.01982 -28.31834 0.45338
2.02187 -28.81179 0.67093
2.02391 -29.30524 0.82213
2.02596 -29.79868 0.94353
2.02800 -30.29213 1.04715
2.03004 -30.78558 1.13865
2.03207 -31.27903 1.22126
1.98754 -23.20495 -3.41474
1.98964 -23.69840 -0.38751
1.99173 -24.19185 0.46015
1.99382 -24.68530 0.67507
1.99590 -25.17874 0.82530
1.99798 -25.67219 0.94618
2.00006 -26.16564 1.04946
2.00214 -26.65909 1.14072
2.00421 -27.15253 1.22314
1.95882 -19.07846 -3.34244
1.96095 -19.57191 -0.31522
1.96308 -20.06535 0.46680
1.96521 -20.55880 0.67917
1.96734 -21.05225 0.82846
1.96946 -21.54570 0.94882
1.97158 -22.03914 1.05176
1.97370 -22.53259 1.14278
1.97581 -23.02604 1.22502
1.92950 -14.95196 -3.27015
1.93168 -15.44541 -0.24293
1.93386 -15.93886 0.47333
1.93603 -16.43230 0.68324
1.93820 -16.92575 0.83161
1.94037 -17.41920 0.95146
1.94253 -17.91265 1.05406
1.94469 -18.40610 1.14484
1.94685 -18.89954 1.22690
1.89957 -10.82546 -3.19786
1.90180 -11.31891 -0.17064
1.90402 -11.81236 0.47976
1.90624 -12.30581 0.68728
1.90846 -12.79925 0.83474
1.91067 -13.29270 0.95408
1.91288 -13.78615 1.05635
1.91509 -14.27960 1.14689
1.91729 -14.77305 1.22877
1.86898 -6.69897 -3.12557
1.87126 -7.19241 -0.09834
1.87353 -7.68586 0.48607
1.87580 -8.17931 0.69129
1.87807 -8.67276 0.83785
1.88033 -9.16621 0.95669
1.88259 -9.65965 1.05863
1.88484 -10.15310 1.14894
1.88709 -10.64655 1.23063
1.83770 -2.57247 -3.05328
1.84003 -3.06592 -0.02605
1.84235 -3.55937 0.49229
1.84468 -4.05282 0.69527
1.84699 -4.54626 0.84095
1.84931 -5.03971 0.95930
1.85162 -5.53316 1.06091
1.85392 -6.02661 1.15098
1.85622 -6.52005 1.23250
1.80567 0.34058 -2.98099
1.80806 0.26425 0.04624
1.81044 0.14545 0.49840
1.81282 0.07368 0.69921
1.81519 -0.41977 0.84404
1.81756 -0.91322 0.96189
1.81992 -1.40666 1.06318
1.82229 -1.90011 1.15301
1.82464 -2.39356 1.23435
1.77286 0.67584 -2.90869
1.77530 0.64698 0.11853
1.77775 0.61635 0.50443
1.78018 0.58363 0.70314
1.78261 0.54837 0.84711
1.78504 0.50997 0.96447
1.78747 0.46751 1.06544
1.78988 0.41957 1.15505
1.79230 0.36366 1.23621
