graphics/cube/sRGBDisplaySpectral_46.cube
TITLE "QA_sRGBDisplaySpectral_46"
# Copyright (c) 2026 @xsscx David H Hoyt LLC
# https://xss.cx
# Profiles applied (by profile description):
# - sRGB Display Spectral Emission (sRGB transfer, secondary green peak)
LUT_3D_SIZE 5
LUT_3D_INPUT_RANGE 0.0524000003934 0.8849999904633
0.0020247159991 0.0020776898600 0.0016643211711
0.0045717037283 0.0024256960023 0.0198896285146
0.0111080892384 0.0033187905792 0.0666615962982
0.0225599966943 0.0048835142516 0.1486072242260
0.0396405048668 0.0072172973305 0.2708290219307
0.0085823107511 0.0170710291713 0.0038610659540
0.0111292982474 0.0174190364778 0.0220863744617
0.0176656842232 0.0183121301234 0.0688583403826
0.0291175916791 0.0198768544942 0.1508039683104
0.0461980924010 0.0222106371075 0.2730257511139
0.0254111904651 0.0555487275124 0.0094986148179
0.0279581770301 0.0558967329562 0.0277239214629
0.0344945602119 0.0567898266017 0.0744958892465
0.0459464713931 0.0583545491099 0.1564415246248
0.0630269721150 0.0606883354485 0.2786633074284
0.0548958033323 0.1229625940323 0.0193757396191
0.0574427917600 0.1233106032014 0.0376010462642
0.0639791786671 0.1242036893964 0.0843730047345
0.0754310861230 0.1257684230804 0.1663186401129
0.0925115942955 0.1281021982431 0.2885404527187
0.0988720655441 0.2235102802515 0.0341074541211
0.1014190614223 0.2238582819700 0.0523327589035
0.1079554408789 0.2247513830662 0.0991047322750
0.1194073557854 0.2263161092997 0.1810503602028
0.1364878565073 0.2286498844624 0.3032721281052
0.0177932605147 0.0122602442279 0.0016880370677
0.0203402470797 0.0126082506031 0.0199133437127
0.0268766321242 0.0135013442487 0.0666853114963
0.0383285395801 0.0150660686195 0.1486309468746
0.0554090440273 0.0173998530954 0.2708527445793
0.0243508517742 0.0272535812110 0.0038847818505
0.0268978402019 0.0276015885174 0.0221100877970
0.0334342271090 0.0284946821630 0.0688820555806
0.0448861345649 0.0300594065338 0.1508276760578
0.0619666352868 0.0323931910098 0.2730494737625
0.0411797352135 0.0657312795520 0.0095223290846
0.0437267273664 0.0660792812705 0.0277476366609
0.0502631105483 0.0669723749161 0.0745195969939
0.0617150180042 0.0685371011496 0.1564652323723
0.0787955224514 0.0708708837628 0.2786870300770
0.0706643462181 0.1331451386213 0.0193994529545
0.0732113346457 0.1334931552410 0.0376247614622
0.0797477290034 0.1343862563372 0.0843967273831
0.0911996290088 0.1359509676695 0.1663423478603
0.1082801371813 0.1382847577333 0.2885641455650
0.1146406084299 0.2336928248405 0.0341311730444
0.1171875968575 0.2340408414602 0.0523564815521
0.1237239912152 0.2349339425564 0.0991284400225
0.1351758837700 0.2364986538887 0.1810740828514
0.1522563993931 0.2388324439526 0.3032958507538
0.0582603774965 0.0383919291198 0.0017488989979
0.0608073659241 0.0387399382889 0.0199742056429
0.0673437491059 0.0396330282092 0.0667461752892
0.0787956640124 0.0411977544427 0.1486918032169
0.0958761647344 0.0435315370560 0.2709135711193
0.0648179799318 0.0533852688968 0.0039456435479
0.0673649683595 0.0537332743406 0.0221709515899
0.0739013552666 0.0546263679862 0.0689429193735
0.0853532627225 0.0561910904944 0.1508885473013
0.1024337634444 0.0585248768330 0.2731103301048
0.0816468596458 0.0918629616499 0.0095831919461
0.0841938480735 0.0922109708190 0.0278085004538
0.0907302349806 0.0931040644646 0.0745804682374
0.1021821424365 0.0946687906981 0.1565260887146
0.1192626431584 0.0970025733113 0.2787478864193
0.1111314743757 0.1592768430710 0.0194603167474
0.1136784628034 0.1596248447895 0.0376856252551
0.1202148497105 0.1605179458857 0.0844575837255
0.1316667646170 0.1620826721191 0.1664032191038
0.1487472653389 0.1644164472818 0.2886250019073
0.1551077365875 0.2598245441914 0.0341920331120
0.1576547175646 0.2601725161076 0.0524173416197
0.1641911119223 0.2610656321049 0.0991893038154
0.1756430119276 0.2626303434372 0.1811349391937
0.1927235126495 0.2649641633034 0.3033567070961
0.1291597634554 0.0841752886772 0.0018555305433
0.1317067593336 0.0845232978463 0.0200808364898
0.1382431536913 0.0854163914919 0.0668528079987
0.1496950536966 0.0869811177254 0.1487984359264
0.1667755544186 0.0893149003386 0.2710202038288
0.1357173770666 0.0991686284542 0.0040522748604
0.1382643580437 0.0995166376233 0.0222775824368
0.1448007375002 0.1004097312689 0.0690495446324
0.1562526524067 0.1019744575024 0.1509951651096
0.1733331531286 0.1043082401156 0.2732169926167
0.1525462418795 0.1376463323832 0.0096898237243
0.1550932377577 0.1379943341017 0.0279151294380
0.1616296321154 0.1388874351978 0.0746870934963
0.1730815321207 0.1404521614313 0.1566327214241
0.1901620477438 0.1427859365940 0.2788545191288
0.1820308566093 0.2050601989031 0.0195669475943
0.1845778524876 0.2054082006216 0.0377922542393
0.1911142468452 0.2063013017178 0.0845642238855
0.2025661468506 0.2078660279512 0.1665098518133
0.2196466475725 0.2101998031139 0.2887316346169
0.2260071337223 0.3056078851223 0.0342986620963
0.2285540997982 0.3059558868408 0.0525239668787
0.2350904941559 0.3068489730358 0.0992959365249
0.2465423941612 0.3084137141705 0.1812415868044
0.2636229097843 0.3107474744320 0.3034633696079
0.2349061220884 0.1524610966444 0.0020145715680
0.2374531030655 0.1528090983629 0.0202398784459
0.2439894825220 0.1537021994591 0.0670118480921
0.2554413974285 0.1552669256926 0.1489574760199
0.2725219130516 0.1576007008553 0.2711792588234
0.2414637207985 0.1674544364214 0.0042113158852
0.2440106868744 0.1678024530411 0.0224366243929
0.2505470812321 0.1686955541372 0.0692085847259
0.2619990110397 0.1702602654696 0.1511542201042
0.2790795266628 0.1725940555334 0.2733760178089
0.2582925856113 0.2059321403503 0.0098488647491
0.2608395814896 0.2062801420689 0.0280741713941
0.2673759758472 0.2071732431650 0.0748461335897
0.2788278758526 0.2087379693985 0.1567917615175
0.2959083914757 0.2110717445612 0.2790135741234
0.2877771854401 0.2733460366726 0.0197259876877
0.2903242111206 0.2736940085888 0.0379512980580
0.2968605756760 0.2745871245861 0.0847232565284
0.3083124756813 0.2761518359184 0.1666688770056
0.3253929913044 0.2784856259823 0.2888906896114
0.3317534625530 0.3738936781883 0.0344577059150
0.3343004882336 0.3742416799068 0.0526830144227
0.3408368527889 0.3751347661018 0.0994549691677
0.3522887527943 0.3766995072365 0.1814006119967
0.3693692684174 0.3790332674980 0.3036224246025
