graphics/cube/srgbCalc++Test_970.cube
TITLE "QA_srgbCalc++Test_970"
# Copyright (c) 2026 @xsscx David H Hoyt LLC
# https://xss.cx
# Profiles applied (by profile description):
# - sRGB calc tester
LUT_3D_SIZE 5
LUT_3D_INPUT_RANGE 0.19210 0.85650
0.93838 0.13226 0.63388
0.94978 -0.45593 0.92028
0.96101 -1.44283 1.12065
0.97206 -2.42973 1.28191
0.98296 -3.41662 1.41970
0.76058 0.82923 0.64274
0.77554 0.78467 0.92575
0.79013 0.73653 1.12487
0.80438 0.68390 1.28543
0.81831 0.62541 1.42277
0.49868 1.11935 0.65144
0.52393 1.08994 0.93118
0.54772 1.05943 1.12906
0.57027 1.02770 1.28895
0.59173 0.99461 1.42584
-1.13952 1.33314 0.65999
-0.82891 1.31000 0.93657
-0.51830 1.28631 1.13324
-0.20769 1.26201 1.29244
0.10292 1.23706 1.42889
-5.35581 1.50859 0.66840
-5.04520 1.48906 0.94191
-4.73459 1.46918 1.13739
-4.42397 1.44893 1.29593
-4.11336 1.42829 1.43194
1.32663 -6.43464 0.47984
1.33384 -7.42154 0.83478
1.34101 -8.40843 1.05637
1.34812 -9.39533 1.22879
1.35519 -10.38222 1.37368
1.22289 0.37408 0.49236
1.23094 0.21813 0.84099
1.23891 -0.15544 1.06093
1.24682 -1.14234 1.23252
1.25466 -2.12923 1.37689
1.10578 0.88300 0.50450
1.11497 0.84218 0.84715
1.12407 0.79858 1.06547
1.13306 0.75162 1.23623
1.14197 0.70047 1.38009
0.96922 1.15624 0.51628
0.98015 1.12811 0.85324
0.99093 1.09901 1.06998
1.00155 1.06884 1.23993
1.01202 1.03750 1.38328
0.80073 1.36253 0.52773
0.81474 1.34008 0.85928
0.82843 1.31711 1.07446
0.84184 1.29358 1.24362
0.85497 1.26947 1.38647
1.60207 -13.40024 0.19695
1.60767 -14.38714 0.73587
1.61325 -15.37403 0.98642
1.61880 -16.36093 1.17240
1.62433 -17.34783 1.32548
1.52322 -5.14725 0.23033
1.52921 -6.13415 0.74318
1.53518 -7.12104 0.99141
1.54112 -8.10794 1.17637
1.54702 -9.09484 1.32885
1.43842 0.50110 0.25898
1.44490 0.40819 0.75041
1.45134 0.27685 0.99637
1.45774 0.14505 1.18032
1.46410 -0.84184 1.33221
1.34629 0.93278 0.28437
1.35337 0.89495 0.75754
1.36040 0.85489 1.00130
1.36738 0.81218 1.18426
1.37431 0.76632 1.33555
1.24478 1.19161 0.30734
1.25264 1.16462 0.76459
1.26043 1.13677 1.00619
1.26816 1.10798 1.18818
1.27583 1.07815 1.33889
1.82486 -20.36585 -1.37219
1.82956 -21.35274 0.61562
1.83424 -22.33964 0.90918
1.83891 -23.32653 1.11213
1.84356 -24.31343 1.27480
1.75937 -12.11285 -1.22760
1.76431 -13.09975 0.62481
1.76922 -14.08665 0.91474
1.77412 -15.07354 1.11639
1.77901 -16.06044 1.27835
1.69039 -3.85986 -1.08302
1.69560 -4.84676 0.63383
1.70079 -5.83365 0.92025
1.70596 -6.82055 1.12062
1.71111 -7.80744 1.28189
1.61737 0.59670 -0.93844
1.62290 0.52541 0.64268
1.62841 0.43910 0.92572
1.63389 0.32375 1.12484
1.63934 0.09435 1.28541
1.53958 0.97927 -0.79385
1.54550 0.94390 0.65138
1.55138 0.90669 0.93115
1.55723 0.86734 1.12904
1.56305 0.82549 1.28892
2.01571 -27.33145 -3.48703
2.01982 -28.31834 0.45338
2.02391 -29.30524 0.82213
2.02800 -30.29213 1.04715
2.03207 -31.27903 1.22126
1.95882 -19.07846 -3.34244
1.96308 -20.06535 0.46680
1.96734 -21.05225 0.82846
1.97158 -22.03914 1.05176
1.97581 -23.02604 1.22502
1.89957 -10.82546 -3.19786
1.90402 -11.81236 0.47976
1.90846 -12.79925 0.83474
1.91288 -13.78615 1.05635
1.91729 -14.77305 1.22877
1.83770 -2.57247 -3.05328
1.84235 -3.55937 0.49229
1.84699 -4.54626 0.84095
1.85162 -5.53316 1.06091
1.85622 -6.52005 1.23250
1.77286 0.67584 -2.90869
1.77775 0.61635 0.50443
1.78261 0.54837 0.84711
1.78747 0.46751 1.06544
1.79230 0.36366 1.23621
