graphics/cube/srgbCalc++Test_970.cube
TITLE "QA_srgbCalc++Test_970"
# Copyright (c) 2026 @xsscx David H Hoyt LLC
# https://xss.cx
# Profiles applied (by profile description):
# - sRGB calc tester
LUT_3D_SIZE 25
LUT_3D_INPUT_RANGE 0.19210 0.85650
0.93838 0.13226 0.63388
0.94029 0.36648 0.69268
0.94220 0.20200 0.74563
0.94410 0.03751 0.79408
0.94600 -0.12697 0.83894
0.94789 -0.29145 0.88085
0.94978 -0.45593 0.92028
0.95166 -0.62042 0.95760
0.95354 -0.78490 0.99309
0.95542 -0.94938 1.02697
0.95729 -1.11386 1.05943
0.95915 -1.27835 1.09061
0.96101 -1.44283 1.12065
0.96286 -1.60731 1.14965
0.96471 -1.77180 1.17771
0.96656 -1.93628 1.20489
0.96840 -2.10076 1.23129
0.97023 -2.26524 1.25694
0.97206 -2.42973 1.28191
0.97389 -2.59421 1.30624
0.97571 -2.75869 1.32998
0.97753 -2.92317 1.35317
0.97934 -3.08766 1.37583
0.98115 -3.25214 1.39799
0.98296 -3.41662 1.41970
0.91187 0.38447 0.63537
0.91386 0.36478 0.69401
0.91584 0.34371 0.74684
0.91782 0.32096 0.79519
0.91979 0.29609 0.83997
0.92175 0.26847 0.88182
0.92371 0.23708 0.92120
0.92566 0.20007 0.95847
0.92761 0.15339 0.99392
0.92956 0.08361 1.02776
0.93149 0.26163 1.06019
0.93343 0.09715 1.09134
0.93535 -0.06733 1.12135
0.93727 -0.23181 1.15033
0.93919 -0.39630 1.17836
0.94110 -0.56078 1.20553
0.94301 -0.72526 1.23191
0.94491 -0.88974 1.25754
0.94681 -1.05423 1.28250
0.94870 -1.21871 1.30682
0.95058 -1.38319 1.33054
0.95246 -1.54767 1.35371
0.95434 -1.71216 1.37636
0.95621 -1.87664 1.39852
0.95808 -2.04112 1.42021
0.88431 0.51553 0.63685
0.88638 0.50208 0.69533
0.88844 0.48816 0.74804
0.89050 0.47371 0.79630
0.89255 0.45869 0.84100
0.89459 0.44303 0.88279
0.89663 0.42665 0.92211
0.89866 0.40945 0.95934
0.90069 0.39131 0.99474
0.90271 0.37207 1.02855
0.90472 0.35153 1.06094
0.90673 0.32943 1.09207
0.90873 0.30538 1.12206
0.91073 0.27886 1.15101
0.91272 0.24899 1.17902
0.91470 0.21431 1.20617
0.91668 0.17188 1.23253
0.91866 0.11369 1.25815
0.92062 0.32127 1.28309
0.92259 0.15679 1.30739
0.92454 -0.00769 1.33110
0.92649 -0.17218 1.35426
0.92844 -0.33666 1.37690
0.93038 -0.50114 1.39904
0.93232 -0.66562 1.42073
0.85557 0.61403 0.63833
0.85773 0.60332 0.69665
0.85988 0.59236 0.74924
0.86203 0.58114 0.79741
0.86417 0.56963 0.84203
0.86630 0.55782 0.88375
0.86842 0.54568 0.92302
0.87054 0.53318 0.96020
0.87266 0.52030 0.99557
0.87476 0.50701 1.02934
0.87686 0.49326 1.06170
0.87895 0.47901 1.09280
0.88104 0.46421 1.12276
0.88312 0.44879 1.15169
0.88519 0.43268 1.17968
0.88726 0.41579 1.20681
0.88932 0.39800 1.23315
0.89137 0.37918 1.25875
0.89342 0.35914 1.28367
0.89546 0.33764 1.30796
0.89750 0.31436 1.33166
0.89953 0.28881 1.35481
0.90155 0.26028 1.37743
0.90357 0.22758 1.39957
0.90558 0.18847 1.42124
0.82549 0.69552 0.63980
0.82776 0.68642 0.69797
0.83001 0.67717 0.75044
0.83226 0.66776 0.79851
0.83450 0.65816 0.84306
0.83673 0.64839 0.88472
0.83896 0.63842 0.92394
0.84118 0.62824 0.96107
0.84339 0.61785 0.99639
0.84559 0.60723 1.03013
0.84778 0.59636 1.06246
0.84997 0.58524 1.09353
0.85215 0.57384 1.12346
0.85432 0.56214 1.15237
0.85649 0.55012 1.18034
0.85864 0.53775 1.20745
0.86079 0.52502 1.23377
0.86294 0.51188 1.25935
0.86508 0.49830 1.28426
0.86721 0.48424 1.30854
0.86933 0.46964 1.33222
0.87144 0.45446 1.35535
0.87355 0.43861 1.37796
0.87566 0.42201 1.40009
0.87775 0.40456 1.42175
0.79391 0.76619 0.64127
0.79629 0.75818 0.69928
0.79866 0.75007 0.75163
0.80103 0.74184 0.79961
0.80338 0.73349 0.84409
0.80573 0.72501 0.88568
0.80807 0.71640 0.92485
0.81040 0.70766 0.96193
0.81272 0.69877 0.99722
0.81503 0.68974 1.03092
0.81733 0.68055 1.06321
0.81962 0.67119 1.09426
0.82191 0.66166 1.12417
0.82419 0.65195 1.15305
0.82646 0.64206 1.18100
0.82872 0.63196 1.20809
0.83097 0.62164 1.23439
0.83322 0.61111 1.25996
0.83545 0.60033 1.28485
0.83768 0.58930 1.30911
0.83990 0.57800 1.33278
0.84212 0.56641 1.35590
0.84432 0.55451 1.37850
0.84652 0.54228 1.40061
0.84871 0.52968 1.42226
0.76058 0.82923 0.64274
0.76310 0.82202 0.70059
0.76561 0.81473 0.75282
0.76811 0.80735 0.80071
0.77060 0.79988 0.84511
0.77308 0.79232 0.88664
0.77554 0.78467 0.92575
0.77800 0.77692 0.96280
0.78045 0.76906 0.99804
0.78288 0.76110 1.03170
0.78531 0.75302 1.06397
0.78773 0.74484 1.09498
0.79013 0.73653 1.12487
0.79253 0.72810 1.15373
0.79492 0.71954 1.18165
0.79730 0.71085 1.20872
0.79967 0.70201 1.23501
0.80203 0.69303 1.26056
0.80438 0.68390 1.28543
0.80673 0.67460 1.30968
0.80906 0.66514 1.33334
0.81138 0.65550 1.35644
0.81370 0.64567 1.37903
0.81601 0.63564 1.40113
0.81831 0.62541 1.42277
0.72523 0.88653 0.64420
0.72792 0.87993 0.70190
0.73058 0.87327 0.75401
0.73324 0.86654 0.80181
0.73588 0.85975 0.84614
0.73851 0.85288 0.88760
0.74113 0.84593 0.92666
0.74374 0.83892 0.96366
0.74633 0.83182 0.99886
0.74891 0.82464 1.03249
0.75148 0.81738 1.06472
0.75404 0.81004 1.09571
0.75659 0.80260 1.12557
0.75913 0.79508 1.15440
0.76166 0.78746 1.18231
0.76417 0.77974 1.20936
0.76668 0.77192 1.23562
0.76917 0.76400 1.26116
0.77165 0.75596 1.28602
0.77413 0.74782 1.31025
0.77659 0.73956 1.33390
0.77904 0.73117 1.35699
0.78149 0.72266 1.37957
0.78392 0.71402 1.40165
0.78634 0.70523 1.42329
0.68749 0.93932 0.64565
0.69036 0.93322 0.70320
0.69322 0.92706 0.75520
0.69606 0.92084 0.80291
0.69889 0.91457 0.84716
0.70170 0.90824 0.88856
0.70450 0.90186 0.92757
0.70728 0.89541 0.96452
0.71005 0.88890 0.99968
0.71281 0.88233 1.03328
0.71555 0.87570 1.06548
0.71827 0.86899 1.09643
0.72099 0.86222 1.12627
0.72369 0.85538 1.15508
0.72638 0.84846 1.18296
0.72905 0.84147 1.21000
0.73172 0.83440 1.23624
0.73437 0.82725 1.26176
0.73700 0.82002 1.28661
0.73963 0.81271 1.31082
0.74224 0.80531 1.33445
0.74484 0.79782 1.35753
0.74743 0.79023 1.38010
0.75001 0.78255 1.40218
0.75258 0.77477 1.42380
0.64685 0.98846 0.64711
0.64995 0.98275 0.70450
0.65304 0.97700 0.75639
0.65611 0.97121 0.80400
0.65916 0.96537 0.84818
0.66219 0.95948 0.88952
0.66521 0.95355 0.92847
0.66821 0.94756 0.96538
0.67118 0.94152 1.00050
0.67415 0.93544 1.03406
0.67709 0.92930 1.06623
0.68002 0.92310 1.09716
0.68294 0.91685 1.12697
0.68583 0.91055 1.15576
0.68871 0.90418 1.18362
0.69158 0.89776 1.21063
0.69443 0.89127 1.23686
0.69727 0.88472 1.26236
0.70009 0.87811 1.28719
0.70289 0.87143 1.31139
0.70568 0.86468 1.33501
0.70846 0.85787 1.35808
0.71123 0.85098 1.38063
0.71397 0.84401 1.40270
0.71671 0.83697 1.42431
0.60261 1.03455 0.64855
0.60601 1.02918 0.70580
0.60939 1.02378 0.75757
0.61274 1.01833 0.80509
0.61607 1.01285 0.84920
0.61938 1.00733 0.89048
0.62266 1.00177 0.92938
0.62592 0.99616 0.96624
0.62916 0.99052 1.00132
0.63238 0.98483 1.03484
0.63558 0.97909 1.06698
0.63876 0.97332 1.09788
0.64192 0.96749 1.12767
0.64505 0.96162 1.15643
0.64817 0.95570 1.18427
0.65127 0.94974 1.21127
0.65435 0.94372 1.23748
0.65741 0.93765 1.26296
0.66045 0.93153 1.28778
0.66348 0.92535 1.31196
0.66649 0.91913 1.33557
0.66948 0.91284 1.35862
0.67245 0.90650 1.38116
0.67540 0.90009 1.40322
0.67834 0.89363 1.42482
0.55375 1.07806 0.65000
0.55754 1.07298 0.70709
0.56129 1.06787 0.75875
0.56502 1.06273 0.80618
0.56871 1.05755 0.85021
0.57237 1.05234 0.89143
0.57600 1.04709 0.93028
0.57960 1.04181 0.96709
0.58318 1.03649 1.00214
0.58673 1.03113 1.03563
0.59024 1.02574 1.06774
0.59374 1.02031 1.09861
0.59720 1.01484 1.12836
0.60064 1.00934 1.15711
0.60406 1.00379 1.18493
0.60745 0.99820 1.21190
0.61082 0.99257 1.23809
0.61416 0.98689 1.26356
0.61748 0.98118 1.28836
0.62078 0.97542 1.31253
0.62405 0.96961 1.33612
0.62731 0.96376 1.35917
0.63054 0.95785 1.38170
0.63375 0.95191 1.40374
0.63694 0.94591 1.42533
0.49868 1.11935 0.65144
0.50300 1.11452 0.70838
0.50727 1.10966 0.75993
0.51150 1.10478 0.80727
0.51569 1.09986 0.85123
0.51983 1.09492 0.89239
0.52393 1.08994 0.93118
0.52799 1.08493 0.96795
0.53201 1.07990 1.00296
0.53599 1.07483 1.03641
0.53994 1.06973 1.06849
0.54385 1.06460 1.09933
0.54772 1.05943 1.12906
0.55156 1.05423 1.15778
0.55537 1.04899 1.18558
0.55914 1.04373 1.21254
0.56288 1.03842 1.23871
0.56659 1.03308 1.26416
0.57027 1.02770 1.28895
0.57392 1.02229 1.31310
0.57754 1.01683 1.33668
0.58113 1.01134 1.35971
0.58469 1.00580 1.38223
0.58823 1.00023 1.40426
0.59173 0.99461 1.42584
0.43461 1.15871 0.65287
0.43973 1.15409 0.70967
0.44478 1.14946 0.76110
0.44976 1.14480 0.80836
0.45467 1.14011 0.85224
0.45952 1.13540 0.89334
0.46430 1.13066 0.93208
0.46902 1.12589 0.96881
0.47368 1.12110 1.00377
0.47829 1.11628 1.03719
0.48284 1.11143 1.06924
0.48734 1.10655 1.10005
0.49178 1.10165 1.12976
0.49618 1.09671 1.15846
0.50052 1.09175 1.18624
0.50482 1.08675 1.21317
0.50908 1.08173 1.23933
0.51329 1.07667 1.26476
0.51745 1.07158 1.28953
0.52158 1.06646 1.31367
0.52566 1.06131 1.33724
0.52971 1.05612 1.36025
0.53371 1.05090 1.38276
0.53768 1.04564 1.40478
0.54161 1.04035 1.42635
0.35592 1.19635 0.65430
0.36244 1.19193 0.71096
0.36882 1.18749 0.76228
0.37507 1.18303 0.80944
0.38120 1.17854 0.85325
0.38720 1.17404 0.89429
0.39310 1.16950 0.93298
0.39889 1.16495 0.96966
0.40457 1.16037 1.00459
0.41016 1.15577 1.03797
0.41566 1.15114 1.06999
0.42107 1.14649 1.10078
0.42639 1.14181 1.13046
0.43164 1.13711 1.15913
0.43680 1.13238 1.18689
0.44189 1.12762 1.21380
0.44691 1.12284 1.23994
0.45186 1.11803 1.26536
0.45674 1.11319 1.29011
0.46156 1.10832 1.31424
0.46632 1.10343 1.33779
0.47101 1.09851 1.36080
0.47565 1.09355 1.38329
0.48023 1.08857 1.40530
0.48476 1.08355 1.42686
0.24692 1.23247 0.65573
0.25685 1.22822 0.71224
0.26634 1.22396 0.76345
0.27547 1.21967 0.81052
0.28425 1.21537 0.85426
0.29272 1.21105 0.89524
0.30092 1.20670 0.93388
0.30886 1.20233 0.97051
0.31656 1.19794 1.00540
0.32405 1.19353 1.03875
0.33133 1.18910 1.07074
0.33843 1.18465 1.10150
0.34535 1.18017 1.13115
0.35211 1.17567 1.15980
0.35871 1.17115 1.18754
0.36517 1.16660 1.21444
0.37150 1.16203 1.24056
0.37769 1.15744 1.26596
0.38377 1.15282 1.29070
0.38973 1.14818 1.31481
0.39558 1.14351 1.33835
0.40132 1.13882 1.36134
0.40697 1.13410 1.38382
0.41252 1.12935 1.40582
0.41798 1.12458 1.42737
0.26591 1.26722 0.65715
0.31768 1.26313 0.71352
0.04230 1.25903 0.76462
0.08070 1.25490 0.81161
0.10789 1.25076 0.85527
0.12986 1.24660 0.89619
0.14868 1.24242 0.93478
0.16533 1.23822 0.97137
0.18038 1.23400 1.00622
0.19420 1.22976 1.03953
0.20701 1.22551 1.07148
0.21901 1.22123 1.10222
0.23031 1.21693 1.13185
0.24101 1.21262 1.16048
0.25120 1.20828 1.18819
0.26094 1.20392 1.21507
0.27027 1.19954 1.24117
0.27924 1.19514 1.26656
0.28789 1.19071 1.29128
0.29624 1.18627 1.31538
0.30433 1.18180 1.33890
0.31216 1.17731 1.36188
0.31977 1.17279 1.38435
0.32717 1.16826 1.40634
0.33437 1.16369 1.42788
-0.43681 1.30074 0.65857
-0.38504 1.29679 0.71479
-0.33327 1.29283 0.76578
-0.28150 1.28885 0.81268
-0.22973 1.28486 0.85628
-0.17796 1.28084 0.89713
-0.12620 1.27681 0.93567
-0.07443 1.27276 0.97222
-0.02266 1.26870 1.00703
0.02911 1.26462 1.04031
0.08088 1.26052 1.07223
0.13265 1.25640 1.10294
0.18442 1.25226 1.13254
0.23618 1.24811 1.16115
0.28795 1.24394 1.18884
0.33972 1.23974 1.21570
0.06086 1.23553 1.24179
0.09314 1.23130 1.26716
0.11773 1.22705 1.29186
0.13819 1.22278 1.31595
0.15600 1.21849 1.33946
0.17191 1.21418 1.36243
0.18640 1.20985 1.38488
0.19976 1.20550 1.40686
0.21221 1.20113 1.42839
-1.13952 1.33314 0.65999
-1.08775 1.32932 0.71607
-1.03599 1.32549 0.76695
-0.98422 1.32164 0.81376
-0.93245 1.31778 0.85729
-0.88068 1.31390 0.89808
-0.82891 1.31000 0.93657
-0.77714 1.30609 0.97307
-0.72538 1.30217 1.00784
-0.67361 1.29823 1.04109
-0.62184 1.29427 1.07298
-0.57007 1.29030 1.10366
-0.51830 1.28631 1.13324
-0.46653 1.28230 1.16182
-0.41476 1.27828 1.18949
-0.36300 1.27423 1.21633
-0.31123 1.27018 1.24240
-0.25946 1.26610 1.26775
-0.20769 1.26201 1.29244
-0.15592 1.25790 1.31652
-0.10415 1.25377 1.34001
-0.05239 1.24962 1.36297
-0.00062 1.24545 1.38541
0.05115 1.24127 1.40738
0.10292 1.23706 1.42889
-1.84224 1.36451 0.66140
-1.79047 1.36081 0.71734
-1.73870 1.35710 0.76811
-1.68693 1.35337 0.81484
-1.63516 1.34963 0.85829
-1.58339 1.34587 0.89903
-1.53163 1.34210 0.93746
-1.47986 1.33832 0.97392
-1.42809 1.33452 1.00865
-1.37632 1.33071 1.04186
-1.32455 1.32688 1.07373
-1.27278 1.32304 1.10438
-1.22102 1.31918 1.13393
-1.16925 1.31531 1.16249
-1.11748 1.31142 1.19015
-1.06571 1.30751 1.21696
-1.01394 1.30359 1.24301
-0.96217 1.29966 1.26835
-0.91040 1.29571 1.29303
-0.85864 1.29174 1.31709
-0.80687 1.28775 1.34057
-0.75510 1.28375 1.36351
-0.70333 1.27974 1.38594
-0.65156 1.27570 1.40790
-0.59979 1.27165 1.42940
-2.54495 1.39494 0.66281
-2.49318 1.39135 0.71860
-2.44141 1.38775 0.76927
-2.38964 1.38413 0.81591
-2.33788 1.38050 0.85929
-2.28611 1.37686 0.89997
-2.23434 1.37320 0.93835
-2.18257 1.36953 0.97477
-2.13080 1.36585 1.00946
-2.07903 1.36216 1.04264
-2.02727 1.35845 1.07447
-1.97550 1.35472 1.10509
-1.92373 1.35099 1.13462
-1.87196 1.34724 1.16316
-1.82019 1.34347 1.19080
-1.76842 1.33969 1.21759
-1.71666 1.33590 1.24363
-1.66489 1.33209 1.26895
-1.61312 1.32827 1.29361
-1.56135 1.32443 1.31765
-1.50958 1.32058 1.34112
-1.45781 1.31671 1.36405
-1.40604 1.31283 1.38647
-1.35428 1.30893 1.40842
-1.30251 1.30502 1.42991
-3.24766 1.42451 0.66421
-3.19590 1.42102 0.71987
-3.14413 1.41751 0.77043
-3.09236 1.41400 0.81698
-3.04059 1.41047 0.86029
-2.98882 1.40693 0.90091
-2.93705 1.40338 0.93924
-2.88528 1.39982 0.97561
-2.83352 1.39624 1.01027
-2.78175 1.39266 1.04342
-2.72998 1.38906 1.07522
-2.67821 1.38544 1.10581
-2.62644 1.38182 1.13532
-2.57467 1.37818 1.16383
-2.52291 1.37453 1.19144
-2.47114 1.37087 1.21823
-2.41937 1.36719 1.24424
-2.36760 1.36350 1.26954
-2.31583 1.35979 1.29419
-2.26406 1.35608 1.31822
-2.21230 1.35234 1.34168
-2.16053 1.34860 1.36459
-2.10876 1.34484 1.38700
-2.05699 1.34107 1.40894
-2.00522 1.33728 1.43042
-3.95038 1.45326 0.66561
-3.89861 1.44987 0.72113
-3.84684 1.44646 0.77158
-3.79508 1.44304 0.81805
-3.74331 1.43961 0.86129
-3.69154 1.43616 0.90185
-3.63977 1.43271 0.94014
-3.58800 1.42925 0.97646
-3.53623 1.42577 1.01108
-3.48446 1.42228 1.04419
-3.43270 1.41878 1.07596
-3.38093 1.41527 1.10653
-3.32916 1.41175 1.13601
-3.27739 1.40822 1.16450
-3.22562 1.40467 1.19209
-3.17385 1.40111 1.21885
-3.12209 1.39754 1.24485
-3.07032 1.39396 1.27014
-3.01855 1.39036 1.29477
-2.96678 1.38676 1.31879
-2.91501 1.38313 1.34223
-2.86324 1.37950 1.36513
-2.81148 1.37586 1.38753
-2.75971 1.37220 1.40945
-2.70794 1.36852 1.43093
-4.65309 1.48127 0.66701
-4.60132 1.47796 0.72239
-4.54956 1.47464 0.77273
-4.49779 1.47131 0.81912
-4.44602 1.46797 0.86229
-4.39425 1.46461 0.90279
-4.34248 1.46125 0.94102
-4.29071 1.45788 0.97731
-4.23895 1.45449 1.01189
-4.18718 1.45110 1.04496
-4.13541 1.44769 1.07670
-4.08364 1.44428 1.10724
-4.03187 1.44085 1.13670
-3.98010 1.43741 1.16517
-3.92833 1.43396 1.19274
-3.87657 1.43050 1.21948
-3.82480 1.42703 1.24546
-3.77303 1.42355 1.27074
-3.72126 1.42005 1.29535
-3.66949 1.41655 1.31935
-3.61772 1.41303 1.34278
-3.56596 1.40950 1.36567
-3.51419 1.40596 1.38806
-3.46242 1.40240 1.40997
-3.41065 1.39884 1.43143
-5.35581 1.50859 0.66840
-5.30404 1.50536 0.72365
-5.25227 1.50211 0.77388
-5.20050 1.49887 0.82018
-5.14873 1.49561 0.86329
-5.09696 1.49234 0.90373
-5.04520 1.48906 0.94191
-4.99343 1.48577 0.97815
-4.94166 1.48247 1.01269
-4.88989 1.47916 1.04574
-4.83812 1.47585 1.07745
-4.78635 1.47252 1.10796
-4.73459 1.46918 1.13739
-4.68282 1.46583 1.16584
-4.63105 1.46247 1.19339
-4.57928 1.45910 1.22011
-4.52751 1.45572 1.24607
-4.47574 1.45233 1.27133
-4.42397 1.44893 1.29593
-4.37221 1.44552 1.31992
-4.32044 1.44209 1.34334
-4.26867 1.43866 1.36621
-4.21690 1.43522 1.38859
-4.16513 1.43176 1.41049
-4.11336 1.42829 1.43194
1.01723 -0.62997 0.61160
1.01895 -0.79446 0.67290
1.02067 -0.95894 0.72770
1.02238 -1.12342 0.77760
1.02409 -1.28790 0.82363
1.02580 -1.45239 0.86651
1.02750 -1.61687 0.90677
1.02919 -1.78135 0.94479
1.03089 -1.94583 0.98089
1.03258 -2.11032 1.01531
1.03426 -2.27480 1.04824
1.03594 -2.43928 1.07985
1.03762 -2.60376 1.11028
1.03930 -2.76825 1.13963
1.04097 -2.93273 1.16801
1.04264 -3.09721 1.19549
1.04430 -3.26169 1.22215
1.04596 -3.42618 1.24806
1.04762 -3.59066 1.27326
1.04928 -3.75514 1.29781
1.05093 -3.91963 1.32176
1.05257 -4.08411 1.34513
1.05422 -4.24859 1.36797
1.05586 -4.41307 1.39031
1.05749 -4.57756 1.41217
0.99349 0.19768 0.61316
0.99527 0.15021 0.67427
0.99704 0.07787 0.72895
0.99881 0.25208 0.77875
1.00057 0.08760 0.82469
1.00233 -0.07689 0.86750
1.00408 -0.24137 0.90770
1.00583 -0.40585 0.94567
1.00757 -0.57034 0.98173
1.00932 -0.73482 1.01611
1.01105 -0.89930 1.04901
1.01279 -1.06378 1.08059
1.01452 -1.22827 1.11099
1.01624 -1.39275 1.14032
1.01797 -1.55723 1.16867
1.01968 -1.72171 1.19614
1.02140 -1.88620 1.22278
1.02311 -2.05068 1.24867
1.02482 -2.21516 1.27386
1.02652 -2.37964 1.29839
1.02822 -2.54413 1.32232
1.02991 -2.70861 1.34568
1.03161 -2.87309 1.36851
1.03329 -3.03757 1.39083
1.03498 -3.20206 1.41269
0.96898 0.40842 0.61471
0.97081 0.39022 0.67565
0.97264 0.37091 0.73019
0.97447 0.35029 0.77988
0.97629 0.32809 0.82575
0.97810 0.30392 0.86849
0.97991 0.27722 0.90863
0.98172 0.24712 0.94656
0.98352 0.21210 0.98257
0.98532 0.16906 1.01691
0.98712 0.10938 1.04978
0.98891 0.31172 1.08133
0.99069 0.14723 1.11171
0.99247 -0.01725 1.14101
0.99425 -0.18173 1.16934
0.99602 -0.34622 1.19678
0.99779 -0.51070 1.22341
0.99956 -0.67518 1.24928
1.00132 -0.83966 1.27445
1.00307 -1.00415 1.29897
1.00482 -1.16863 1.32288
1.00657 -1.33311 1.34623
1.00832 -1.49759 1.36905
1.01006 -1.66208 1.39136
1.01179 -1.82656 1.41320
0.94361 0.53244 0.61626
0.94551 0.51954 0.67702
0.94740 0.50622 0.73143
0.94929 0.49245 0.78102
0.95118 0.47817 0.82680
0.95306 0.46333 0.86948
0.95493 0.44787 0.90956
0.95680 0.43172 0.94744
0.95867 0.41478 0.98341
0.96053 0.39694 1.01771
0.96238 0.37805 1.05055
0.96423 0.35793 1.08207
0.96608 0.33634 1.11242
0.96792 0.31294 1.14170
0.96976 0.28724 1.17001
0.97159 0.25851 1.19743
0.97342 0.22551 1.22403
0.97524 0.18592 1.24989
0.97706 0.13412 1.27504
0.97887 0.04410 1.29955
0.98068 0.20687 1.32345
0.98249 0.04239 1.34678
0.98429 -0.12210 1.36958
0.98609 -0.28658 1.39189
0.98788 -0.45106 1.41372
0.91731 0.62764 0.61780
0.91928 0.61724 0.67838
0.92124 0.60660 0.73266
0.92320 0.59572 0.78216
0.92516 0.58458 0.82786
0.92711 0.57316 0.87046
0.92905 0.56145 0.91049
0.93099 0.54941 0.94832
0.93293 0.53703 0.98425
0.93485 0.52427 1.01851
0.93678 0.51110 1.05132
0.93870 0.49750 1.08281
0.94061 0.48341 1.11313
0.94252 0.46878 1.14238
0.94442 0.45355 1.17067
0.94632 0.43766 1.19807
0.94821 0.42102 1.22466
0.95010 0.40352 1.25050
0.95198 0.38503 1.27563
0.95386 0.36538 1.30013
0.95573 0.34436 1.32401
0.95760 0.32166 1.34733
0.95946 0.29686 1.37012
0.96132 0.26934 1.39241
0.96317 0.23808 1.41423
0.88997 0.70715 0.61933
0.89202 0.69825 0.67974
0.89406 0.68921 0.73390
0.89610 0.68001 0.78329
0.89814 0.67064 0.82891
0.90016 0.66110 0.87145
0.90219 0.65138 0.91142
0.90420 0.64147 0.94920
0.90621 0.63136 0.98508
0.90821 0.62104 1.01931
0.91021 0.61049 1.05208
0.91220 0.59970 1.08355
0.91419 0.58865 1.11384
0.91617 0.57734 1.14307
0.91815 0.56573 1.17134
0.92012 0.55381 1.19872
0.92208 0.54156 1.22529
0.92404 0.52894 1.25110
0.92599 0.51593 1.27623
0.92794 0.50249 1.30070
0.92988 0.48858 1.32458
0.93182 0.47415 1.34788
0.93375 0.45915 1.37066
0.93567 0.44351 1.39294
0.93760 0.42715 1.41475
0.86147 0.77646 0.62087
0.86361 0.76860 0.68110
0.86575 0.76063 0.73513
0.86788 0.75255 0.78442
0.87000 0.74436 0.82996
0.87211 0.73604 0.87243
0.87422 0.72761 0.91234
0.87632 0.71904 0.95007
0.87841 0.71034 0.98592
0.88050 0.70149 1.02011
0.88258 0.69251 1.05285
0.88466 0.68336 1.08428
0.88672 0.67406 1.11455
0.88879 0.66458 1.14376
0.89084 0.65493 1.17200
0.89289 0.64509 1.19936
0.89493 0.63505 1.22591
0.89697 0.62481 1.25171
0.89900 0.61434 1.27682
0.90103 0.60364 1.30128
0.90304 0.59269 1.32514
0.90506 0.58147 1.34843
0.90706 0.56997 1.37120
0.90907 0.55817 1.39347
0.91106 0.54604 1.41527
0.83168 0.83851 0.62239
0.83392 0.83140 0.68246
0.83616 0.82422 0.73635
0.83838 0.81696 0.78555
0.84060 0.80961 0.83101
0.84282 0.80217 0.87341
0.84502 0.79464 0.91327
0.84722 0.78701 0.95095
0.84940 0.77929 0.98675
0.85159 0.77146 1.02091
0.85376 0.76353 1.05361
0.85593 0.75549 1.08502
0.85809 0.74734 1.11526
0.86024 0.73907 1.14444
0.86238 0.73068 1.17266
0.86452 0.72216 1.20000
0.86666 0.71351 1.22654
0.86878 0.70472 1.25232
0.87090 0.69578 1.27741
0.87301 0.68670 1.30186
0.87511 0.67745 1.32570
0.87721 0.66804 1.34898
0.87930 0.65845 1.37174
0.88139 0.64868 1.39399
0.88347 0.63872 1.41578
0.80042 0.89504 0.62391
0.80277 0.88852 0.68381
0.80512 0.88195 0.73758
0.80746 0.87531 0.78667
0.80979 0.86860 0.83205
0.81212 0.86182 0.87439
0.81443 0.85498 0.91419
0.81673 0.84806 0.95183
0.81903 0.84106 0.98759
0.82132 0.83399 1.02171
0.82360 0.82684 1.05438
0.82587 0.81960 1.08576
0.82813 0.81228 1.11597
0.83039 0.80487 1.14513
0.83264 0.79738 1.17333
0.83488 0.78979 1.20065
0.83711 0.78210 1.22716
0.83933 0.77431 1.25293
0.84155 0.76642 1.27800
0.84375 0.75842 1.30243
0.84596 0.75031 1.32626
0.84815 0.74208 1.34953
0.85033 0.73374 1.37227
0.85251 0.72526 1.39452
0.85468 0.71666 1.41630
0.76747 0.94721 0.62543
0.76996 0.94117 0.68516
0.77244 0.93508 0.73880
0.77491 0.92894 0.78780
0.77737 0.92274 0.83310
0.77981 0.91649 0.87537
0.78225 0.91018 0.91512
0.78468 0.90381 0.95270
0.78710 0.89738 0.98842
0.78951 0.89089 1.02250
0.79191 0.88434 1.05514
0.79430 0.87772 1.08649
0.79669 0.87104 1.11668
0.79906 0.86429 1.14581
0.80142 0.85747 1.17399
0.80378 0.85057 1.20129
0.80612 0.84361 1.22778
0.80846 0.83656 1.25353
0.81078 0.82944 1.27859
0.81310 0.82223 1.30301
0.81541 0.81495 1.32683
0.81771 0.80757 1.35008
0.82001 0.80011 1.37281
0.82229 0.79255 1.39504
0.82457 0.78490 1.41681
0.73255 0.99584 0.62694
0.73520 0.99019 0.68650
0.73783 0.98450 0.74002
0.74045 0.97876 0.78892
0.74306 0.97298 0.83414
0.74566 0.96715 0.87635
0.74825 0.96128 0.91604
0.75082 0.95536 0.95357
0.75338 0.94939 0.98925
0.75594 0.94337 1.02330
0.75848 0.93730 1.05591
0.76100 0.93117 1.08722
0.76352 0.92499 1.11738
0.76603 0.91876 1.14649
0.76853 0.91247 1.17465
0.77101 0.90613 1.20193
0.77349 0.89972 1.22841
0.77595 0.89325 1.25414
0.77841 0.88672 1.27918
0.78085 0.88013 1.30358
0.78329 0.87347 1.32739
0.78572 0.86674 1.35063
0.78813 0.85995 1.37335
0.79054 0.85308 1.39557
0.79293 0.84614 1.41732
