graphics/cube/sRGB_D65_MAT_139.cube
TITLE "QA_sRGB_D65_MAT_139"
# Copyright (c) 2026 @xsscx David H Hoyt LLC
# https://xss.cx
# Profiles applied (by profile description):
# - sRGB D65 MAT
LUT_3D_SIZE 9
LUT_3D_INPUT_RANGE 0.14690 0.93160
0.62949 0.56442 0.55355
0.54320 0.57191 0.71822
0.43458 0.57927 0.84436
0.27302 0.58652 0.94960
-0.48116 0.59366 1.04130
-1.74503 0.60068 1.12335
-3.00892 0.60761 1.19809
-4.27279 0.61443 1.26706
-5.53667 0.62115 1.33133
0.25385 0.82472 0.51373
-0.58648 0.82933 0.69034
-1.85036 0.83390 0.82197
-3.11424 0.83844 0.93050
-4.37812 0.84294 1.02444
-5.64200 0.84742 1.10814
-6.90588 0.85186 1.18415
-8.16976 0.85627 1.25414
-9.43364 0.86066 1.31925
-3.21956 1.00638 0.46957
-4.48344 1.00993 0.66092
-5.74732 1.01345 0.79875
-7.01120 1.01697 0.91087
-8.27508 1.02046 1.00721
-9.53896 1.02394 1.09265
-10.80284 1.02741 1.16999
-12.06672 1.03086 1.24105
-13.33060 1.03429 1.30702
-7.11652 1.15246 0.41948
-8.38040 1.15542 0.62970
-9.64428 1.15837 0.77462
-10.90816 1.16131 0.89067
-12.17204 1.16424 0.98958
-13.43592 1.16716 1.07686
-14.69980 1.17008 1.15560
-15.96368 1.17298 1.22776
-17.22756 1.17587 1.29464
-11.01349 1.27722 0.36060
-12.27737 1.27980 0.59634
-13.54125 1.28238 0.74946
-14.80513 1.28495 0.86985
-16.06901 1.28751 0.97153
-17.33289 1.29006 1.06076
-18.59677 1.29261 1.14097
-19.86065 1.29515 1.21428
-21.12453 1.29768 1.28210
-14.91045 1.38746 0.28683
-16.17433 1.38977 0.56041
-17.43821 1.39207 0.72314
-18.70209 1.39437 0.84835
-19.96597 1.39667 0.95301
-21.22985 1.39896 1.04432
-22.49372 1.40124 1.12608
-23.75761 1.40352 1.20060
-25.02149 1.40579 1.26939
-18.80741 1.48700 0.17875
-20.07129 1.48911 0.52126
-21.33517 1.49121 0.69552
-22.59905 1.49330 0.82610
-23.86293 1.49540 0.93401
-25.12681 1.49748 1.02753
-26.39069 1.49957 1.11092
-27.65457 1.50165 1.18670
-28.91845 1.50373 1.25650
-22.70437 1.57828 -0.16995
-23.96825 1.58022 0.47799
-25.23213 1.58216 0.66639
-26.49601 1.58409 0.80304
-27.75989 1.58602 0.91448
-29.02377 1.58795 1.01037
-30.28765 1.58988 1.09549
-31.55153 1.59180 1.17259
-32.81541 1.59372 1.24344
-26.60134 1.66292 -0.68703
-27.86522 1.66473 0.42913
-29.12909 1.66653 0.63552
-30.39297 1.66834 0.77908
-31.65686 1.67014 0.89439
-32.92073 1.67194 0.99282
-34.18462 1.67373 1.07975
-35.44849 1.67553 1.15824
-36.71238 1.67732 1.23019
0.99555 0.32905 0.56379
0.95098 0.34342 0.72559
0.90345 0.35710 0.85033
0.85237 0.37017 0.95472
0.79691 0.38270 1.04583
0.73588 0.39475 1.12745
0.66740 0.40636 1.20185
0.58837 0.41757 1.27055
0.49267 0.42843 1.33459
0.84793 0.70591 0.52497
0.79206 0.71154 0.69809
0.73049 0.71712 0.82816
0.66128 0.72264 0.93576
0.58115 0.72810 1.02907
0.48359 0.73352 1.11231
0.35144 0.73888 1.18797
0.04521 0.74419 1.25768
-1.21842 0.74945 1.32256
0.65508 0.91846 0.48212
0.57382 0.92246 0.66911
0.47429 0.92644 0.80517
0.33749 0.93039 0.91628
-0.05986 0.93433 1.01195
-1.32374 0.93823 1.09690
-2.58762 0.94212 1.17388
-3.85150 0.94599 1.24464
-5.11538 0.94984 1.31037
0.32280 1.08028 0.43386
-0.16519 1.08350 0.63841
-1.42907 1.08672 0.78130
-2.69295 1.08992 0.89624
-3.95683 1.09311 0.99443
-5.22071 1.09629 1.08120
-6.48459 1.09945 1.15955
-7.74847 1.10260 1.23140
-9.01235 1.10574 1.29803
-2.79827 1.21491 0.37778
-4.06215 1.21767 0.60567
-5.32603 1.22042 0.75643
-6.58991 1.22316 0.87559
-7.85379 1.22590 0.97649
-9.11767 1.22862 1.06518
-10.38155 1.23134 1.14499
-11.64543 1.23405 1.21798
-12.90931 1.23676 1.28553
-6.69523 1.33204 0.30906
-7.95911 1.33448 0.57049
-9.22299 1.33691 0.73044
-10.48687 1.33934 0.85428
-11.75075 1.34176 0.95811
-13.01463 1.34418 1.04884
-14.27851 1.34659 1.13017
-15.54239 1.34899 1.20435
-16.80627 1.35139 1.27287
-10.59220 1.43673 0.21444
-11.85608 1.43894 0.53230
-13.11996 1.44114 0.70319
-14.38384 1.44333 0.83225
-15.64772 1.44552 0.93924
-16.91159 1.44771 1.03215
-18.17547 1.44989 1.11509
-19.43936 1.45207 1.19051
-20.70324 1.45424 1.26003
-14.48915 1.53204 -0.02893
-15.75303 1.53406 0.49027
-17.01691 1.53608 0.67450
-18.28079 1.53809 0.80942
-19.54467 1.54010 0.91986
-20.80855 1.54211 1.01509
-22.07243 1.54411 1.09973
-23.33631 1.54611 1.17646
-24.60019 1.54811 1.24702
-18.38612 1.61993 -0.54601
-19.65000 1.62181 0.44313
-20.91388 1.62368 0.64413
-22.17776 1.62555 0.78571
-23.44164 1.62741 0.89993
-24.70552 1.62928 0.99765
-25.96940 1.63114 1.08407
-27.23328 1.63300 1.16218
-28.49716 1.63485 1.23382
1.23679 -1.31360 0.57381
1.20382 -1.20828 0.73285
1.16959 -1.10297 0.85625
1.13396 -0.99765 0.95980
1.09678 -0.89233 1.05034
1.05783 -0.78701 1.13153
1.01687 -0.68169 1.20560
0.97360 -0.57638 1.27403
0.92762 -0.47106 1.33785
1.13093 0.55291 0.53592
1.09360 0.56059 0.70573
1.05450 0.56815 0.83428
1.01336 0.57557 0.94098
0.96988 0.58288 1.03368
0.92365 0.59007 1.11647
0.87413 0.59715 1.19178
0.82062 0.60413 1.26121
0.76209 0.61100 1.32585
1.00983 0.81773 0.49428
0.96614 0.82239 0.67717
0.91965 0.82701 0.81153
0.86984 0.83160 0.92165
0.81595 0.83615 1.01666
0.75694 0.84067 1.10113
0.69121 0.84516 1.17775
0.61617 0.84962 1.24821
0.52704 0.85405 1.31371
0.86552 1.00102 0.44767
0.81125 1.00459 0.64697
0.75174 1.00814 0.78790
0.68536 1.01168 0.90177
0.60937 1.01520 0.99925
0.51871 1.01870 1.08551
0.40154 1.02219 1.16348
0.20945 1.02566 1.23503
-0.79713 1.02912 1.30141
0.67944 1.14798 0.39405
0.60248 1.15096 0.61482
0.51022 1.15393 0.76332
0.38975 1.15688 0.88129
0.18272 1.15983 0.98143
-0.90245 1.16277 1.06958
-2.16633 1.16569 1.14898
-3.43021 1.16861 1.22166
-4.69409 1.17152 1.28896
0.37751 1.27333 0.32952
0.15094 1.27592 0.58036
-1.00777 1.27850 0.73765
-2.27165 1.28108 0.86016
-3.53553 1.28365 0.96317
-4.79941 1.28622 1.05333
-6.06329 1.28877 1.13423
-7.32717 1.29132 1.20809
-8.59105 1.29387 1.27634
-2.37698 1.38397 0.24449
-3.64086 1.38629 0.54306
-4.90474 1.38860 0.71076
-6.16862 1.39091 0.83833
-7.43250 1.39321 0.94444
-8.69638 1.39551 1.03673
-9.96026 1.39780 1.11923
-11.22414 1.40009 1.19431
-12.48802 1.40237 1.26355
-6.27394 1.48383 0.09095
-7.53782 1.48594 0.50217
-8.80170 1.48805 0.68248
-10.06558 1.49015 0.81573
-11.32946 1.49225 0.92520
-12.59334 1.49434 1.01978
-13.85721 1.49643 1.10394
-15.12110 1.49852 1.18031
-16.38498 1.50060 1.25059
-10.17090 1.57535 -0.40499
-11.43478 1.57730 0.45659
-12.69866 1.57924 0.65259
-13.96254 1.58118 0.79227
-15.22642 1.58312 0.90542
-16.49030 1.58505 1.00244
-17.75418 1.58698 1.08837
-19.01806 1.58891 1.16609
-20.28194 1.59083 1.23744
1.42727 -3.77007 0.58360
1.40021 -3.66476 0.74003
1.37243 -3.55944 0.86211
1.34387 -3.45412 0.96485
1.31446 -3.34880 1.05482
1.28415 -3.24348 1.13559
1.25285 -3.13817 1.20933
1.22045 -3.03285 1.27749
1.18687 -2.92753 1.34110
1.34145 0.30590 0.54658
1.31197 0.32151 0.71326
1.28158 0.33627 0.84035
1.25019 0.35028 0.94616
1.21770 0.36365 1.03826
1.18401 0.37644 1.12060
1.14899 0.38872 1.19557
1.11247 0.40055 1.26472
1.07429 0.41196 1.32914
1.24752 0.69732 0.50606
1.21494 0.70305 0.68511
1.18115 0.70871 0.81781
1.14600 0.71431 0.92697
1.10936 0.71986 1.02134
1.07102 0.72535 1.10534
1.03077 0.73079 1.18160
0.98831 0.73618 1.25177
0.94327 0.74151 1.31704
1.14301 0.91240 0.46097
1.10623 0.91644 0.65538
1.06774 0.92045 0.79444
1.02732 0.92444 0.90725
0.98466 0.92840 1.00404
0.93939 0.93234 1.08980
0.89104 0.93627 1.16740
0.83896 0.94016 1.23864
0.78224 0.94404 1.30478
1.02385 1.07540 0.40954
0.98099 1.07864 0.62380
0.93549 1.08188 0.77012
0.88686 1.08510 0.88693
0.83442 1.08831 0.98633
0.77726 1.09150 1.07396
0.71400 1.09468 1.15296
0.64245 1.09786 1.22532
0.55878 1.10101 1.29237
0.88264 1.21074 0.34857
0.82986 1.21351 0.59002
0.77225 1.21627 0.74476
0.70839 1.21903 0.86599
0.63601 1.22178 0.96819
0.55106 1.22452 1.05779
0.44492 1.22725 1.13828
0.29073 1.22997 1.21181
-0.37583 1.23269 1.27980
0.70272 1.32835 0.27082
0.62949 1.33080 0.55355
0.54320 1.33325 0.71822
0.43458 1.33568 0.84436
0.27302 1.33811 0.94960
-0.48116 1.34054 1.04130
-1.74504 1.34296 1.12335
-3.00892 1.34537 1.19809
-4.27280 1.34778 1.26706
0.42392 1.43341 0.14993
0.25385 1.43562 0.51373
-0.58648 1.43783 0.69034
-1.85036 1.44003 0.82197
-3.11424 1.44222 0.93050
-4.37812 1.44442 1.02444
-5.64200 1.44661 1.10814
-6.90588 1.44879 1.18415
-8.16976 1.45097 1.25414
-1.95568 1.52899 -0.26397
-3.21956 1.53102 0.46957
-4.48344 1.53304 0.66092
-5.74732 1.53506 0.79875
-7.01120 1.53707 0.91087
-8.27508 1.53909 1.00721
-9.53896 1.54110 1.09265
-10.80284 1.54310 1.16999
-12.06672 1.54510 1.24105
1.58846 -6.22655 0.59319
1.56511 -6.12123 0.74711
1.54128 -6.01591 0.86792
1.51694 -5.91059 0.96986
1.49206 -5.80527 1.05928
1.46661 -5.69996 1.13963
1.44054 -5.59464 1.21305
1.41383 -5.48932 1.28095
1.38641 -5.38400 1.34433
1.51489 -1.47205 0.55699
1.48996 -1.36674 0.72069
1.46446 -1.26142 0.84636
1.43834 -1.15610 0.95131
1.41157 -1.05078 1.04281
1.38409 -0.94546 1.12471
1.35586 -0.84015 1.19934
1.32682 -0.73483 1.26822
1.29690 -0.62951 1.33242
1.43614 0.54109 0.51751
1.40931 0.54898 0.69294
1.38177 0.55673 0.82404
1.35348 0.56435 0.93226
1.32436 0.57184 1.02599
1.29436 0.57921 1.10953
1.26340 0.58646 1.18543
1.23138 0.59359 1.25532
1.19820 0.60062 1.32035
1.35108 0.81066 0.47380
1.32190 0.81537 0.66366
1.29182 0.82004 0.80090
1.26077 0.82468 0.91268
1.22866 0.82928 1.00880
1.19538 0.83386 1.09407
1.16082 0.83839 1.17129
1.12482 0.84290 1.24224
1.08721 0.84738 1.30814
1.25814 0.99561 0.42434
1.22593 0.99921 0.63262
1.19255 1.00279 0.77685
1.15788 1.00635 0.89253
1.12175 1.00989 0.99120
1.08400 1.01342 1.07831
1.04442 1.01693 1.15692
1.00272 1.02043 1.22898
0.95860 1.02391 1.29577
1.15492 1.14349 0.36644
1.11867 1.14648 0.59947
1.08078 1.14946 0.75179
1.04103 1.15243 0.87177
0.99915 1.15539 0.97319
0.95480 1.15834 1.06223
0.90754 1.16129 1.14231
0.85678 1.16422 1.21551
0.80173 1.16714 1.28324
1.03762 1.26941 0.29446
0.99555 1.27202 0.56379
0.95098 1.27461 0.72559
0.90345 1.27720 0.85033
0.85237 1.27978 0.95472
0.79692 1.28236 1.04583
0.73588 1.28492 1.12745
0.66740 1.28748 1.20185
0.58837 1.29004 1.27055
0.89934 1.38047 0.19146
0.84793 1.38280 0.52497
0.79206 1.38512 0.69809
0.73049 1.38744 0.82816
0.66128 1.38975 0.93576
0.58115 1.39205 1.02907
0.48359 1.39435 1.11231
0.35144 1.39665 1.18797
0.04521 1.39893 1.25768
0.72504 1.48065 -0.12295
0.65508 1.48276 0.48212
0.57382 1.48488 0.66911
0.47429 1.48698 0.80517
0.33749 1.48909 0.91628
-0.05986 1.49119 1.01195
-1.32374 1.49328 1.09690
-2.58762 1.49538 1.17388
-3.85150 1.49747 1.24464
1.73010 -8.68302 0.60258
1.70934 -8.57770 0.75411
1.68823 -8.47238 0.87368
1.66675 -8.36706 0.97484
1.64490 -8.26175 1.06371
1.62264 -8.15643 1.14365
1.59997 -8.05111 1.21675
1.57685 -7.94579 1.28439
1.55326 -7.84047 1.34756
1.66495 -3.92852 0.56716
1.64306 -3.82321 0.72802
1.62077 -3.71789 0.85231
1.59806 -3.61257 0.95641
1.57490 -3.50725 1.04733
1.55127 -3.40194 1.12881
1.52714 -3.29662 1.20310
1.50249 -3.19130 1.27171
1.47728 -3.08598 1.33568
1.59614 0.28045 0.52865
1.57295 0.29765 0.70065
1.54928 0.31375 0.83020
1.52511 0.32892 0.93750
1.50041 0.34330 1.03061
1.47516 0.35698 1.11370
1.44930 0.37005 1.18925
1.42281 0.38259 1.25886
1.39563 0.39464 1.32366
1.52307 0.68860 0.48622
1.49833 0.69441 0.67181
1.47302 0.70017 0.80730
1.44712 0.70586 0.91808
1.42057 0.71149 1.01352
1.39333 0.71707 1.09831
1.36536 0.72259 1.17517
1.33660 0.72805 1.24583
1.30697 0.73347 1.31149
1.44493 0.90629 0.43852
1.41833 0.91036 0.64128
1.39103 0.91441 0.78351
1.36300 0.91843 0.89809
1.33416 0.92243 0.99604
1.30446 0.92640 1.08264
1.27383 0.93036 1.16086
1.24217 0.93429 1.23261
1.20940 0.93820 1.29916
1.36062 1.07049 0.38330
1.33172 1.07375 0.60874
1.30195 1.07701 0.75873
1.27123 1.08025 0.87750
1.23949 1.08347 0.97814
1.20661 1.08669 1.06665
1.17249 1.08989 1.14632
1.13699 1.09308 1.21921
1.09994 1.09626 1.28668
1.26863 1.20655 0.31606
1.23679 1.20934 0.57381
1.20382 1.21211 0.73285
1.16959 1.21488 0.85625
1.13396 1.21764 0.95980
1.09678 1.22039 1.05034
1.05783 1.22314 1.13153
1.01687 1.22587 1.20560
0.97360 1.22860 1.27403
1.16667 1.32466 0.22496
1.13093 1.32712 0.53592
1.09360 1.32957 0.70573
1.05450 1.33201 0.83428
1.01336 1.33445 0.94098
0.96988 1.33689 1.03368
0.92365 1.33932 1.11647
0.87413 1.34174 1.19178
0.82062 1.34415 1.26121
1.05115 1.43007 0.01807
1.00983 1.43229 0.49428
0.96614 1.43450 0.67717
0.91965 1.43671 0.81153
0.86984 1.43892 0.92165
0.81595 1.44112 1.01666
0.75694 1.44331 1.10113
0.69121 1.44550 1.17775
0.61617 1.44769 1.24821
1.85752 -11.13949 0.61179
1.83869 -11.03417 0.76103
1.81960 -10.92885 0.87939
1.80023 -10.82354 0.97979
1.78058 -10.71822 1.06812
1.76062 -10.61290 1.14765
1.74035 -10.50758 1.22043
1.71976 -10.40226 1.28782
1.69883 -10.29695 1.35077
1.79861 -6.38500 0.57709
1.77892 -6.27968 0.73526
1.75894 -6.17436 0.85821
1.73865 -6.06904 0.96149
1.71803 -5.96373 1.05183
1.69707 -5.85841 1.13288
1.67575 -5.75309 1.20684
1.65405 -5.64777 1.27519
1.63197 -5.54245 1.33893
1.73694 -1.63051 0.53950
1.71629 -1.52519 0.70825
1.69530 -1.41987 0.83631
1.67395 -1.31455 0.94271
1.65223 -1.20923 1.03521
1.63011 -1.10392 1.11785
1.60757 -0.99860 1.19305
1.58460 -0.89328 1.26238
1.56117 -0.78796 1.32695
1.67216 0.52892 0.49825
1.65040 0.53705 0.67983
1.62825 0.54502 0.81363
1.60568 0.55284 0.92343
1.58267 0.56053 1.01822
1.55920 0.56808 1.10254
1.53524 0.57551 1.17903
1.51077 0.58281 1.24940
1.48575 0.59001 1.31482
1.60378 0.80351 0.45216
1.58073 0.80827 0.64979
1.55722 0.81300 0.79009
1.53322 0.81769 0.90360
1.50871 0.82234 1.00085
1.48364 0.82697 1.08694
1.45799 0.83155 1.16479
1.43171 0.83611 1.23624
1.40477 0.84063 1.30254
1.53120 0.99017 0.39930
1.50664 0.99379 0.61783
1.48152 0.99740 0.76559
1.45582 1.00098 0.88318
1.42949 1.00455 0.98307
1.40249 1.00811 1.07104
1.37477 1.01164 1.15031
1.34628 1.01516 1.22288
1.31695 1.01867 1.29010
1.45365 1.13896 0.33602
1.42727 1.14197 0.58360
1.40021 1.14497 0.74003
1.37243 1.14796 0.86211
1.34387 1.15093 0.96485
1.31446 1.15390 1.05482
1.28415 1.15686 1.13559
1.25285 1.15980 1.20933
1.22045 1.16274 1.27749
1.37008 1.26548 0.25361
1.34145 1.26810 0.54658
1.31197 1.27070 0.71326
1.28158 1.27330 0.84035
1.25019 1.27589 0.94616
1.21770 1.27848 1.03826
1.18401 1.28106 1.12060
1.14899 1.28363 1.19557
1.11247 1.28619 1.26472
1.27900 1.37697 0.11388
1.24752 1.37930 0.50606
1.21494 1.38163 0.68511
1.18115 1.38395 0.81781
1.14600 1.38627 0.92697
1.10936 1.38858 1.02134
1.07102 1.39089 1.10534
1.03077 1.39319 1.18160
0.98831 1.39549 1.25177
1.97405 -13.59596 0.62083
1.95673 -13.49064 0.76786
1.93921 -13.38533 0.88506
1.92146 -13.28001 0.98470
1.90349 -13.17469 1.07250
1.88529 -13.06937 1.15164
1.86684 -12.96405 1.22410
1.84814 -12.85874 1.29124
1.82918 -12.75342 1.35398
1.91997 -8.84147 0.58682
1.90198 -8.73615 0.74240
1.88376 -8.63083 0.86405
1.86529 -8.52551 0.96652
1.84657 -8.42020 1.05631
1.82759 -8.31488 1.13694
1.80834 -8.20956 1.21057
1.78880 -8.10424 1.27865
1.76897 -7.99892 1.34218
1.86374 -4.08698 0.55008
1.84500 -3.98166 0.71575
1.82600 -3.87634 0.84236
1.80672 -3.77102 0.94788
1.78716 -3.66570 1.03978
1.76731 -3.56039 1.12197
1.74714 -3.45507 1.19683
1.72666 -3.34975 1.26589
1.70584 -3.24443 1.33023
1.80510 0.25196 0.50992
1.78552 0.27128 0.68773
1.76564 0.28912 0.81990
1.74545 0.30575 0.92874
1.72494 0.32137 1.02289
1.70409 0.33614 1.10674
1.68289 0.35016 1.18288
1.66133 0.36353 1.25296
1.63937 0.37633 1.31814
1.74375 0.67973 0.46530
1.72321 0.68564 0.65816
1.70234 0.69149 0.79660
1.68111 0.69727 0.90906
1.65951 0.70300 1.00563
1.63753 0.70866 1.09123
1.61513 0.71426 1.16870
1.59231 0.71981 1.23985
1.56904 0.72530 1.30590
1.67932 0.90012 0.41455
1.65769 0.90423 0.62676
1.63568 0.90831 0.77238
1.61325 0.91237 0.88881
1.59039 0.91640 0.98796
1.56708 0.92041 1.07541
1.54329 0.92440 1.15428
1.51899 0.92837 1.22654
1.49415 0.93231 1.29351
1.61136 1.06555 0.35465
1.58846 1.06883 0.59319
1.56511 1.07211 0.74711
1.54128 1.07537 0.86792
1.51694 1.07861 0.96986
1.49206 1.08185 1.05928
1.46661 1.08507 1.13963
1.44054 1.08828 1.21305
1.41383 1.09147 1.28095
1.53927 1.20234 0.27896
1.51489 1.20514 0.55699
1.48996 1.20793 0.72069
1.46446 1.21071 0.84636
1.43834 1.21349 0.95131
1.41157 1.21625 1.04281
1.38409 1.21901 1.12471
1.35586 1.22175 1.19934
1.32682 1.22449 1.26822
1.46230 1.32095 0.16500
1.43613 1.32341 0.51751
1.40931 1.32588 0.69294
1.38177 1.32833 0.82404
1.35348 1.33078 0.93226
1.32436 1.33322 1.02599
1.29436 1.33566 1.10953
1.26340 1.33809 1.18543
1.23138 1.34052 1.25532
2.08188 -16.05243 0.62970
2.06579 -15.94712 0.77462
2.04953 -15.84180 0.89067
2.03308 -15.73648 0.98958
2.01645 -15.63116 1.07686
1.99964 -15.52584 1.15560
1.98263 -15.42053 1.22776
1.96542 -15.31521 1.29464
1.94800 -15.20989 1.35717
2.03170 -11.29794 0.59634
2.01506 -11.19262 0.74946
1.99823 -11.08731 0.86985
1.98120 -10.98199 0.97153
1.96397 -10.87667 1.06076
1.94653 -10.77135 1.14097
1.92888 -10.66603 1.21428
1.91101 -10.56072 1.28210
1.89290 -10.45540 1.34541
1.97977 -6.54345 0.56041
1.96253 -6.43813 0.72314
1.94507 -6.33281 0.84835
1.92740 -6.22750 0.95301
1.90951 -6.12218 1.04432
1.89138 -6.01686 1.12608
1.87302 -5.91154 1.20060
1.85440 -5.80622 1.26939
1.83553 -5.70091 1.33351
1.92592 -1.78896 0.52126
1.90800 -1.68364 0.69552
1.88986 -1.57832 0.82610
1.87147 -1.47300 0.93401
1.85284 -1.36769 1.02753
1.83395 -1.26237 1.11092
1.81479 -1.15705 1.18670
1.79535 -1.05173 1.25650
1.77562 -0.94641 1.32146
1.86993 0.51639 0.47799
1.85128 0.52476 0.66639
1.83236 0.53297 0.80304
1.81318 0.54101 0.91448
1.79371 0.54891 1.01037
1.77396 0.55667 1.09549
1.75390 0.56429 1.17259
1.73352 0.57178 1.24344
1.71282 0.57914 1.30926
1.81157 0.79627 0.42913
1.79208 0.80109 0.63552
1.77230 0.80587 0.77908
1.75221 0.81062 0.89439
1.73181 0.81533 0.99282
1.71108 0.82000 1.07975
1.69000 0.82464 1.15824
1.66856 0.82924 1.23019
1.64673 0.83382 1.29690
1.75053 0.98469 0.37216
1.73010 0.98834 0.60258
1.70934 0.99197 0.75411
1.68823 0.99558 0.87368
1.66675 0.99918 0.97484
1.64490 1.00275 1.06371
1.62264 1.00632 1.14365
1.59997 1.00986 1.21675
1.57685 1.01339 1.28439
1.68645 1.13442 0.30186
1.66495 1.13744 0.56716
1.64306 1.14046 0.72802
1.62077 1.14346 0.85231
1.59806 1.14645 0.95641
1.57490 1.14943 1.04733
1.55127 1.15241 1.12881
1.52714 1.15537 1.20310
1.50249 1.15832 1.27171
1.61889 1.26154 0.20330
1.59614 1.26416 0.52865
1.57295 1.26678 0.70065
1.54928 1.26939 0.83020
1.52511 1.27199 0.93750
1.50041 1.27459 1.03061
1.47516 1.27718 1.11370
1.44930 1.27976 1.18925
1.42281 1.28233 1.25886
