graphics/cube/sRGB_D65_MAT_139.cube
TITLE "QA_sRGB_D65_MAT_139"
# Copyright (c) 2026 @xsscx David H Hoyt LLC
# https://xss.cx
# Profiles applied (by profile description):
# - sRGB D65 MAT
LUT_3D_SIZE 25
LUT_3D_INPUT_RANGE 0.14690 0.93160
0.62949 0.56442 0.55355
0.60248 0.56693 0.61482
0.57382 0.56943 0.66911
0.54320 0.57191 0.71822
0.51022 0.57438 0.76332
0.47429 0.57683 0.80517
0.43458 0.57927 0.84436
0.38975 0.58170 0.88129
0.33749 0.58412 0.91628
0.27302 0.58652 0.94960
0.18272 0.58891 0.98143
-0.05986 0.59129 1.01195
-0.48116 0.59366 1.04130
-0.90245 0.59601 1.06958
-1.32374 0.59835 1.09690
-1.74503 0.60068 1.12335
-2.16633 0.60300 1.14898
-2.58762 0.60531 1.17388
-3.00892 0.60761 1.19809
-3.43021 0.60989 1.22166
-3.85150 0.61216 1.24464
-4.27279 0.61443 1.26706
-4.69409 0.61668 1.28896
-5.11538 0.61892 1.31037
-5.53667 0.62115 1.33133
0.54055 0.66612 0.54069
0.50735 0.66815 0.60362
0.47114 0.67018 0.65908
0.43106 0.67219 0.70909
0.38572 0.67420 0.75489
0.33268 0.67620 0.79732
0.26680 0.67819 0.83698
0.17281 0.68017 0.87432
-0.09497 0.68215 0.90967
-0.51626 0.68412 0.94329
-0.93756 0.68608 0.97539
-1.35885 0.68804 1.00616
-1.78014 0.68998 1.03572
-2.20144 0.69193 1.06420
-2.62273 0.69386 1.09170
-3.04402 0.69578 1.11831
-3.46532 0.69770 1.14410
-3.88661 0.69962 1.16913
-4.30790 0.70152 1.19347
-4.72920 0.70342 1.21716
-5.15049 0.70532 1.24025
-5.57178 0.70720 1.26277
-5.99308 0.70908 1.28477
-6.41437 0.71095 1.30628
-6.83566 0.71282 1.32732
0.42751 0.75089 0.52743
0.38164 0.75263 0.59213
0.32778 0.75437 0.64885
0.26042 0.75610 0.69980
0.16226 0.75782 0.74633
-0.13008 0.75954 0.78936
-0.55137 0.76125 0.82952
-0.97266 0.76296 0.86728
-1.39396 0.76466 0.90299
-1.81525 0.76636 0.93692
-2.23654 0.76805 0.96931
-2.65784 0.76974 1.00032
-3.07913 0.77143 1.03010
-3.50042 0.77310 1.05878
-3.92172 0.77478 1.08646
-4.34301 0.77645 1.11324
-4.76430 0.77811 1.13918
-5.18560 0.77977 1.16435
-5.60689 0.78143 1.18882
-6.02818 0.78308 1.21263
-6.44948 0.78473 1.23583
-6.87077 0.78637 1.25847
-7.29206 0.78800 1.28057
-7.71336 0.78964 1.30216
-8.13465 0.79127 1.32329
0.25385 0.82472 0.51373
0.15094 0.82626 0.58036
-0.16519 0.82780 0.63841
-0.58648 0.82933 0.69034
-1.00777 0.83085 0.73765
-1.42906 0.83238 0.78130
-1.85036 0.83390 0.82197
-2.27165 0.83541 0.86016
-2.69294 0.83693 0.89624
-3.11424 0.83844 0.93050
-3.53553 0.83994 0.96317
-3.95682 0.84144 0.99443
-4.37812 0.84294 1.02444
-4.79941 0.84444 1.05333
-5.22070 0.84593 1.08120
-5.64200 0.84742 1.10814
-6.06329 0.84890 1.13423
-6.48458 0.85038 1.15955
-6.90588 0.85186 1.18415
-7.32717 0.85334 1.20809
-7.74846 0.85481 1.23140
-8.16976 0.85627 1.25414
-8.59105 0.85774 1.27634
-9.01234 0.85920 1.29803
-9.43364 0.86066 1.31925
-0.62159 0.89076 0.49956
-1.04288 0.89215 0.56827
-1.46417 0.89354 0.62774
-1.88547 0.89492 0.68072
-2.30676 0.89630 0.72883
-2.72805 0.89768 0.77312
-3.14935 0.89906 0.81433
-3.57064 0.90043 0.85297
-3.99193 0.90180 0.88943
-4.41323 0.90317 0.92402
-4.83452 0.90454 0.95698
-5.25581 0.90590 0.98850
-5.67711 0.90726 1.01874
-6.09840 0.90862 1.04784
-6.51969 0.90997 1.07589
-6.94098 0.91132 1.10301
-7.36228 0.91267 1.12926
-7.78357 0.91402 1.15472
-8.20486 0.91536 1.17946
-8.62616 0.91670 1.20352
-9.04745 0.91804 1.22695
-9.46874 0.91938 1.24980
-9.89004 0.92071 1.27210
-10.31133 0.92204 1.29388
-10.73263 0.92337 1.31519
-1.92057 0.95090 0.48486
-2.34187 0.95217 0.55585
-2.76316 0.95345 0.61683
-3.18445 0.95472 0.67091
-3.60575 0.95599 0.71987
-4.02704 0.95725 0.76484
-4.44833 0.95852 0.80659
-4.86963 0.95978 0.84569
-5.29092 0.96104 0.88255
-5.71221 0.96230 0.91748
-6.13351 0.96355 0.95074
-6.55480 0.96481 0.98252
-6.97609 0.96606 1.01300
-7.39739 0.96731 1.04230
-7.81868 0.96855 1.07055
-8.23997 0.96980 1.09784
-8.66127 0.97104 1.12426
-9.08256 0.97228 1.14987
-9.50385 0.97352 1.17474
-9.92514 0.97476 1.19893
-10.34644 0.97599 1.22247
-10.76773 0.97723 1.24543
-11.18902 0.97846 1.26783
-11.61032 0.97968 1.28972
-12.03161 0.98091 1.31112
-3.21956 1.00638 0.46957
-3.64085 1.00756 0.54306
-4.06215 1.00875 0.60567
-4.48344 1.00993 0.66092
-4.90473 1.01110 0.71076
-5.32603 1.01228 0.75643
-5.74732 1.01345 0.79875
-6.16861 1.01463 0.83833
-6.58991 1.01580 0.87559
-7.01120 1.01697 0.91087
-7.43249 1.01813 0.94444
-7.85379 1.01930 0.97649
-8.27508 1.02046 1.00721
-8.69637 1.02162 1.03674
-9.11767 1.02278 1.06518
-9.53896 1.02394 1.09265
-9.96025 1.02510 1.11923
-10.38155 1.02625 1.14499
-10.80284 1.02741 1.16999
-11.22413 1.02856 1.19431
-11.64543 1.02971 1.21798
-12.06672 1.03086 1.24105
-12.48801 1.03200 1.26355
-12.90931 1.03315 1.28553
-13.33060 1.03429 1.30702
-4.51855 1.05807 0.45364
-4.93984 1.05918 0.52987
-5.36114 1.06029 0.59424
-5.78243 1.06139 0.65073
-6.20372 1.06249 0.70150
-6.62502 1.06360 0.74790
-7.04631 1.06470 0.79082
-7.46760 1.06579 0.83089
-7.88890 1.06689 0.86857
-8.31019 1.06799 0.90421
-8.73148 1.06908 0.93808
-9.15277 1.07017 0.97042
-9.57407 1.07126 1.00138
-9.99536 1.07235 1.03113
-10.41665 1.07344 1.05977
-10.83795 1.07453 1.08742
-11.25924 1.07561 1.11416
-11.68053 1.07669 1.14008
-12.10183 1.07778 1.16522
-12.52312 1.07886 1.18967
-12.94441 1.07994 1.21346
-13.36571 1.08101 1.23664
-13.78700 1.08209 1.25925
-14.20829 1.08316 1.28133
-14.62959 1.08424 1.30291
-5.81754 1.10661 0.43697
-6.23883 1.10765 0.51626
-6.66012 1.10869 0.58252
-7.08142 1.10973 0.64032
-7.50271 1.11077 0.69207
-7.92400 1.11181 0.73924
-8.34530 1.11285 0.78277
-8.76659 1.11388 0.82335
-9.18788 1.11492 0.86146
-9.60918 1.11595 0.89747
-10.03047 1.11698 0.93167
-10.45176 1.11801 0.96429
-10.87306 1.11904 0.99551
-11.29435 1.12007 1.02547
-11.71564 1.12110 1.05432
-12.13694 1.12212 1.08216
-12.55823 1.12315 1.10907
-12.97952 1.12417 1.13514
-13.40082 1.12519 1.16043
-13.82211 1.12621 1.18500
-14.24340 1.12723 1.20892
-14.66470 1.12825 1.23221
-15.08599 1.12926 1.25493
-15.50728 1.13028 1.27711
-15.92858 1.13129 1.29879
-7.11652 1.15246 0.41948
-7.53782 1.15345 0.50217
-7.95911 1.15443 0.57049
-8.38040 1.15542 0.62970
-8.80170 1.15640 0.68248
-9.22299 1.15739 0.73044
-9.64428 1.15837 0.77462
-10.06558 1.15935 0.81573
-10.48687 1.16033 0.85428
-10.90816 1.16131 0.89067
-11.32946 1.16229 0.92520
-11.75075 1.16327 0.95811
-12.17204 1.16424 0.98958
-12.59334 1.16522 1.01978
-13.01463 1.16619 1.04884
-13.43592 1.16716 1.07686
-13.85721 1.16814 1.10394
-14.27851 1.16911 1.13017
-14.69980 1.17008 1.15560
-15.12110 1.17104 1.18031
-15.54239 1.17201 1.20435
-15.96368 1.17298 1.22776
-16.38498 1.17394 1.25059
-16.80627 1.17491 1.27287
-17.22756 1.17587 1.29464
-8.41551 1.19599 0.40103
-8.83681 1.19693 0.48757
-9.25810 1.19787 0.55813
-9.67939 1.19881 0.61883
-10.10069 1.19975 0.67271
-10.52198 1.20068 0.72151
-10.94327 1.20162 0.76635
-11.36456 1.20255 0.80801
-11.78586 1.20349 0.84702
-12.20715 1.20442 0.88380
-12.62844 1.20535 0.91867
-13.04974 1.20628 0.95188
-13.47103 1.20721 0.98361
-13.89232 1.20814 1.01405
-14.31362 1.20907 1.04331
-14.73491 1.21000 1.07153
-15.15620 1.21092 1.09879
-15.57750 1.21185 1.12517
-15.99879 1.21277 1.15075
-16.42008 1.21369 1.17560
-16.84138 1.21462 1.19976
-17.26267 1.21554 1.22329
-17.68396 1.21646 1.24623
-18.10526 1.21738 1.26861
-18.52655 1.21829 1.29048
-9.71450 1.23750 0.38147
-10.13579 1.23840 0.47240
-10.55708 1.23930 0.54541
-10.97838 1.24019 0.60772
-11.39967 1.24109 0.66275
-11.82096 1.24198 0.71243
-12.24226 1.24288 0.75797
-12.66355 1.24377 0.80019
-13.08484 1.24466 0.83968
-13.50614 1.24556 0.87686
-13.92743 1.24645 0.91208
-14.34872 1.24734 0.94559
-14.77002 1.24823 0.97759
-15.19131 1.24911 1.00827
-15.61260 1.25000 1.03775
-16.03390 1.25089 1.06616
-16.45519 1.25177 1.09360
-16.87648 1.25266 1.12014
-17.29778 1.25354 1.14588
-17.71907 1.25442 1.17086
-18.14036 1.25531 1.19515
-18.56166 1.25619 1.21880
-18.98295 1.25707 1.24184
-19.40424 1.25795 1.26433
-19.82553 1.25883 1.28630
-11.01349 1.27722 0.36060
-11.43478 1.27808 0.45659
-11.85608 1.27894 0.53230
-12.27737 1.27980 0.59634
-12.69866 1.28066 0.65259
-13.11995 1.28152 0.70319
-13.54125 1.28238 0.74946
-13.96254 1.28323 0.79227
-14.38383 1.28409 0.83225
-14.80513 1.28495 0.86985
-15.22642 1.28580 0.90542
-15.64771 1.28665 0.93924
-16.06901 1.28751 0.97153
-16.49030 1.28836 1.00245
-16.91159 1.28921 1.03215
-17.33289 1.29006 1.06076
-17.75418 1.29091 1.08837
-18.17547 1.29176 1.11509
-18.59677 1.29261 1.14097
-19.01806 1.29345 1.16609
-19.43935 1.29430 1.19051
-19.86065 1.29515 1.21428
-20.28194 1.29599 1.23744
-20.70323 1.29684 1.26003
-21.12453 1.29768 1.28210
-12.31247 1.31535 0.33815
-12.73377 1.31618 0.44006
-13.15506 1.31701 0.51877
-13.57635 1.31783 0.58468
-13.99765 1.31866 0.64223
-14.41894 1.31948 0.69380
-14.84023 1.32031 0.74082
-15.26153 1.32113 0.78424
-15.68282 1.32196 0.82473
-16.10411 1.32278 0.86276
-16.52540 1.32360 0.89870
-16.94670 1.32442 0.93284
-17.36799 1.32524 0.96541
-17.78929 1.32606 0.99658
-18.21058 1.32688 1.02650
-18.63187 1.32770 1.05532
-19.05316 1.32851 1.08312
-19.47446 1.32933 1.11000
-19.89575 1.33015 1.13604
-20.31705 1.33096 1.16130
-20.73834 1.33178 1.18585
-21.15963 1.33259 1.20974
-21.58092 1.33341 1.23302
-22.00222 1.33422 1.25572
-22.42351 1.33503 1.27788
-13.61146 1.35205 0.31374
-14.03275 1.35285 0.42273
-14.45405 1.35365 0.50477
-14.87534 1.35444 0.57270
-15.29663 1.35524 0.63165
-15.71793 1.35603 0.68424
-16.13922 1.35683 0.73205
-16.56051 1.35762 0.77611
-16.98181 1.35842 0.81712
-17.40310 1.35921 0.85559
-17.82439 1.36000 0.89191
-18.24569 1.36079 0.92638
-18.66698 1.36158 0.95924
-19.08827 1.36237 0.99066
-19.50957 1.36316 1.02082
-19.93086 1.36395 1.04984
-20.35215 1.36474 1.07782
-20.77345 1.36553 1.10488
-21.19474 1.36632 1.13107
-21.61603 1.36710 1.15648
-22.03732 1.36789 1.18117
-22.45862 1.36867 1.20518
-22.87991 1.36946 1.22857
-23.30121 1.37024 1.25138
-23.72250 1.37103 1.27364
-14.91045 1.38746 0.28683
-15.33174 1.38823 0.40446
-15.75303 1.38900 0.49027
-16.17433 1.38977 0.56041
-16.59562 1.39054 0.62083
-17.01691 1.39130 0.67450
-17.43821 1.39207 0.72314
-17.85950 1.39284 0.76786
-18.28079 1.39361 0.80942
-18.70209 1.39437 0.84835
-19.12338 1.39514 0.88506
-19.54467 1.39590 0.91986
-19.96597 1.39667 0.95301
-20.38726 1.39743 0.98470
-20.80855 1.39819 1.01509
-21.22985 1.39896 1.04432
-21.65114 1.39972 1.07250
-22.07243 1.40048 1.09973
-22.49372 1.40124 1.12608
-22.91502 1.40200 1.15164
-23.33631 1.40276 1.17646
-23.75761 1.40352 1.20060
-24.17890 1.40428 1.22410
-24.60019 1.40504 1.24702
-25.02149 1.40579 1.26939
-16.20943 1.42169 0.25657
-16.63073 1.42243 0.38512
-17.05202 1.42318 0.47520
-17.47331 1.42392 0.54775
-17.89461 1.42467 0.60976
-18.31590 1.42541 0.66457
-18.73719 1.42615 0.71409
-19.15849 1.42689 0.75950
-19.57978 1.42764 0.80162
-20.00107 1.42838 0.84102
-20.42237 1.42912 0.87813
-20.84366 1.42986 0.91328
-21.26495 1.43060 0.94673
-21.68625 1.43134 0.97869
-22.10754 1.43208 1.00932
-22.52883 1.43282 1.03877
-22.95012 1.43355 1.06714
-23.37142 1.43429 1.09454
-23.79271 1.43503 1.12106
-24.21401 1.43576 1.14676
-24.63530 1.43650 1.17172
-25.05659 1.43724 1.19599
-25.47789 1.43797 1.21962
-25.89918 1.43871 1.24264
-26.32047 1.43944 1.26511
-17.50842 1.45484 0.22151
-17.92972 1.45556 0.36450
-18.35101 1.45628 0.45951
-18.77230 1.45701 0.53471
-19.19360 1.45773 0.59843
-19.61489 1.45845 0.65446
-20.03618 1.45917 0.70488
-20.45748 1.45989 0.75101
-20.87877 1.46061 0.79372
-21.30006 1.46133 0.83360
-21.72136 1.46205 0.87113
-22.14265 1.46276 0.90664
-22.56395 1.46348 0.94040
-22.98524 1.46420 0.97263
-23.40653 1.46492 1.00351
-23.82782 1.46563 1.03317
-24.24912 1.46635 1.06174
-24.67041 1.46706 1.08932
-25.09171 1.46778 1.11601
-25.51300 1.46849 1.14186
-25.93429 1.46921 1.16696
-26.35558 1.46992 1.19136
-26.77688 1.47063 1.21510
-27.19817 1.47134 1.23824
-27.61946 1.47206 1.26082
-18.80741 1.48700 0.17875
-19.22871 1.48770 0.34236
-19.65000 1.48841 0.44313
-20.07129 1.48911 0.52126
-20.49259 1.48981 0.58682
-20.91388 1.49051 0.64413
-21.33517 1.49121 0.69552
-21.75647 1.49191 0.74240
-22.17776 1.49260 0.78571
-22.59905 1.49330 0.82610
-23.02035 1.49400 0.86405
-23.44164 1.49470 0.89993
-23.86293 1.49540 0.93401
-24.28423 1.49609 0.96652
-24.70552 1.49679 0.99765
-25.12681 1.49748 1.02753
-25.54811 1.49818 1.05631
-25.96940 1.49887 1.08407
-26.39069 1.49957 1.11092
-26.81199 1.50026 1.13694
-27.23328 1.50096 1.16218
-27.65457 1.50165 1.18670
-28.07587 1.50234 1.21057
-28.49716 1.50303 1.23382
-28.91845 1.50373 1.25650
-20.10640 1.51825 0.12062
-20.52769 1.51894 0.31835
-20.94899 1.51962 0.42594
-21.37028 1.52030 0.50735
-21.79157 1.52098 0.57491
-22.21287 1.52166 0.63359
-22.63416 1.52234 0.68599
-23.05545 1.52302 0.73366
-23.47675 1.52370 0.77760
-23.89804 1.52438 0.81851
-24.31933 1.52506 0.85690
-24.74062 1.52574 0.89315
-25.16192 1.52642 0.92756
-25.58321 1.52709 0.96036
-26.00450 1.52777 0.99174
-26.42580 1.52845 1.02186
-26.84709 1.52912 1.05084
-27.26838 1.52980 1.07879
-27.68968 1.53047 1.10581
-28.11097 1.53115 1.13198
-28.53226 1.53182 1.15736
-28.95356 1.53250 1.18202
-29.37485 1.53317 1.20601
-29.79614 1.53385 1.22938
-30.21744 1.53452 1.25217
-21.40539 1.54866 0.00240
-21.82668 1.54932 0.29195
-22.24797 1.54999 0.40786
-22.66927 1.55065 0.49295
-23.09056 1.55131 0.56267
-23.51185 1.55198 0.62281
-23.93315 1.55264 0.67628
-24.35444 1.55330 0.72477
-24.77573 1.55396 0.76937
-25.19703 1.55462 0.81082
-25.61832 1.55528 0.84967
-26.03961 1.55595 0.88631
-26.46091 1.55661 0.92105
-26.88220 1.55727 0.95415
-27.30349 1.55792 0.98579
-27.72478 1.55858 1.01614
-28.14608 1.55924 1.04533
-28.56737 1.55990 1.07347
-28.98867 1.56056 1.10066
-29.40996 1.56122 1.12699
-29.83125 1.56187 1.15252
-30.25254 1.56253 1.17732
-30.67384 1.56319 1.20143
-31.09513 1.56384 1.22492
-31.51643 1.56450 1.24782
-22.70437 1.57828 -0.16995
-23.12566 1.57892 0.26238
-23.54696 1.57957 0.38872
-23.96825 1.58022 0.47799
-24.38954 1.58087 0.55008
-24.81084 1.58151 0.61179
-25.23213 1.58216 0.66639
-25.65343 1.58280 0.71575
-26.07472 1.58345 0.76103
-26.49601 1.58409 0.80304
-26.91730 1.58474 0.84236
-27.33860 1.58538 0.87939
-27.75989 1.58602 0.91448
-28.18118 1.58667 0.94788
-28.60248 1.58731 0.97979
-29.02377 1.58795 1.01037
-29.44506 1.58860 1.03978
-29.86636 1.58924 1.06812
-30.28765 1.58988 1.09549
-30.70894 1.59052 1.12197
-31.13024 1.59116 1.14765
-31.55153 1.59180 1.17259
-31.97282 1.59244 1.19683
-32.39412 1.59308 1.22043
-32.81541 1.59372 1.24344
-24.00336 1.60716 -0.34231
-24.42465 1.60779 0.22834
-24.84595 1.60843 0.36836
-25.26724 1.60906 0.46242
-25.68853 1.60969 0.53711
-26.10983 1.61032 0.60051
-26.53112 1.61095 0.65631
-26.95241 1.61158 0.70657
-27.37371 1.61221 0.75257
-27.79500 1.61284 0.79516
-28.21629 1.61347 0.83496
-28.63758 1.61409 0.87241
-29.05888 1.61472 0.90785
-29.48017 1.61535 0.94156
-29.90147 1.61598 0.97374
-30.32276 1.61661 1.00457
-30.74405 1.61723 1.03419
-31.16535 1.61786 1.06273
-31.58664 1.61849 1.09028
-32.00793 1.61911 1.11693
-32.42923 1.61974 1.14276
-32.85052 1.62036 1.16783
-33.27181 1.62099 1.19220
-33.69311 1.62161 1.21593
-34.11440 1.62224 1.23904
-25.30235 1.63536 -0.51467
-25.72364 1.63598 0.18733
-26.14494 1.63660 0.34652
-26.56623 1.63721 0.44616
-26.98752 1.63783 0.52374
-27.40881 1.63844 0.58895
-27.83011 1.63906 0.64602
-28.25140 1.63967 0.69723
-28.67270 1.64029 0.74398
-29.09399 1.64090 0.78717
-29.51528 1.64152 0.82747
-29.93657 1.64213 0.86535
-30.35787 1.64275 0.90115
-30.77916 1.64336 0.93518
-31.20045 1.64397 0.96764
-31.62175 1.64459 0.99872
-32.04304 1.64520 1.02856
-32.46433 1.64581 1.05730
-32.88563 1.64642 1.08503
-33.30692 1.64703 1.11185
-33.72821 1.64765 1.13783
-34.14951 1.64826 1.16305
-34.57080 1.64887 1.18755
-34.99209 1.64948 1.21140
-35.41339 1.65009 1.23463
-26.60134 1.66292 -0.68703
-27.02263 1.66352 0.13312
-27.44392 1.66412 0.32287
-27.86522 1.66473 0.42913
-28.28651 1.66533 0.50992
-28.70780 1.66593 0.57709
-29.12909 1.66653 0.63552
-29.55039 1.66713 0.68773
-29.97168 1.66774 0.73526
-30.39297 1.66834 0.77908
-30.81427 1.66894 0.81990
-31.23556 1.66954 0.85821
-31.65686 1.67014 0.89439
-32.07815 1.67074 0.92874
-32.49944 1.67134 0.96149
-32.92073 1.67194 0.99282
-33.34203 1.67254 1.02289
-33.76332 1.67313 1.05183
-34.18462 1.67373 1.07975
-34.60591 1.67433 1.10674
-35.02720 1.67493 1.13288
-35.44849 1.67553 1.15824
-35.86979 1.67612 1.18288
-36.29108 1.67672 1.20684
-36.71238 1.67732 1.23019
0.77726 0.50126 0.55699
0.75694 0.50418 0.61783
0.73588 0.50707 0.67181
0.71400 0.50995 0.72069
0.69121 0.51280 0.76559
0.66740 0.51563 0.80730
0.64245 0.51845 0.84636
0.61617 0.52124 0.88318
0.58837 0.52402 0.91808
0.55878 0.52677 0.95131
0.52704 0.52951 0.98307
0.49267 0.53223 1.01352
0.45498 0.53494 1.04281
0.41292 0.53763 1.07104
0.36476 0.54029 1.09831
0.30726 0.54295 1.12471
0.23285 0.54558 1.15031
0.11015 0.54820 1.17517
-0.27051 0.55081 1.19934
-0.69180 0.55340 1.22288
-1.11310 0.55597 1.24583
-1.53439 0.55853 1.26822
-1.95568 0.56107 1.29010
-2.37698 0.56360 1.31149
-2.79827 0.56612 1.33242
0.71213 0.61628 0.54424
0.68927 0.61852 0.60670
0.66537 0.62075 0.66183
0.64031 0.62298 0.71159
0.61392 0.62519 0.75720
0.58598 0.62739 0.79947
0.55622 0.62959 0.83900
0.52428 0.63177 0.87623
0.48967 0.63394 0.91148
0.45166 0.63611 0.94501
0.40917 0.63826 0.97704
0.36039 0.64041 1.00774
0.30187 0.64254 1.03724
0.22535 0.64467 1.06567
0.09288 0.64679 1.09312
-0.30562 0.64890 1.11968
-0.72691 0.65100 1.14543
-1.14820 0.65309 1.17043
-1.56950 0.65517 1.19473
-1.99079 0.65725 1.21839
-2.41208 0.65931 1.24145
-2.83338 0.66137 1.26394
-3.25467 0.66342 1.28592
-3.67596 0.66546 1.30740
-4.09726 0.66750 1.32841
0.63816 0.70874 0.53109
0.61165 0.71062 0.59529
0.58357 0.71249 0.65166
0.55365 0.71435 0.70235
0.52151 0.71620 0.74868
0.48664 0.71805 0.79154
0.44831 0.71989 0.83157
0.40538 0.72173 0.86921
0.35595 0.72356 0.90482
0.29636 0.72539 0.93866
0.21756 0.72720 0.97097
0.07219 0.72902 1.00191
-0.34072 0.73082 1.03164
-0.76202 0.73263 1.06026
-1.18331 0.73442 1.08790
-1.60460 0.73621 1.11462
-2.02590 0.73800 1.14052
-2.44719 0.73977 1.16566
-2.86848 0.74155 1.19009
-3.28978 0.74331 1.21387
-3.71107 0.74508 1.23704
-4.13236 0.74683 1.25964
-4.55366 0.74858 1.28171
-4.97495 0.75033 1.30329
-5.39624 0.75207 1.32439
0.55106 0.78771 0.51751
0.51871 0.78934 0.58360
0.48359 0.79097 0.64128
0.44492 0.79260 0.69294
0.40154 0.79422 0.74003
0.35144 0.79583 0.78351
0.29073 0.79745 0.82404
0.20945 0.79905 0.86211
0.04521 0.80066 0.89809
-0.37583 0.80226 0.93226
-0.79713 0.80385 0.96485
-1.21842 0.80544 0.99604
-1.63971 0.80703 1.02599
-2.06100 0.80861 1.05482
-2.48230 0.81019 1.08264
-2.90359 0.81177 1.10953
-3.32488 0.81334 1.13559
-3.74618 0.81490 1.16087
-4.16747 0.81647 1.18543
-4.58876 0.81803 1.20933
-5.01006 0.81958 1.23261
-5.43135 0.82113 1.25532
-5.85264 0.82268 1.27749
-6.27394 0.82422 1.29916
-6.69523 0.82576 1.32035
0.44151 0.85748 0.50348
0.39766 0.85894 0.57160
0.34686 0.86040 0.63067
0.28497 0.86185 0.68336
0.20097 0.86330 0.73125
0.01035 0.86475 0.77536
-0.41094 0.86620 0.81642
-0.83223 0.86764 0.85494
-1.25353 0.86908 0.89129
-1.67482 0.87052 0.92579
-2.09611 0.87195 0.95867
-2.51741 0.87338 0.99012
-2.93870 0.87481 1.02030
-3.35999 0.87623 1.04934
-3.78129 0.87765 1.07734
-4.20258 0.87907 1.10441
-4.62387 0.88048 1.13062
-5.04517 0.88190 1.15604
-5.46646 0.88331 1.18074
-5.88775 0.88471 1.20477
-6.30904 0.88611 1.22817
-6.73034 0.88751 1.25098
-7.15163 0.88891 1.27326
-7.57293 0.89031 1.29502
-7.99422 0.89170 1.31630
0.27907 0.92047 0.48892
0.19208 0.92180 0.55927
-0.02475 0.92313 0.61983
-0.44605 0.92446 0.67360
-0.86734 0.92578 0.72233
-1.28863 0.92711 0.76711
-1.70993 0.92843 0.80871
-2.13122 0.92974 0.84768
-2.55251 0.93106 0.88443
-2.97381 0.93237 0.91927
-3.39510 0.93368 0.95244
-3.81639 0.93498 0.98416
-4.23769 0.93629 1.01457
-4.65898 0.93759 1.04382
-5.08027 0.93889 1.07201
-5.50157 0.94019 1.09926
-5.92286 0.94148 1.12563
-6.34415 0.94278 1.15120
-6.76545 0.94407 1.17603
-7.18674 0.94535 1.20018
-7.60803 0.94664 1.22370
-8.02933 0.94792 1.24662
-8.45062 0.94920 1.26900
-8.87191 0.95048 1.29086
-9.29321 0.95176 1.31223
-0.48116 0.97823 0.47380
-0.90245 0.97946 0.54658
-1.32374 0.98069 0.60874
-1.74503 0.98191 0.66366
-2.16633 0.98314 0.71326
-2.58762 0.98436 0.75873
-3.00891 0.98558 0.80090
-3.43021 0.98679 0.84035
-3.85150 0.98801 0.87750
-4.27279 0.98922 0.91268
-4.69409 0.99043 0.94616
-5.11538 0.99164 0.97814
-5.53667 0.99285 1.00880
-5.95797 0.99405 1.03826
-6.37926 0.99526 1.06665
-6.80055 0.99646 1.09407
-7.22185 0.99766 1.12060
-7.64314 0.99885 1.14632
-8.06443 1.00005 1.17129
-8.48573 1.00124 1.19557
-8.90702 1.00243 1.21921
-9.32831 1.00362 1.24224
-9.74961 1.00481 1.26472
-10.17090 1.00600 1.28668
-10.59219 1.00718 1.30814
-1.78014 1.03180 0.45805
-2.20144 1.03294 0.53351
-2.62273 1.03408 0.59739
-3.04402 1.03523 0.65353
-3.46532 1.03637 0.70404
-3.88661 1.03750 0.75024
-4.30790 1.03864 0.79299
-4.72920 1.03978 0.83292
-5.15049 1.04091 0.87049
-5.57178 1.04204 0.90603
-5.99308 1.04317 0.93982
-6.41437 1.04430 0.97208
-6.83566 1.04543 1.00298
-7.25696 1.04655 1.03266
-7.67825 1.04767 1.06125
-8.09954 1.04880 1.08885
-8.52083 1.04992 1.11555
-8.94213 1.05104 1.14142
-9.36342 1.05215 1.16653
-9.78471 1.05327 1.19094
-10.20601 1.05438 1.21469
-10.62730 1.05550 1.23784
-11.04859 1.05661 1.26043
-11.46989 1.05772 1.28248
-11.89118 1.05882 1.30404
-3.07913 1.08190 0.44160
-3.50042 1.08297 0.52002
-3.92172 1.08404 0.58575
-4.34301 1.08512 0.64318
-4.76430 1.08619 0.69466
-5.18560 1.08726 0.74161
-5.60689 1.08832 0.78498
-6.02818 1.08939 0.82541
-6.44948 1.09046 0.86341
-6.87077 1.09152 0.89932
-7.29206 1.09258 0.93343
-7.71336 1.09364 0.96597
-8.13465 1.09470 0.99711
-8.55594 1.09576 1.02702
-8.97724 1.09682 1.05581
-9.39853 1.09787 1.08360
-9.81982 1.09893 1.11046
-10.24112 1.09998 1.13649
-10.66241 1.10103 1.16174
-11.08370 1.10208 1.18628
-11.50500 1.10313 1.21016
-11.92629 1.10418 1.23342
-12.34758 1.10523 1.25611
-12.76888 1.10627 1.27826
-13.19017 1.10731 1.29991
-4.37812 1.12908 0.42434
-4.79941 1.13010 0.50606
-5.22070 1.13111 0.57381
-5.64200 1.13212 0.63262
-6.06329 1.13314 0.68511
-6.48458 1.13415 0.73285
-6.90588 1.13516 0.77685
-7.32717 1.13616 0.81781
-7.74846 1.13717 0.85625
-8.16976 1.13818 0.89253
-8.59105 1.13918 0.92697
-9.01234 1.14019 0.95980
-9.43364 1.14119 0.99120
-9.85493 1.14219 1.02134
-10.27622 1.14319 1.05034
-10.69752 1.14419 1.07831
-11.11881 1.14519 1.10534
-11.54010 1.14618 1.13153
-11.96140 1.14718 1.15692
-12.38269 1.14817 1.18160
-12.80398 1.14917 1.20560
-13.22528 1.15016 1.22898
-13.64657 1.15115 1.25177
-14.06786 1.15214 1.27403
-14.48916 1.15313 1.29577
-5.67711 1.17377 0.40616
-6.09840 1.17473 0.49161
-6.51969 1.17570 0.56154
-6.94099 1.17666 0.62182
-7.36228 1.17762 0.67539
-7.78357 1.17858 0.72396
-8.20487 1.17954 0.76862
-8.62616 1.18050 0.81012
-9.04745 1.18145 0.84901
-9.46875 1.18241 0.88568
-9.89004 1.18337 0.92046
-10.31133 1.18432 0.95358
-10.73263 1.18527 0.98525
-11.15392 1.18622 1.01561
-11.57521 1.18717 1.04482
-11.99650 1.18812 1.07299
-12.41780 1.18907 1.10019
-12.83909 1.19002 1.12654
-13.26038 1.19097 1.15208
-13.68168 1.19191 1.17689
-14.10297 1.19286 1.20102
-14.52427 1.19380 1.22451
-14.94556 1.19474 1.24742
-15.36685 1.19569 1.26977
-15.78815 1.19663 1.29161
