graphics/cube/sRGB_D65_MAT_139.cube
TITLE "QA_sRGB_D65_MAT_139"
# Copyright (c) 2026 @xsscx David H Hoyt LLC
# https://xss.cx
# Profiles applied (by profile description):
# - sRGB D65 MAT
LUT_3D_SIZE 5
LUT_3D_INPUT_RANGE 0.14690 0.93160
0.62949 0.56442 0.55355
0.43458 0.57927 0.84436
-0.48116 0.59366 1.04130
-3.00892 0.60761 1.19809
-5.53667 0.62115 1.33133
-3.21956 1.00638 0.46957
-5.74732 1.01345 0.79875
-8.27508 1.02046 1.00721
-10.80284 1.02741 1.16999
-13.33060 1.03429 1.30702
-11.01349 1.27722 0.36060
-13.54125 1.28238 0.74946
-16.06901 1.28751 0.97153
-18.59677 1.29261 1.14097
-21.12453 1.29768 1.28210
-18.80741 1.48700 0.17875
-21.33517 1.49121 0.69552
-23.86293 1.49540 0.93401
-26.39069 1.49957 1.11092
-28.91845 1.50373 1.25650
-26.60134 1.66292 -0.68703
-29.12909 1.66653 0.63552
-31.65686 1.67014 0.89439
-34.18462 1.67373 1.07975
-36.71238 1.67732 1.23019
1.23679 -1.31360 0.57381
1.16959 -1.10297 0.85625
1.09678 -0.89233 1.05034
1.01687 -0.68169 1.20560
0.92762 -0.47106 1.33785
1.00983 0.81773 0.49428
0.91965 0.82701 0.81153
0.81595 0.83615 1.01666
0.69121 0.84516 1.17775
0.52704 0.85405 1.31371
0.67944 1.14798 0.39405
0.51022 1.15393 0.76332
0.18272 1.15983 0.98143
-2.16633 1.16569 1.14898
-4.69409 1.17152 1.28896
-2.37698 1.38397 0.24449
-4.90474 1.38860 0.71076
-7.43250 1.39321 0.94444
-9.96026 1.39780 1.11923
-12.48802 1.40237 1.26355
-10.17090 1.57535 -0.40499
-12.69866 1.57924 0.65259
-15.22642 1.58312 0.90542
-17.75418 1.58698 1.08837
-20.28194 1.59083 1.23744
1.58846 -6.22655 0.59319
1.54128 -6.01591 0.86792
1.49206 -5.80527 1.05928
1.44054 -5.59464 1.21305
1.38641 -5.38400 1.34433
1.43614 0.54109 0.51751
1.38177 0.55673 0.82404
1.32436 0.57184 1.02599
1.26340 0.58646 1.18543
1.19820 0.60062 1.32035
1.25814 0.99561 0.42434
1.19255 1.00279 0.77685
1.12175 1.00989 0.99120
1.04442 1.01693 1.15692
0.95860 1.02391 1.29577
1.03762 1.26941 0.29446
0.95098 1.27461 0.72559
0.85237 1.27978 0.95472
0.73588 1.28492 1.12745
0.58837 1.29004 1.27055
0.72504 1.48065 -0.12295
0.57382 1.48488 0.66911
0.33749 1.48909 0.91628
-1.32374 1.49328 1.09690
-3.85150 1.49747 1.24464
1.85752 -11.13949 0.61179
1.81960 -10.92885 0.87939
1.78058 -10.71822 1.06812
1.74035 -10.50758 1.22043
1.69883 -10.29695 1.35077
1.73694 -1.63051 0.53950
1.69530 -1.41987 0.83631
1.65223 -1.20923 1.03521
1.60757 -0.99860 1.19305
1.56117 -0.78796 1.32695
1.60378 0.80351 0.45216
1.55722 0.81300 0.79009
1.50871 0.82234 1.00085
1.45799 0.83155 1.16479
1.40477 0.84063 1.30254
1.45365 1.13896 0.33602
1.40021 1.14497 0.74003
1.34387 1.15093 0.96485
1.28415 1.15686 1.13559
1.22045 1.16274 1.27749
1.27900 1.37697 0.11388
1.21494 1.38163 0.68511
1.14600 1.38627 0.92697
1.07102 1.39089 1.10534
0.98831 1.39549 1.25177
2.08188 -16.05243 0.62970
2.04953 -15.84180 0.89067
2.01645 -15.63116 1.07686
1.98263 -15.42053 1.22776
1.94800 -15.20989 1.35717
1.97977 -6.54345 0.56041
1.94507 -6.33281 0.84835
1.90951 -6.12218 1.04432
1.87302 -5.91154 1.20060
1.83553 -5.70091 1.33351
1.86993 0.51639 0.47799
1.83236 0.53297 0.80304
1.79371 0.54891 1.01037
1.75390 0.56429 1.17259
1.71282 0.57914 1.30926
1.75053 0.98469 0.37216
1.70934 0.99197 0.75411
1.66675 0.99918 0.97484
1.62264 1.00632 1.14365
1.57685 1.01339 1.28439
1.61889 1.26154 0.20330
1.57295 1.26678 0.70065
1.52511 1.27199 0.93750
1.47516 1.27718 1.11370
1.42281 1.28233 1.25886
