graphics/cube/sRGBDisplaySpectral_721.cube
TITLE "QA_sRGBDisplaySpectral_721"
# Copyright (c) 2026 @xsscx David H Hoyt LLC
# https://xss.cx
# Profiles applied (by profile description):
# - sRGB Display Spectral Emission (sRGB transfer, secondary green peak)
LUT_3D_SIZE 22
LUT_3D_INPUT_RANGE 0.20 0.80
0.62 0.68 0.85
0.61 0.69 0.90
0.59 0.70 0.95
0.57 0.71 1.00
0.55 0.72 1.04
0.52 0.73 1.09
0.50 0.74 1.13
0.48 0.75 1.17
0.45 0.75 1.20
0.42 0.76 1.24
0.39 0.77 1.27
0.36 0.78 1.31
0.32 0.78 1.34
0.27 0.79 1.37
0.21 0.80 1.40
0.13 0.81 1.43
-0.10 0.81 1.46
-0.38 0.82 1.48
-0.67 0.83 1.51
-0.96 0.84 1.54
-1.25 0.84 1.56
-1.53 0.85 1.59
0.58 0.77 0.84
0.56 0.78 0.89
0.54 0.79 0.94
0.51 0.80 0.99
0.49 0.80 1.04
0.47 0.81 1.08
0.44 0.82 1.12
0.41 0.83 1.16
0.38 0.83 1.20
0.34 0.84 1.23
0.30 0.85 1.27
0.25 0.85 1.30
0.18 0.86 1.33
0.07 0.87 1.36
-0.21 0.87 1.39
-0.50 0.88 1.42
-0.79 0.89 1.45
-1.07 0.89 1.48
-1.36 0.90 1.51
-1.65 0.91 1.53
-1.94 0.91 1.56
-2.22 0.92 1.58
0.53 0.85 0.83
0.51 0.86 0.88
0.48 0.87 0.94
0.45 0.87 0.99
0.43 0.88 1.03
0.40 0.89 1.07
0.36 0.89 1.12
0.32 0.90 1.15
0.28 0.90 1.19
0.22 0.91 1.23
0.15 0.92 1.26
-0.04 0.92 1.30
-0.33 0.93 1.33
-0.62 0.94 1.36
-0.90 0.94 1.39
-1.19 0.95 1.42
-1.48 0.95 1.45
-1.76 0.96 1.47
-2.05 0.97 1.50
-2.34 0.97 1.53
-2.63 0.98 1.55
-2.91 0.98 1.58
0.47 0.92 0.82
0.44 0.93 0.88
0.41 0.93 0.93
0.38 0.94 0.98
0.35 0.95 1.02
0.31 0.95 1.07
0.26 0.96 1.11
0.20 0.96 1.15
0.10 0.97 1.19
-0.16 0.98 1.22
-0.45 0.98 1.26
-0.73 0.99 1.29
-1.02 0.99 1.32
-1.31 1.00 1.35
-1.59 1.00 1.38
-1.88 1.01 1.41
-2.17 1.01 1.44
-2.46 1.02 1.47
-2.74 1.03 1.50
-3.03 1.03 1.52
-3.32 1.04 1.55
-3.60 1.04 1.58
0.40 0.98 0.81
0.37 0.99 0.87
0.33 1.00 0.92
0.29 1.00 0.97
0.24 1.01 1.02
0.16 1.01 1.06
0.01 1.02 1.10
-0.27 1.02 1.14
-0.56 1.03 1.18
-0.85 1.03 1.22
-1.14 1.04 1.25
-1.42 1.04 1.28
-1.71 1.05 1.32
-2.00 1.06 1.35
-2.28 1.06 1.38
-2.57 1.07 1.41
-2.86 1.07 1.44
-3.15 1.08 1.47
-3.43 1.08 1.49
-3.72 1.09 1.52
-4.01 1.09 1.55
-4.29 1.10 1.57
0.32 1.04 0.80
0.27 1.05 0.86
0.21 1.05 0.91
0.12 1.06 0.96
-0.10 1.06 1.01
-0.39 1.07 1.05
-0.68 1.07 1.10
-0.96 1.08 1.14
-1.25 1.08 1.17
-1.54 1.09 1.21
-1.83 1.09 1.25
-2.11 1.10 1.28
-2.40 1.10 1.31
-2.69 1.11 1.34
-2.97 1.11 1.37
-3.26 1.12 1.40
-3.55 1.12 1.43
-3.84 1.13 1.46
-4.12 1.13 1.49
-4.41 1.14 1.52
-4.70 1.14 1.54
-4.98 1.15 1.57
0.18 1.10 0.79
0.06 1.10 0.85
-0.22 1.11 0.91
-0.51 1.11 0.96
-0.79 1.12 1.00
-1.08 1.12 1.05
-1.37 1.13 1.09
-1.66 1.13 1.13
-1.94 1.14 1.17
-2.23 1.14 1.21
-2.52 1.14 1.24
-2.80 1.15 1.27
-3.09 1.15 1.31
-3.38 1.16 1.34
-3.67 1.16 1.37
-3.95 1.17 1.40
-4.24 1.17 1.43
-4.53 1.18 1.46
-4.81 1.18 1.48
-5.10 1.19 1.51
-5.39 1.19 1.54
-5.68 1.19 1.56
-0.34 1.15 0.78
-0.62 1.15 0.84
-0.91 1.16 0.90
-1.20 1.16 0.95
-1.48 1.17 1.00
-1.77 1.17 1.04
-2.06 1.18 1.08
-2.35 1.18 1.12
-2.63 1.18 1.16
-2.92 1.19 1.20
-3.21 1.19 1.24
-3.49 1.20 1.27
-3.78 1.20 1.30
-4.07 1.21 1.33
-4.36 1.21 1.37
-4.64 1.21 1.40
-4.93 1.22 1.42
-5.22 1.22 1.45
-5.50 1.23 1.48
-5.79 1.23 1.51
-6.08 1.24 1.53
-6.37 1.24 1.56
-1.03 1.20 0.77
-1.31 1.20 0.83
-1.60 1.20 0.89
-1.89 1.21 0.94
-2.17 1.21 0.99
-2.46 1.22 1.03
-2.75 1.22 1.08
-3.04 1.23 1.12
-3.32 1.23 1.16
-3.61 1.23 1.19
-3.90 1.24 1.23
-4.18 1.24 1.26
-4.47 1.25 1.30
-4.76 1.25 1.33
-5.05 1.26 1.36
-5.33 1.26 1.39
-5.62 1.26 1.42
-5.91 1.27 1.45
-6.19 1.27 1.48
-6.48 1.28 1.50
-6.77 1.28 1.53
-7.06 1.28 1.56
-1.72 1.24 0.76
-2.00 1.25 0.82
-2.29 1.25 0.88
-2.58 1.25 0.93
-2.87 1.26 0.98
-3.15 1.26 1.03
-3.44 1.27 1.07
-3.73 1.27 1.11
-4.01 1.27 1.15
-4.30 1.28 1.19
-4.59 1.28 1.22
-4.88 1.29 1.26
-5.16 1.29 1.29
-5.45 1.29 1.32
-5.74 1.30 1.36
-6.02 1.30 1.39
-6.31 1.31 1.42
-6.60 1.31 1.44
-6.89 1.31 1.47
-7.17 1.32 1.50
-7.46 1.32 1.53
-7.75 1.33 1.55
-2.41 1.28 0.75
-2.69 1.29 0.81
-2.98 1.29 0.87
-3.27 1.30 0.93
-3.56 1.30 0.97
-3.84 1.30 1.02
-4.13 1.31 1.06
-4.42 1.31 1.11
-4.70 1.32 1.15
-4.99 1.32 1.18
-5.28 1.32 1.22
-5.57 1.33 1.25
-5.85 1.33 1.29
-6.14 1.34 1.32
-6.43 1.34 1.35
-6.71 1.34 1.38
-7.00 1.35 1.41
-7.29 1.35 1.44
-7.58 1.35 1.47
-7.86 1.36 1.50
-8.15 1.36 1.52
-8.44 1.36 1.55
-3.10 1.33 0.74
-3.38 1.33 0.80
-3.67 1.33 0.86
-3.96 1.34 0.92
-4.25 1.34 0.97
-4.53 1.35 1.01
-4.82 1.35 1.06
-5.11 1.35 1.10
-5.39 1.36 1.14
-5.68 1.36 1.18
-5.97 1.36 1.21
-6.26 1.37 1.25
-6.54 1.37 1.28
-6.83 1.37 1.31
-7.12 1.38 1.35
-7.40 1.38 1.38
-7.69 1.39 1.41
-7.98 1.39 1.44
-8.27 1.39 1.46
-8.55 1.40 1.49
-8.84 1.40 1.52
-9.13 1.40 1.54
-3.79 1.37 0.73
-4.07 1.37 0.80
-4.36 1.37 0.85
-4.65 1.38 0.91
-4.94 1.38 0.96
-5.22 1.38 1.01
-5.51 1.39 1.05
-5.80 1.39 1.09
-6.09 1.39 1.13
-6.37 1.40 1.17
-6.66 1.40 1.21
-6.95 1.41 1.24
-7.23 1.41 1.28
-7.52 1.41 1.31
-7.81 1.42 1.34
-8.10 1.42 1.37
-8.38 1.42 1.40
-8.67 1.43 1.43
-8.96 1.43 1.46
-9.24 1.43 1.49
-9.53 1.44 1.51
-9.82 1.44 1.54
-4.48 1.40 0.72
-4.77 1.41 0.79
-5.05 1.41 0.85
-5.34 1.41 0.90
-5.63 1.42 0.95
-5.91 1.42 1.00
-6.20 1.43 1.04
-6.49 1.43 1.09
-6.78 1.43 1.13
-7.06 1.44 1.17
-7.35 1.44 1.20
-7.64 1.44 1.24
-7.92 1.45 1.27
-8.21 1.45 1.31
-8.50 1.45 1.34
-8.79 1.46 1.37
-9.07 1.46 1.40
-9.36 1.46 1.43
-9.65 1.47 1.46
-9.93 1.47 1.48
-10.22 1.47 1.51
-10.51 1.48 1.54
-5.17 1.44 0.71
-5.46 1.44 0.78
-5.74 1.45 0.84
-6.03 1.45 0.89
-6.32 1.45 0.94
-6.60 1.46 0.99
-6.89 1.46 1.04
-7.18 1.46 1.08
-7.47 1.47 1.12
-7.75 1.47 1.16
-8.04 1.47 1.20
-8.33 1.48 1.23
-8.61 1.48 1.27
-8.90 1.48 1.30
-9.19 1.49 1.33
-9.48 1.49 1.36
-9.76 1.49 1.39
-10.05 1.50 1.42
-10.34 1.50 1.45
-10.62 1.50 1.48
-10.91 1.51 1.51
-11.20 1.51 1.53
-5.86 1.48 0.70
-6.15 1.48 0.77
-6.43 1.48 0.83
-6.72 1.49 0.88
-7.01 1.49 0.94
-7.29 1.49 0.99
-7.58 1.50 1.03
-7.87 1.50 1.07
-8.16 1.50 1.12
-8.44 1.51 1.15
-8.73 1.51 1.19
-9.02 1.51 1.23
-9.31 1.52 1.26
-9.59 1.52 1.30
-9.88 1.52 1.33
-10.17 1.53 1.36
-10.45 1.53 1.39
-10.74 1.53 1.42
-11.03 1.53 1.45
-11.32 1.54 1.47
-11.60 1.54 1.50
-11.89 1.54 1.53
-6.55 1.51 0.68
-6.84 1.51 0.76
-7.12 1.52 0.82
-7.41 1.52 0.88
-7.70 1.52 0.93
-7.99 1.53 0.98
-8.27 1.53 1.02
-8.56 1.53 1.07
-8.85 1.54 1.11
-9.13 1.54 1.15
-9.42 1.54 1.19
-9.71 1.55 1.22
-10.00 1.55 1.26
-10.28 1.55 1.29
-10.57 1.56 1.32
-10.86 1.56 1.35
-11.14 1.56 1.38
-11.43 1.56 1.41
-11.72 1.57 1.44
-12.01 1.57 1.47
-12.29 1.57 1.50
-12.58 1.58 1.52
-7.24 1.55 0.67
-7.53 1.55 0.74
-7.81 1.55 0.81
-8.10 1.55 0.87
-8.39 1.56 0.92
-8.68 1.56 0.97
-8.96 1.56 1.02
-9.25 1.57 1.06
-9.54 1.57 1.10
-9.82 1.57 1.14
-10.11 1.58 1.18
-10.40 1.58 1.22
-10.69 1.58 1.25
-10.97 1.58 1.28
-11.26 1.59 1.32
-11.55 1.59 1.35
-11.83 1.59 1.38
-12.12 1.60 1.41
-12.41 1.60 1.44
-12.70 1.60 1.47
-12.98 1.61 1.49
-13.27 1.61 1.52
-7.93 1.58 0.66
-8.22 1.58 0.73
-8.50 1.58 0.80
-8.79 1.59 0.86
-9.08 1.59 0.91
-9.37 1.59 0.96
-9.65 1.60 1.01
-9.94 1.60 1.05
-10.23 1.60 1.10
-10.51 1.60 1.14
-10.80 1.61 1.17
-11.09 1.61 1.21
-11.38 1.61 1.25
-11.66 1.62 1.28
-11.95 1.62 1.31
-12.24 1.62 1.34
-12.52 1.63 1.37
-12.81 1.63 1.40
-13.10 1.63 1.43
-13.39 1.63 1.46
-13.67 1.64 1.49
-13.96 1.64 1.52
-8.62 1.61 0.65
-8.91 1.61 0.72
-9.20 1.62 0.79
-9.48 1.62 0.85
-9.77 1.62 0.91
-10.06 1.62 0.96
-10.34 1.63 1.00
-10.63 1.63 1.05
-10.92 1.63 1.09
-11.21 1.64 1.13
-11.49 1.64 1.17
-11.78 1.64 1.21
-12.07 1.64 1.24
-12.35 1.65 1.27
-12.64 1.65 1.31
-12.93 1.65 1.34
-13.22 1.66 1.37
-13.50 1.66 1.40
-13.79 1.66 1.43
-14.08 1.66 1.46
-14.36 1.67 1.48
-14.65 1.67 1.51
-9.31 1.64 0.64
-9.60 1.64 0.71
-9.89 1.65 0.78
-10.17 1.65 0.84
-10.46 1.65 0.90
-10.75 1.65 0.95
-11.03 1.66 1.00
-11.32 1.66 1.04
-11.61 1.66 1.08
-11.90 1.67 1.12
-12.18 1.67 1.16
-12.47 1.67 1.20
-12.76 1.67 1.24
-13.04 1.68 1.27
-13.33 1.68 1.30
-13.62 1.68 1.33
-13.91 1.69 1.37
-14.19 1.69 1.40
-14.48 1.69 1.42
-14.77 1.69 1.45
-15.05 1.70 1.48
-15.34 1.70 1.51
-10.00 1.67 0.62
-10.29 1.67 0.70
-10.58 1.68 0.77
-10.86 1.68 0.83
-11.15 1.68 0.89
-11.44 1.68 0.94
-11.72 1.69 0.99
-12.01 1.69 1.03
-12.30 1.69 1.08
-12.59 1.70 1.12
-12.87 1.70 1.16
-13.16 1.70 1.19
-13.45 1.70 1.23
-13.73 1.71 1.26
-14.02 1.71 1.30
-14.31 1.71 1.33
-14.60 1.71 1.36
-14.88 1.72 1.39
-15.17 1.72 1.42
-15.46 1.72 1.45
-15.74 1.73 1.48
-16.03 1.73 1.50
0.72 0.62 0.85
0.70 0.63 0.91
0.69 0.64 0.96
0.67 0.65 1.00
0.65 0.66 1.05
0.64 0.67 1.09
0.62 0.68 1.13
0.60 0.69 1.17
0.58 0.70 1.21
0.56 0.70 1.24
0.54 0.71 1.28
0.52 0.72 1.31
0.49 0.73 1.34
0.47 0.74 1.37
0.44 0.75 1.40
0.41 0.75 1.43
0.38 0.76 1.46
0.34 0.77 1.49
0.30 0.78 1.51
0.25 0.79 1.54
0.19 0.79 1.56
0.08 0.80 1.59
0.68 0.72 0.84
0.66 0.73 0.90
0.65 0.74 0.95
0.63 0.74 1.00
0.61 0.75 1.04
0.59 0.76 1.08
0.57 0.77 1.13
0.55 0.78 1.16
0.53 0.78 1.20
0.51 0.79 1.24
0.48 0.80 1.27
0.46 0.81 1.30
0.43 0.81 1.34
0.40 0.82 1.37
0.36 0.83 1.40
0.33 0.84 1.43
0.28 0.84 1.45
0.23 0.85 1.48
0.15 0.86 1.51
-0.02 0.86 1.53
-0.31 0.87 1.56
-0.60 0.88 1.59
0.64 0.80 0.83
0.62 0.81 0.89
0.60 0.82 0.94
0.58 0.83 0.99
0.56 0.83 1.04
0.54 0.84 1.08
0.52 0.85 1.12
0.50 0.85 1.16
0.47 0.86 1.20
0.45 0.87 1.23
0.42 0.87 1.27
0.39 0.88 1.30
0.35 0.89 1.33
0.31 0.89 1.36
0.26 0.90 1.39
0.20 0.91 1.42
0.11 0.91 1.45
-0.14 0.92 1.48
-0.42 0.93 1.50
-0.71 0.93 1.53
-1.00 0.94 1.56
-1.29 0.94 1.58
0.60 0.88 0.82
0.58 0.88 0.88
0.56 0.89 0.93
0.53 0.90 0.98
0.51 0.90 1.03
0.49 0.91 1.07
0.46 0.92 1.11
0.43 0.92 1.15
0.40 0.93 1.19
0.37 0.94 1.23
0.33 0.94 1.26
0.29 0.95 1.29
0.24 0.95 1.33
0.17 0.96 1.36
0.03 0.96 1.39
-0.25 0.97 1.42
-0.54 0.98 1.44
-0.83 0.98 1.47
-1.11 0.99 1.50
-1.40 0.99 1.53
-1.69 1.00 1.55
-1.98 1.00 1.58
0.55 0.95 0.82
0.53 0.95 0.87
0.50 0.96 0.93
0.48 0.96 0.98
0.45 0.97 1.02
0.42 0.97 1.07
0.39 0.98 1.11
0.36 0.99 1.15
0.32 0.99 1.18
0.27 1.00 1.22
0.22 1.00 1.25
0.13 1.01 1.29
-0.08 1.01 1.32
-0.37 1.02 1.35
-0.66 1.02 1.38
-0.94 1.03 1.41
-1.23 1.04 1.44
-1.52 1.04 1.47
-1.80 1.05 1.50
-2.09 1.05 1.52
-2.38 1.06 1.55
-2.67 1.06 1.57
0.49 1.01 0.81
0.47 1.01 0.86
0.44 1.02 0.92
0.41 1.02 0.97
0.38 1.03 1.01
0.34 1.03 1.06
0.30 1.04 1.10
0.25 1.04 1.14
0.19 1.05 1.18
0.08 1.05 1.21
-0.20 1.06 1.25
-0.49 1.06 1.28
-0.77 1.07 1.32
-1.06 1.07 1.35
-1.35 1.08 1.38
-1.63 1.08 1.41
-1.92 1.09 1.44
-2.21 1.09 1.46
-2.50 1.10 1.49
-2.78 1.10 1.52
-3.07 1.11 1.54
-3.36 1.11 1.57
0.43 1.06 0.80
0.40 1.07 0.86
0.36 1.07 0.91
0.33 1.08 0.96
0.28 1.08 1.01
0.23 1.09 1.05
0.15 1.09 1.09
-0.03 1.10 1.13
-0.31 1.10 1.17
-0.60 1.11 1.21
-0.89 1.11 1.24
-1.18 1.12 1.28
-1.46 1.12 1.31
-1.75 1.13 1.34
-2.04 1.13 1.37
-2.32 1.14 1.40
-2.61 1.14 1.43
-2.90 1.15 1.46
-3.19 1.15 1.49
-3.47 1.16 1.51
-3.76 1.16 1.54
-4.05 1.16 1.57
0.35 1.12 0.79
0.31 1.12 0.85
0.26 1.13 0.90
0.20 1.13 0.95
0.11 1.13 1.00
-0.14 1.14 1.05
-0.43 1.14 1.09
-0.72 1.15 1.13
-1.00 1.15 1.17
-1.29 1.16 1.20
-1.58 1.16 1.24
-1.87 1.17 1.27
-2.15 1.17 1.31
-2.44 1.18 1.34
-2.73 1.18 1.37
-3.01 1.19 1.40
-3.30 1.19 1.43
-3.59 1.19 1.46
-3.88 1.20 1.48
-4.16 1.20 1.51
-4.45 1.21 1.54
-4.74 1.21 1.56
0.24 1.17 0.78
0.17 1.17 0.84
0.03 1.17 0.89
-0.26 1.18 0.95
-0.55 1.18 0.99
-0.83 1.19 1.04
-1.12 1.19 1.08
-1.41 1.20 1.12
-1.70 1.20 1.16
-1.98 1.21 1.20
-2.27 1.21 1.23
-2.56 1.21 1.27
-2.84 1.22 1.30
-3.13 1.22 1.33
-3.42 1.23 1.36
-3.71 1.23 1.39
-3.99 1.24 1.42
-4.28 1.24 1.45
-4.57 1.24 1.48
-4.85 1.25 1.51
-5.14 1.25 1.53
-5.43 1.26 1.56
-0.09 1.21 0.77
-0.38 1.22 0.83
-0.66 1.22 0.89
-0.95 1.23 0.94
-1.24 1.23 0.99
-1.52 1.23 1.03
-1.81 1.24 1.08
-2.10 1.24 1.12
-2.39 1.25 1.15
-2.67 1.25 1.19
-2.96 1.25 1.23
-3.25 1.26 1.26
-3.53 1.26 1.30
-3.82 1.27 1.33
-4.11 1.27 1.36
-4.40 1.27 1.39
-4.68 1.28 1.42
-4.97 1.28 1.45
-5.26 1.29 1.47
-5.54 1.29 1.50
-5.83 1.29 1.53
-6.12 1.30 1.55
-0.78 1.26 0.76
-1.07 1.26 0.82
-1.35 1.27 0.88
-1.64 1.27 0.93
-1.93 1.27 0.98
-2.21 1.28 1.03
-2.50 1.28 1.07
-2.79 1.29 1.11
-3.08 1.29 1.15
-3.36 1.29 1.19
-3.65 1.30 1.22
-3.94 1.30 1.26
-4.22 1.31 1.29
-4.51 1.31 1.32
-4.80 1.31 1.35
-5.09 1.32 1.38
-5.37 1.32 1.41
-5.66 1.32 1.44
-5.95 1.33 1.47
-6.23 1.33 1.50
-6.52 1.34 1.52
-6.81 1.34 1.55
-1.47 1.30 0.75
-1.76 1.30 0.81
-2.04 1.31 0.87
-2.33 1.31 0.92
-2.62 1.32 0.97
-2.91 1.32 1.02
-3.19 1.32 1.06
-3.48 1.33 1.10
-3.77 1.33 1.14
-4.05 1.33 1.18
-4.34 1.34 1.22
-4.63 1.34 1.25
-4.92 1.35 1.29
-5.20 1.35 1.32
-5.49 1.35 1.35
-5.78 1.36 1.38
-6.06 1.36 1.41
-6.35 1.36 1.44
-6.64 1.37 1.47
-6.93 1.37 1.49
-7.21 1.38 1.52
-7.50 1.38 1.55
-2.16 1.34 0.74
-2.45 1.34 0.80
-2.73 1.35 0.86
-3.02 1.35 0.91
-3.31 1.36 0.96
-3.60 1.36 1.01
-3.88 1.36 1.06
-4.17 1.37 1.10
-4.46 1.37 1.14
-4.74 1.37 1.18
-5.03 1.38 1.21
-5.32 1.38 1.25
-5.61 1.38 1.28
-5.89 1.39 1.31
-6.18 1.39 1.34
-6.47 1.40 1.38
-6.75 1.40 1.41
-7.04 1.40 1.43
-7.33 1.41 1.46
-7.62 1.41 1.49
-7.90 1.41 1.52
-8.19 1.42 1.54
-2.85 1.38 0.73
-3.14 1.38 0.79
-3.42 1.39 0.85
-3.71 1.39 0.91
-4.00 1.39 0.96
-4.29 1.40 1.00
-4.57 1.40 1.05
-4.86 1.41 1.09
-5.15 1.41 1.13
-5.43 1.41 1.17
-5.72 1.42 1.21
-6.01 1.42 1.24
-6.30 1.42 1.28
-6.58 1.43 1.31
-6.87 1.43 1.34
-7.16 1.43 1.37
-7.44 1.44 1.40
-7.73 1.44 1.43
-8.02 1.44 1.46
-8.31 1.45 1.49
-8.59 1.45 1.51
-8.88 1.45 1.54
-3.54 1.42 0.71
-3.83 1.42 0.78
-4.12 1.42 0.84
-4.40 1.43 0.90
-4.69 1.43 0.95
-4.98 1.44 1.00
-5.26 1.44 1.04
-5.55 1.44 1.08
-5.84 1.45 1.13
-6.13 1.45 1.16
-6.41 1.45 1.20
-6.70 1.46 1.24
-6.99 1.46 1.27
-7.27 1.46 1.30
-7.56 1.47 1.34
-7.85 1.47 1.37
-8.14 1.47 1.40
-8.42 1.48 1.43
-8.71 1.48 1.45
-9.00 1.48 1.48
-9.28 1.49 1.51
-9.57 1.49 1.53
-4.23 1.45 0.70
-4.52 1.46 0.77
-4.81 1.46 0.83
-5.09 1.46 0.89
-5.38 1.47 0.94
-5.67 1.47 0.99
-5.95 1.47 1.04
-6.24 1.48 1.08
-6.53 1.48 1.12
-6.82 1.48 1.16
-7.10 1.49 1.20
-7.39 1.49 1.23
-7.68 1.49 1.27
-7.96 1.50 1.30
-8.25 1.50 1.33
-8.54 1.50 1.36
-8.83 1.51 1.39
-9.11 1.51 1.42
-9.40 1.51 1.45
-9.69 1.52 1.48
-9.97 1.52 1.50
-10.26 1.52 1.53
-4.92 1.49 0.69
-5.21 1.49 0.76
-5.50 1.50 0.82
-5.78 1.50 0.88
-6.07 1.50 0.93
-6.36 1.51 0.98
-6.64 1.51 1.03
-6.93 1.51 1.07
-7.22 1.52 1.11
-7.51 1.52 1.15
-7.79 1.52 1.19
-8.08 1.53 1.23
-8.37 1.53 1.26
-8.65 1.53 1.29
-8.94 1.53 1.33
-9.23 1.54 1.36
-9.52 1.54 1.39
-9.80 1.54 1.42
-10.09 1.55 1.44
-10.38 1.55 1.47
-10.66 1.55 1.50
-10.95 1.56 1.53
-5.61 1.52 0.68
-5.90 1.53 0.75
-6.19 1.53 0.82
-6.47 1.53 0.87
-6.76 1.54 0.93
-7.05 1.54 0.98
-7.34 1.54 1.02
-7.62 1.55 1.07
-7.91 1.55 1.11
-8.20 1.55 1.15
-8.48 1.56 1.18
-8.77 1.56 1.22
-9.06 1.56 1.25
-9.35 1.56 1.29
-9.63 1.57 1.32
-9.92 1.57 1.35
-10.21 1.57 1.38
-10.49 1.58 1.41
-10.78 1.58 1.44
-11.07 1.58 1.47
-11.36 1.59 1.50
-11.64 1.59 1.52
-6.30 1.56 0.67
-6.59 1.56 0.74
-6.88 1.56 0.81
-7.16 1.57 0.86
-7.45 1.57 0.92
-7.74 1.57 0.97
-8.03 1.58 1.01
-8.31 1.58 1.06
-8.60 1.58 1.10
-8.89 1.58 1.14
-9.17 1.59 1.18
-9.46 1.59 1.21
-9.75 1.59 1.25
-10.04 1.60 1.28
-10.32 1.60 1.32
-10.61 1.60 1.35
-10.90 1.61 1.38
-11.18 1.61 1.41
-11.47 1.61 1.44
-11.76 1.61 1.46
