graphics/cube/sRGB_D65_MAT-500lx_387.cube
TITLE "QA_sRGB_D65_MAT-500lx_387"
# Copyright (c) 2026 @xsscx David H Hoyt LLC
# https://xss.cx
# Profiles applied (by profile description):
# - sRGB D65 MAT
LUT_3D_SIZE 48
LUT_3D_INPUT_RANGE 0.2392 0.9644
0.0238 0.0250 0.0267
0.0243 0.0252 0.0296
0.0249 0.0254 0.0327
0.0255 0.0257 0.0360
0.0262 0.0260 0.0396
0.0269 0.0262 0.0433
0.0277 0.0265 0.0473
0.0285 0.0269 0.0515
0.0293 0.0272 0.0559
0.0302 0.0276 0.0605
0.0311 0.0279 0.0654
0.0321 0.0283 0.0706
0.0331 0.0287 0.0760
0.0342 0.0292 0.0816
0.0353 0.0296 0.0875
0.0365 0.0301 0.0936
0.0377 0.0306 0.1000
0.0389 0.0311 0.1067
0.0403 0.0316 0.1136
0.0416 0.0321 0.1208
0.0430 0.0327 0.1282
0.0445 0.0333 0.1360
0.0460 0.0339 0.1440
0.0476 0.0345 0.1522
0.0492 0.0352 0.1608
0.0509 0.0358 0.1697
0.0526 0.0365 0.1788
0.0544 0.0372 0.1882
0.0563 0.0380 0.1979
0.0582 0.0387 0.2079
0.0601 0.0395 0.2182
0.0621 0.0403 0.2288
0.0642 0.0412 0.2397
0.0663 0.0420 0.2509
0.0685 0.0429 0.2624
0.0708 0.0438 0.2742
0.0731 0.0447 0.2863
0.0754 0.0456 0.2988
0.0778 0.0466 0.3115
0.0803 0.0476 0.3246
0.0829 0.0486 0.3380
0.0855 0.0497 0.3517
0.0881 0.0507 0.3657
0.0909 0.0518 0.3800
0.0936 0.0529 0.3947
0.0965 0.0541 0.4097
0.0994 0.0552 0.4251
0.1024 0.0564 0.4407
0.0249 0.0272 0.0271
0.0254 0.0274 0.0300
0.0260 0.0276 0.0331
0.0266 0.0279 0.0364
0.0273 0.0281 0.0399
0.0280 0.0284 0.0437
0.0287 0.0287 0.0476
0.0295 0.0290 0.0518
0.0304 0.0294 0.0562
0.0313 0.0297 0.0609
0.0322 0.0301 0.0658
0.0332 0.0305 0.0709
0.0342 0.0309 0.0763
0.0353 0.0313 0.0820
0.0364 0.0318 0.0878
0.0376 0.0322 0.0940
0.0388 0.0327 0.1004
0.0400 0.0332 0.1070
0.0413 0.0338 0.1140
0.0427 0.0343 0.1211
0.0441 0.0349 0.1286
0.0456 0.0355 0.1363
0.0471 0.0361 0.1443
0.0487 0.0367 0.1526
0.0503 0.0373 0.1612
0.0520 0.0380 0.1700
0.0537 0.0387 0.1791
0.0555 0.0394 0.1886
0.0574 0.0402 0.1983
0.0593 0.0409 0.2083
0.0612 0.0417 0.2186
0.0632 0.0425 0.2292
0.0653 0.0433 0.2401
0.0674 0.0442 0.2513
0.0696 0.0451 0.2628
0.0718 0.0460 0.2746
0.0741 0.0469 0.2867
0.0765 0.0478 0.2991
0.0789 0.0488 0.3119
0.0814 0.0498 0.3249
0.0839 0.0508 0.3383
0.0865 0.0518 0.3520
0.0892 0.0529 0.3661
0.0919 0.0540 0.3804
0.0947 0.0551 0.3951
0.0976 0.0562 0.4101
0.1005 0.0574 0.4254
0.1035 0.0586 0.4411
0.0260 0.0295 0.0275
0.0266 0.0297 0.0304
0.0272 0.0299 0.0335
0.0278 0.0302 0.0368
0.0284 0.0305 0.0403
0.0292 0.0307 0.0440
0.0299 0.0310 0.0480
0.0307 0.0314 0.0522
0.0315 0.0317 0.0566
0.0324 0.0320 0.0613
0.0334 0.0324 0.0662
0.0343 0.0328 0.0713
0.0354 0.0332 0.0767
0.0364 0.0336 0.0823
0.0376 0.0341 0.0882
0.0387 0.0346 0.0944
0.0399 0.0350 0.1008
0.0412 0.0356 0.1074
0.0425 0.0361 0.1143
0.0439 0.0366 0.1215
0.0453 0.0372 0.1290
0.0468 0.0378 0.1367
0.0483 0.0384 0.1447
0.0498 0.0390 0.1530
0.0515 0.0397 0.1616
0.0532 0.0403 0.1704
0.0549 0.0410 0.1795
0.0567 0.0417 0.1890
0.0585 0.0425 0.1987
0.0604 0.0432 0.2087
0.0624 0.0440 0.2190
0.0644 0.0448 0.2296
0.0665 0.0457 0.2404
0.0686 0.0465 0.2516
0.0708 0.0474 0.2632
0.0730 0.0483 0.2750
0.0753 0.0492 0.2871
0.0777 0.0501 0.2995
0.0801 0.0511 0.3123
0.0826 0.0521 0.3253
0.0851 0.0531 0.3387
0.0877 0.0542 0.3524
0.0904 0.0552 0.3664
0.0931 0.0563 0.3808
0.0959 0.0574 0.3955
0.0987 0.0586 0.4105
0.1017 0.0597 0.4258
0.1046 0.0609 0.4415
0.0273 0.0320 0.0279
0.0278 0.0322 0.0308
0.0284 0.0324 0.0339
0.0290 0.0327 0.0372
0.0297 0.0329 0.0407
0.0304 0.0332 0.0445
0.0312 0.0335 0.0484
0.0320 0.0338 0.0526
0.0328 0.0342 0.0570
0.0337 0.0345 0.0617
0.0346 0.0349 0.0666
0.0356 0.0353 0.0717
0.0366 0.0357 0.0771
0.0377 0.0361 0.0828
0.0388 0.0366 0.0886
0.0400 0.0370 0.0948
0.0412 0.0375 0.1012
0.0424 0.0380 0.1078
0.0438 0.0386 0.1148
0.0451 0.0391 0.1219
0.0465 0.0397 0.1294
0.0480 0.0403 0.1371
0.0495 0.0409 0.1451
0.0511 0.0415 0.1534
0.0527 0.0422 0.1620
0.0544 0.0428 0.1708
0.0561 0.0435 0.1799
0.0579 0.0442 0.1894
0.0598 0.0450 0.1991
0.0617 0.0457 0.2091
0.0636 0.0465 0.2194
0.0656 0.0473 0.2300
0.0677 0.0481 0.2409
0.0698 0.0490 0.2521
0.0720 0.0499 0.2636
0.0742 0.0508 0.2754
0.0766 0.0517 0.2875
0.0789 0.0526 0.2999
0.0813 0.0536 0.3127
0.0838 0.0546 0.3257
0.0864 0.0556 0.3391
0.0890 0.0566 0.3528
0.0916 0.0577 0.3669
0.0943 0.0588 0.3812
0.0971 0.0599 0.3959
0.1000 0.0611 0.4109
0.1029 0.0622 0.4262
0.1059 0.0634 0.4419
0.0286 0.0346 0.0284
0.0291 0.0348 0.0312
0.0297 0.0351 0.0343
0.0303 0.0353 0.0376
0.0310 0.0356 0.0412
0.0317 0.0359 0.0449
0.0325 0.0362 0.0489
0.0333 0.0365 0.0531
0.0341 0.0368 0.0575
0.0350 0.0372 0.0621
0.0359 0.0376 0.0670
0.0369 0.0379 0.0722
0.0379 0.0384 0.0776
0.0390 0.0388 0.0832
0.0401 0.0392 0.0891
0.0413 0.0397 0.0952
0.0425 0.0402 0.1016
0.0438 0.0407 0.1083
0.0451 0.0412 0.1152
0.0464 0.0418 0.1224
0.0479 0.0423 0.1298
0.0493 0.0429 0.1376
0.0508 0.0435 0.1456
0.0524 0.0442 0.1539
0.0540 0.0448 0.1624
0.0557 0.0455 0.1713
0.0575 0.0462 0.1804
0.0592 0.0469 0.1898
0.0611 0.0476 0.1995
0.0630 0.0484 0.2095
0.0649 0.0492 0.2198
0.0670 0.0500 0.2304
0.0690 0.0508 0.2413
0.0711 0.0516 0.2525
0.0733 0.0525 0.2640
0.0756 0.0534 0.2758
0.0779 0.0543 0.2879
0.0802 0.0553 0.3004
0.0827 0.0562 0.3131
0.0851 0.0572 0.3262
0.0877 0.0583 0.3396
0.0903 0.0593 0.3533
0.0929 0.0604 0.3673
0.0957 0.0615 0.3816
0.0985 0.0626 0.3963
0.1013 0.0637 0.4113
0.1042 0.0649 0.4267
0.1072 0.0661 0.4424
0.0300 0.0374 0.0288
0.0305 0.0377 0.0317
0.0311 0.0379 0.0348
0.0318 0.0381 0.0381
0.0324 0.0384 0.0416
0.0331 0.0387 0.0454
0.0339 0.0390 0.0493
0.0347 0.0393 0.0535
0.0355 0.0396 0.0580
0.0364 0.0400 0.0626
0.0373 0.0404 0.0675
0.0383 0.0408 0.0727
0.0393 0.0412 0.0780
0.0404 0.0416 0.0837
0.0415 0.0420 0.0896
0.0427 0.0425 0.0957
0.0439 0.0430 0.1021
0.0452 0.0435 0.1087
0.0465 0.0440 0.1157
0.0478 0.0446 0.1229
0.0493 0.0451 0.1303
0.0507 0.0457 0.1380
0.0523 0.0463 0.1460
0.0538 0.0470 0.1543
0.0555 0.0476 0.1629
0.0571 0.0483 0.1717
0.0589 0.0490 0.1809
0.0607 0.0497 0.1903
0.0625 0.0504 0.2000
0.0644 0.0512 0.2100
0.0663 0.0520 0.2203
0.0684 0.0528 0.2309
0.0704 0.0536 0.2418
0.0726 0.0545 0.2530
0.0747 0.0553 0.2645
0.0770 0.0562 0.2763
0.0793 0.0572 0.2884
0.0816 0.0581 0.3008
0.0841 0.0591 0.3136
0.0865 0.0601 0.3267
0.0891 0.0611 0.3400
0.0917 0.0621 0.3537
0.0944 0.0632 0.3678
0.0971 0.0643 0.3821
0.0999 0.0654 0.3968
0.1027 0.0665 0.4118
0.1056 0.0677 0.4271
0.1086 0.0689 0.4428
0.0315 0.0404 0.0293
0.0320 0.0406 0.0322
0.0326 0.0409 0.0353
0.0332 0.0411 0.0386
0.0339 0.0414 0.0421
0.0346 0.0417 0.0459
0.0354 0.0420 0.0498
0.0362 0.0423 0.0540
0.0370 0.0426 0.0584
0.0379 0.0430 0.0631
0.0388 0.0434 0.0680
0.0398 0.0437 0.0731
0.0408 0.0442 0.0785
0.0419 0.0446 0.0842
0.0430 0.0450 0.0901
0.0442 0.0455 0.0962
0.0454 0.0460 0.1026
0.0467 0.0465 0.1092
0.0480 0.0470 0.1162
0.0493 0.0476 0.1234
0.0508 0.0481 0.1308
0.0522 0.0487 0.1385
0.0537 0.0493 0.1465
0.0553 0.0500 0.1548
0.0569 0.0506 0.1634
0.0586 0.0513 0.1722
0.0604 0.0520 0.1814
0.0621 0.0527 0.1908
0.0640 0.0534 0.2005
0.0659 0.0542 0.2105
0.0678 0.0550 0.2208
0.0699 0.0558 0.2314
0.0719 0.0566 0.2423
0.0740 0.0574 0.2535
0.0762 0.0583 0.2650
0.0785 0.0592 0.2768
0.0808 0.0601 0.2889
0.0831 0.0611 0.3013
0.0856 0.0620 0.3141
0.0880 0.0630 0.3272
0.0906 0.0641 0.3405
0.0932 0.0651 0.3542
0.0958 0.0662 0.3683
0.0986 0.0673 0.3826
0.1014 0.0684 0.3973
0.1042 0.0695 0.4123
0.1071 0.0707 0.4276
0.1101 0.0719 0.4433
0.0331 0.0436 0.0298
0.0336 0.0438 0.0327
0.0342 0.0440 0.0358
0.0348 0.0443 0.0391
0.0355 0.0445 0.0426
0.0362 0.0448 0.0464
0.0370 0.0451 0.0504
0.0378 0.0455 0.0546
0.0386 0.0458 0.0590
0.0395 0.0461 0.0636
0.0404 0.0465 0.0685
0.0414 0.0469 0.0737
0.0424 0.0473 0.0791
0.0435 0.0477 0.0847
0.0446 0.0482 0.0906
0.0458 0.0487 0.0967
0.0470 0.0491 0.1031
0.0482 0.0496 0.1098
0.0496 0.0502 0.1167
0.0509 0.0507 0.1239
0.0523 0.0513 0.1313
0.0538 0.0519 0.1391
0.0553 0.0525 0.1471
0.0569 0.0531 0.1553
0.0585 0.0538 0.1639
0.0602 0.0544 0.1728
0.0619 0.0551 0.1819
0.0637 0.0558 0.1913
0.0656 0.0566 0.2010
0.0675 0.0573 0.2110
0.0694 0.0581 0.2213
0.0714 0.0589 0.2319
0.0735 0.0597 0.2428
0.0756 0.0606 0.2540
0.0778 0.0615 0.2655
0.0801 0.0624 0.2773
0.0824 0.0633 0.2894
0.0847 0.0642 0.3019
0.0871 0.0652 0.3146
0.0896 0.0662 0.3277
0.0922 0.0672 0.3411
0.0948 0.0683 0.3548
0.0974 0.0693 0.3688
0.1001 0.0704 0.3831
0.1029 0.0715 0.3978
0.1058 0.0727 0.4128
0.1087 0.0738 0.4282
0.1117 0.0750 0.4438
0.0347 0.0469 0.0304
0.0353 0.0471 0.0333
0.0359 0.0474 0.0364
0.0365 0.0476 0.0397
0.0372 0.0479 0.0432
0.0379 0.0482 0.0469
0.0386 0.0485 0.0509
0.0394 0.0488 0.0551
0.0403 0.0491 0.0595
0.0411 0.0495 0.0642
0.0421 0.0498 0.0691
0.0431 0.0502 0.0742
0.0441 0.0506 0.0796
0.0451 0.0511 0.0852
0.0463 0.0515 0.0911
0.0474 0.0520 0.0973
0.0486 0.0525 0.1037
0.0499 0.0530 0.1103
0.0512 0.0535 0.1172
0.0526 0.0540 0.1244
0.0540 0.0546 0.1319
0.0555 0.0552 0.1396
0.0570 0.0558 0.1476
0.0586 0.0564 0.1559
0.0602 0.0571 0.1645
0.0619 0.0578 0.1733
0.0636 0.0585 0.1824
0.0654 0.0592 0.1919
0.0672 0.0599 0.2016
0.0691 0.0607 0.2116
0.0711 0.0614 0.2219
0.0731 0.0623 0.2325
0.0752 0.0631 0.2434
0.0773 0.0639 0.2546
0.0795 0.0648 0.2661
0.0817 0.0657 0.2779
0.0840 0.0666 0.2900
0.0864 0.0676 0.3024
0.0888 0.0685 0.3152
0.0913 0.0695 0.3282
0.0938 0.0705 0.3416
0.0964 0.0716 0.3553
0.0991 0.0726 0.3693
0.1018 0.0737 0.3837
0.1046 0.0749 0.3984
0.1074 0.0760 0.4134
0.1104 0.0772 0.4287
0.1133 0.0783 0.4444
0.0365 0.0504 0.0310
0.0370 0.0506 0.0339
0.0376 0.0509 0.0370
0.0382 0.0511 0.0403
0.0389 0.0514 0.0438
0.0396 0.0517 0.0475
0.0404 0.0520 0.0515
0.0412 0.0523 0.0557
0.0420 0.0526 0.0601
0.0429 0.0530 0.0648
0.0438 0.0534 0.0697
0.0448 0.0537 0.0748
0.0458 0.0542 0.0802
0.0469 0.0546 0.0858
0.0480 0.0550 0.0917
0.0492 0.0555 0.0979
0.0504 0.0560 0.1043
0.0517 0.0565 0.1109
0.0530 0.0570 0.1178
0.0543 0.0576 0.1250
0.0558 0.0581 0.1325
0.0572 0.0587 0.1402
0.0587 0.0593 0.1482
0.0603 0.0599 0.1565
0.0619 0.0606 0.1650
0.0636 0.0613 0.1739
0.0654 0.0620 0.1830
0.0671 0.0627 0.1924
0.0690 0.0634 0.2021
0.0709 0.0642 0.2122
0.0728 0.0650 0.2224
0.0748 0.0658 0.2330
0.0769 0.0666 0.2439
0.0790 0.0674 0.2551
0.0812 0.0683 0.2666
0.0835 0.0692 0.2785
0.0858 0.0701 0.2906
0.0881 0.0711 0.3030
0.0906 0.0720 0.3158
0.0930 0.0730 0.3288
0.0956 0.0740 0.3422
0.0982 0.0751 0.3559
0.1008 0.0762 0.3699
0.1036 0.0772 0.3843
0.1064 0.0784 0.3990
0.1092 0.0795 0.4140
0.1121 0.0807 0.4293
0.1151 0.0819 0.4450
0.0383 0.0541 0.0316
0.0389 0.0543 0.0345
0.0395 0.0546 0.0376
0.0401 0.0548 0.0409
0.0408 0.0551 0.0444
0.0415 0.0554 0.0481
0.0422 0.0557 0.0521
0.0430 0.0560 0.0563
0.0439 0.0563 0.0607
0.0447 0.0567 0.0654
0.0457 0.0570 0.0703
0.0466 0.0574 0.0754
0.0477 0.0578 0.0808
0.0487 0.0583 0.0864
0.0499 0.0587 0.0923
0.0510 0.0592 0.0985
0.0522 0.0597 0.1049
0.0535 0.0602 0.1115
0.0548 0.0607 0.1184
0.0562 0.0612 0.1256
0.0576 0.0618 0.1331
0.0591 0.0624 0.1408
0.0606 0.0630 0.1488
0.0622 0.0636 0.1571
0.0638 0.0643 0.1657
0.0655 0.0650 0.1745
0.0672 0.0656 0.1836
0.0690 0.0664 0.1931
0.0708 0.0671 0.2028
0.0727 0.0679 0.2128
0.0747 0.0686 0.2231
0.0767 0.0694 0.2337
0.0788 0.0703 0.2446
0.0809 0.0711 0.2558
0.0831 0.0720 0.2673
0.0853 0.0729 0.2791
0.0876 0.0738 0.2912
0.0900 0.0748 0.3036
0.0924 0.0757 0.3164
0.0949 0.0767 0.3294
0.0974 0.0777 0.3428
0.1000 0.0788 0.3565
0.1027 0.0798 0.3705
0.1054 0.0809 0.3849
0.1082 0.0820 0.3996
0.1110 0.0832 0.4146
0.1140 0.0844 0.4299
0.1169 0.0855 0.4456
0.0403 0.0580 0.0322
0.0408 0.0582 0.0351
0.0414 0.0584 0.0382
0.0420 0.0587 0.0415
0.0427 0.0589 0.0450
0.0434 0.0592 0.0488
0.0442 0.0595 0.0528
0.0450 0.0598 0.0569
0.0458 0.0602 0.0614
0.0467 0.0605 0.0660
0.0476 0.0609 0.0709
0.0486 0.0613 0.0761
0.0496 0.0617 0.0815
0.0507 0.0621 0.0871
0.0518 0.0626 0.0930
0.0530 0.0630 0.0991
0.0542 0.0635 0.1055
0.0554 0.0640 0.1122
0.0568 0.0646 0.1191
0.0581 0.0651 0.1263
0.0595 0.0657 0.1337
0.0610 0.0663 0.1415
0.0625 0.0669 0.1495
0.0641 0.0675 0.1577
0.0657 0.0681 0.1663
0.0674 0.0688 0.1752
0.0691 0.0695 0.1843
0.0709 0.0702 0.1937
0.0728 0.0710 0.2034
0.0747 0.0717 0.2134
0.0766 0.0725 0.2237
0.0786 0.0733 0.2343
0.0807 0.0741 0.2452
0.0828 0.0750 0.2564
0.0850 0.0759 0.2679
0.0872 0.0768 0.2797
0.0895 0.0777 0.2918
0.0919 0.0786 0.3043
0.0943 0.0796 0.3170
0.0968 0.0806 0.3301
0.0994 0.0816 0.3435
0.1020 0.0826 0.3572
0.1046 0.0837 0.3712
0.1073 0.0848 0.3855
0.1101 0.0859 0.4002
0.1130 0.0871 0.4152
0.1159 0.0882 0.4306
0.1189 0.0894 0.4462
0.0423 0.0620 0.0329
0.0428 0.0622 0.0358
0.0434 0.0625 0.0389
0.0440 0.0627 0.0422
0.0447 0.0630 0.0457
0.0454 0.0633 0.0495
0.0462 0.0636 0.0534
0.0470 0.0639 0.0576
0.0478 0.0642 0.0620
0.0487 0.0646 0.0667
0.0496 0.0650 0.0716
0.0506 0.0653 0.0767
0.0516 0.0658 0.0821
0.0527 0.0662 0.0878
0.0538 0.0666 0.0937
0.0550 0.0671 0.0998
0.0562 0.0676 0.1062
0.0575 0.0681 0.1128
0.0588 0.0686 0.1198
0.0601 0.0692 0.1270
0.0616 0.0697 0.1344
0.0630 0.0703 0.1421
0.0645 0.0709 0.1501
0.0661 0.0716 0.1584
0.0677 0.0722 0.1670
0.0694 0.0729 0.1758
0.0712 0.0736 0.1850
0.0729 0.0743 0.1944
0.0748 0.0750 0.2041
0.0767 0.0758 0.2141
0.0786 0.0766 0.2244
0.0807 0.0774 0.2350
0.0827 0.0782 0.2459
0.0848 0.0790 0.2571
0.0870 0.0799 0.2686
0.0893 0.0808 0.2804
0.0916 0.0817 0.2925
0.0939 0.0827 0.3049
0.0964 0.0836 0.3177
0.0988 0.0846 0.3308
0.1014 0.0857 0.3441
0.1040 0.0867 0.3578
0.1066 0.0878 0.3719
0.1094 0.0889 0.3862
0.1122 0.0900 0.4009
0.1150 0.0911 0.4159
0.1179 0.0923 0.4312
0.1209 0.0935 0.4469
0.0444 0.0663 0.0336
0.0450 0.0665 0.0365
0.0455 0.0667 0.0396
0.0462 0.0670 0.0429
0.0468 0.0672 0.0464
0.0475 0.0675 0.0502
0.0483 0.0678 0.0541
0.0491 0.0681 0.0583
0.0499 0.0685 0.0628
0.0508 0.0688 0.0674
0.0518 0.0692 0.0723
0.0527 0.0696 0.0775
0.0538 0.0700 0.0828
0.0548 0.0704 0.0885
0.0559 0.0709 0.0944
0.0571 0.0713 0.1005
0.0583 0.0718 0.1069
0.0596 0.0723 0.1136
0.0609 0.0729 0.1205
0.0623 0.0734 0.1277
0.0637 0.0740 0.1351
0.0651 0.0746 0.1428
0.0667 0.0752 0.1508
0.0682 0.0758 0.1591
0.0699 0.0764 0.1677
0.0715 0.0771 0.1765
0.0733 0.0778 0.1857
0.0751 0.0785 0.1951
0.0769 0.0793 0.2048
0.0788 0.0800 0.2148
0.0808 0.0808 0.2251
0.0828 0.0816 0.2357
0.0848 0.0824 0.2466
0.0870 0.0833 0.2578
0.0892 0.0842 0.2693
0.0914 0.0851 0.2811
0.0937 0.0860 0.2932
0.0961 0.0869 0.3056
0.0985 0.0879 0.3184
0.1010 0.0889 0.3315
0.1035 0.0899 0.3448
0.1061 0.0909 0.3585
0.1088 0.0920 0.3726
0.1115 0.0931 0.3869
0.1143 0.0942 0.4016
0.1171 0.0953 0.4166
0.1200 0.0965 0.4320
0.1230 0.0977 0.4476
0.0466 0.0707 0.0344
0.0472 0.0709 0.0372
0.0478 0.0711 0.0403
0.0484 0.0714 0.0436
0.0491 0.0717 0.0472
0.0498 0.0719 0.0509
0.0505 0.0722 0.0549
0.0513 0.0726 0.0591
0.0522 0.0729 0.0635
0.0530 0.0733 0.0682
0.0540 0.0736 0.0731
0.0549 0.0740 0.0782
0.0560 0.0744 0.0836
0.0570 0.0749 0.0892
0.0582 0.0753 0.0951
0.0593 0.0758 0.1012
0.0605 0.0763 0.1076
0.0618 0.0768 0.1143
0.0631 0.0773 0.1212
0.0645 0.0778 0.1284
0.0659 0.0784 0.1359
0.0674 0.0790 0.1436
0.0689 0.0796 0.1516
0.0705 0.0802 0.1599
0.0721 0.0809 0.1684
0.0738 0.0815 0.1773
0.0755 0.0822 0.1864
0.0773 0.0830 0.1958
0.0791 0.0837 0.2055
0.0810 0.0844 0.2155
0.0830 0.0852 0.2258
0.0850 0.0860 0.2364
0.0871 0.0869 0.2473
0.0892 0.0877 0.2585
0.0914 0.0886 0.2700
0.0936 0.0895 0.2818
0.0959 0.0904 0.2940
0.0983 0.0913 0.3064
0.1007 0.0923 0.3191
0.1032 0.0933 0.3322
0.1057 0.0943 0.3456
0.1083 0.0954 0.3593
0.1110 0.0964 0.3733
0.1137 0.0975 0.3877
0.1165 0.0986 0.4023
0.1193 0.0998 0.4173
0.1223 0.1009 0.4327
0.1252 0.1021 0.4484
0.0489 0.0753 0.0351
0.0495 0.0755 0.0380
0.0501 0.0758 0.0411
0.0507 0.0760 0.0444
0.0514 0.0763 0.0479
0.0521 0.0766 0.0517
0.0528 0.0769 0.0556
0.0536 0.0772 0.0598
0.0545 0.0775 0.0643
0.0553 0.0779 0.0689
0.0563 0.0782 0.0738
0.0573 0.0786 0.0790
0.0583 0.0790 0.0843
0.0593 0.0795 0.0900
0.0605 0.0799 0.0959
0.0616 0.0804 0.1020
0.0628 0.0809 0.1084
0.0641 0.0814 0.1151
0.0654 0.0819 0.1220
0.0668 0.0825 0.1292
0.0682 0.0830 0.1366
0.0697 0.0836 0.1444
0.0712 0.0842 0.1524
0.0728 0.0848 0.1606
0.0744 0.0855 0.1692
0.0761 0.0862 0.1780
0.0778 0.0869 0.1872
0.0796 0.0876 0.1966
0.0814 0.0883 0.2063
0.0833 0.0891 0.2163
0.0853 0.0898 0.2266
0.0873 0.0907 0.2372
0.0894 0.0915 0.2481
0.0915 0.0923 0.2593
0.0937 0.0932 0.2708
0.0959 0.0941 0.2826
0.0982 0.0950 0.2947
0.1006 0.0960 0.3072
0.1030 0.0969 0.3199
0.1055 0.0979 0.3330
0.1080 0.0989 0.3463
0.1106 0.1000 0.3601
0.1133 0.1011 0.3741
0.1160 0.1021 0.3884
0.1188 0.1033 0.4031
0.1217 0.1044 0.4181
0.1246 0.1056 0.4335
0.1275 0.1068 0.4491
0.0513 0.0801 0.0359
0.0519 0.0803 0.0388
0.0525 0.0806 0.0419
0.0531 0.0808 0.0452
0.0538 0.0811 0.0487
0.0545 0.0814 0.0525
0.0552 0.0817 0.0564
0.0560 0.0820 0.0606
0.0569 0.0823 0.0651
0.0578 0.0827 0.0697
0.0587 0.0831 0.0746
0.0597 0.0835 0.0798
0.0607 0.0839 0.0852
0.0618 0.0843 0.0908
0.0629 0.0847 0.0967
0.0640 0.0852 0.1028
0.0652 0.0857 0.1092
0.0665 0.0862 0.1159
0.0678 0.0867 0.1228
0.0692 0.0873 0.1300
0.0706 0.0878 0.1374
0.0721 0.0884 0.1452
0.0736 0.0890 0.1532
0.0752 0.0897 0.1614
0.0768 0.0903 0.1700
0.0785 0.0910 0.1788
0.0802 0.0917 0.1880
0.0820 0.0924 0.1974
0.0838 0.0931 0.2071
0.0857 0.0939 0.2171
0.0877 0.0947 0.2274
0.0897 0.0955 0.2380
0.0918 0.0963 0.2489
0.0939 0.0971 0.2601
0.0961 0.0980 0.2716
0.0983 0.0989 0.2834
0.1006 0.0998 0.2955
0.1030 0.1008 0.3080
0.1054 0.1018 0.3207
0.1079 0.1027 0.3338
0.1104 0.1038 0.3471
0.1130 0.1048 0.3609
0.1157 0.1059 0.3749
0.1184 0.1070 0.3892
0.1212 0.1081 0.4039
0.1241 0.1092 0.4189
0.1270 0.1104 0.4343
0.1299 0.1116 0.4499
0.0538 0.0851 0.0368
0.0544 0.0854 0.0397
0.0550 0.0856 0.0427
0.0556 0.0858 0.0461
0.0563 0.0861 0.0496
0.0570 0.0864 0.0533
0.0577 0.0867 0.0573
0.0585 0.0870 0.0615
0.0594 0.0873 0.0659
0.0603 0.0877 0.0706
0.0612 0.0881 0.0755
0.0622 0.0885 0.0806
0.0632 0.0889 0.0860
0.0643 0.0893 0.0916
0.0654 0.0897 0.0975
0.0665 0.0902 0.1036
0.0678 0.0907 0.1100
0.0690 0.0912 0.1167
0.0703 0.0917 0.1236
0.0717 0.0923 0.1308
0.0731 0.0928 0.1383
0.0746 0.0934 0.1460
0.0761 0.0940 0.1540
0.0777 0.0947 0.1623
0.0793 0.0953 0.1708
0.0810 0.0960 0.1797
0.0827 0.0967 0.1888
0.0845 0.0974 0.1982
0.0863 0.0981 0.2079
0.0882 0.0989 0.2179
0.0902 0.0997 0.2282
0.0922 0.1005 0.2388
0.0943 0.1013 0.2497
0.0964 0.1022 0.2609
0.0986 0.1030 0.2724
0.1008 0.1039 0.2842
0.1031 0.1048 0.2964
0.1055 0.1058 0.3088
0.1079 0.1068 0.3215
0.1104 0.1078 0.3346
0.1129 0.1088 0.3480
0.1155 0.1098 0.3617
0.1182 0.1109 0.3757
0.1209 0.1120 0.3901
0.1237 0.1131 0.4047
0.1266 0.1142 0.4198
0.1295 0.1154 0.4351
0.1325 0.1166 0.4508
0.0564 0.0903 0.0376
0.0570 0.0906 0.0405
0.0576 0.0908 0.0436
0.0582 0.0910 0.0469
0.0589 0.0913 0.0504
0.0596 0.0916 0.0542
0.0603 0.0919 0.0582
0.0611 0.0922 0.0623
0.0620 0.0926 0.0668
0.0629 0.0929 0.0714
0.0638 0.0933 0.0763
0.0648 0.0937 0.0815
0.0658 0.0941 0.0869
0.0669 0.0945 0.0925
0.0680 0.0950 0.0984
0.0691 0.0954 0.1045
0.0704 0.0959 0.1109
0.0716 0.0964 0.1176
0.0729 0.0969 0.1245
0.0743 0.0975 0.1317
0.0757 0.0980 0.1391
0.0772 0.0986 0.1469
0.0787 0.0992 0.1549
0.0803 0.0999 0.1631
0.0819 0.1005 0.1717
0.0836 0.1012 0.1805
0.0853 0.1019 0.1897
0.0871 0.1026 0.1991
0.0889 0.1033 0.2088
0.0908 0.1041 0.2188
0.0928 0.1049 0.2291
0.0948 0.1057 0.2397
0.0969 0.1065 0.2506
0.0990 0.1074 0.2618
0.1012 0.1082 0.2733
0.1034 0.1091 0.2851
