graphics/cube/sRGBDisplaySpectral_721.cube
TITLE "QA_sRGBDisplaySpectral_721"
# Copyright (c) 2026 @xsscx David H Hoyt LLC
# https://xss.cx
# Profiles applied (by profile description):
# - sRGB Display Spectral Emission (sRGB transfer, secondary green peak)
LUT_3D_SIZE 4
LUT_3D_INPUT_RANGE 0.20 0.80
0.62 0.68 0.85
0.48 0.75 1.17
0.21 0.80 1.40
-1.53 0.85 1.59
-0.34 1.15 0.78
-2.35 1.18 1.12
-4.36 1.21 1.37
-6.37 1.24 1.56
-5.17 1.44 0.71
-7.18 1.46 1.08
-9.19 1.49 1.33
-11.20 1.51 1.53
-10.00 1.67 0.62
-12.01 1.69 1.03
-14.02 1.71 1.30
-16.03 1.73 1.50
1.10 -2.25 0.88
1.03 -1.11 1.19
0.96 0.04 1.42
0.89 0.33 1.60
0.93 0.89 0.82
0.85 0.93 1.15
0.76 0.98 1.39
0.66 1.02 1.58
0.72 1.27 0.75
0.61 1.29 1.11
0.45 1.32 1.35
0.13 1.35 1.55
0.36 1.53 0.68
-0.62 1.55 1.06
-2.63 1.57 1.32
-4.64 1.59 1.52
1.39 -10.01 0.92
1.34 -8.87 1.22
1.29 -7.72 1.44
1.24 -6.58 1.62
1.27 0.45 0.86
1.22 0.54 1.18
1.17 0.62 1.41
1.11 0.69 1.59
1.15 1.05 0.80
1.09 1.08 1.14
1.02 1.12 1.37
0.95 1.15 1.57
1.00 1.37 0.73
0.92 1.39 1.09
0.84 1.42 1.34
0.75 1.44 1.54
1.61 -17.77 0.95
1.57 -16.63 1.24
1.54 -15.49 1.46
1.50 -14.34 1.64
1.52 -5.58 0.90
1.48 -4.44 1.20
1.44 -3.30 1.43
1.40 -2.15 1.61
1.42 0.74 0.84
1.38 0.80 1.16
1.33 0.85 1.39
1.29 0.89 1.58
1.31 1.18 0.77
1.27 1.21 1.12
1.22 1.24 1.36
1.16 1.27 1.56
