graphics/cube/Tek350Monaco2_596.cube
TITLE "QA_Tek350Monaco2_596"

# Copyright (c) 2026 @xsscx David H Hoyt LLC
# https://xss.cx
# Profiles applied (by profile description):
# - Tek 350, ES1000 Monaco2

LUT_3D_SIZE 5
LUT_3D_INPUT_RANGE 0.17540000379 0.81610000134

0.36196583509 0.53613495827 0.49887478352
0.34400445223 0.53314316273 0.43608650565
0.32260501385 0.51301765442 0.37220746279
0.31786084175 0.49906229973 0.33515307307
0.32722830772 0.49360519648 0.31660258770
0.40863811970 0.46126079559 0.53534442186
0.40503224730 0.47629263997 0.47182092071
0.41510155797 0.47630092502 0.41542124748
0.39423164725 0.47061258554 0.37276521325
0.39683479071 0.46819549799 0.35018369555
0.44924098253 0.40582233667 0.56857740879
0.45203906298 0.40721338987 0.51619929075
0.47205695510 0.44544249773 0.46333229542
0.48013564944 0.45477122068 0.41828989983
0.47522875667 0.46678152680 0.38560837507
0.51191735268 0.42332425714 0.60152047873
0.51262938976 0.42287185788 0.55486094952
0.51287293434 0.40961286426 0.49606633186
0.52692294121 0.44722679257 0.45036989450
0.54223704338 0.47007441521 0.42003077269
0.56047064066 0.42804390192 0.62660694122
0.57525575161 0.42643970251 0.59329628944
0.56248307228 0.41607809067 0.53449988365
0.58060377836 0.44636929035 0.49272295833
0.58847689629 0.44826507568 0.45115152001
0.41854494810 0.58431142569 0.53487968445
0.40417456627 0.58573246002 0.46210145950
0.37554439902 0.58724588156 0.39823612571
0.37097740173 0.56984865665 0.36085456610
0.36268246174 0.56514340639 0.33293259144
0.46394127607 0.52981811762 0.57297855616
0.44638374448 0.52855813503 0.49428686500
0.44819876552 0.52988296747 0.42988362908
0.42597338557 0.51491922140 0.38176599145
0.42301192880 0.50953829288 0.35010090470
0.50199437141 0.45443028212 0.59612679482
0.49083909392 0.43926897645 0.52625674009
0.49841359258 0.47338831425 0.46511679888
0.50816148520 0.47590410709 0.42232868075
0.49024593830 0.47250828147 0.37472450733
0.54373008013 0.40237498283 0.62068647146
0.54060429335 0.40259796381 0.56959903240
0.55178773403 0.40802946687 0.50636965036
0.57021391392 0.42901226878 0.46067595482
0.56879097223 0.44874355197 0.41544237733
0.57136321068 0.36242502928 0.63514590263
0.60195714235 0.37788835168 0.60288631916
0.59001439810 0.38434070349 0.54599875212
0.60343217850 0.40607526898 0.49581786990
0.62068080902 0.43300300837 0.45136293769
0.44860625267 0.61309194565 0.56458765268
0.46576496959 0.61443072557 0.49571180344
0.43462866545 0.62889820337 0.42802044749
0.42155957222 0.62566214800 0.38424372673
0.41587799788 0.61155372858 0.35634490848
0.49215653539 0.57480233908 0.59424030781
0.50614988804 0.57136571407 0.53293490410
0.51135087013 0.57007825375 0.46053135395
0.48398995399 0.57584327459 0.40933957696
0.46948531270 0.57278823853 0.36231911182
0.55372667313 0.51418662071 0.63152259588
0.56153017282 0.51352381706 0.56608700752
0.57162898779 0.51411181688 0.49054130912
0.56713050604 0.52151310444 0.44437754154
0.53242921829 0.51001268625 0.38292750716
0.60240602493 0.45645546913 0.65602761507
0.60157293081 0.45378258824 0.59517085552
0.60059601068 0.45586663485 0.53372073174
0.62411081791 0.47349780798 0.46881952882
0.60062700510 0.47383838892 0.41709941626
0.62655252218 0.41131323576 0.67768085003
0.64414536953 0.39750072360 0.62889802456
0.63317513466 0.39542740583 0.56240117550
0.64237898588 0.39590916038 0.50474148989
0.66425400972 0.42759847641 0.45110180974
0.47569164634 0.64233219624 0.60085290670
0.48782444000 0.64385169744 0.52945619822
0.48125457764 0.65811711550 0.46446871758
0.48135966063 0.66717493534 0.41077712178
0.47596845031 0.66146832705 0.37032333016
0.51819062233 0.61248826981 0.62650173903
0.52996420860 0.61156523228 0.56644666195
0.55499899387 0.60742187500 0.50080567598
0.55879610777 0.61175417900 0.44194704294
0.53789144754 0.61107265949 0.38970682025
0.58264321089 0.56172168255 0.65786665678
0.58879798651 0.56242096424 0.59261363745
0.59876966476 0.56514567137 0.53009802103
0.62098336220 0.56241029501 0.46842658520
0.61876529455 0.55993074179 0.41607442498
0.66309499741 0.50704377890 0.69083923101
0.65477514267 0.50782740116 0.62980860472
0.65912604332 0.50782799721 0.55829685926
0.67013490200 0.51372849941 0.48445919156
0.65970557928 0.50969624519 0.43453624845
0.68871772289 0.45881289244 0.72176212072
0.70327293873 0.45278590918 0.66514545679
0.70816725492 0.44673964381 0.58851599693
0.69719868898 0.41962432861 0.51575964689
0.72581505775 0.46787008643 0.46467134356
0.51420140266 0.67733108997 0.61853230000
0.53458875418 0.67766618729 0.55548232794
0.53314363956 0.69177561998 0.49424687028
0.52804547548 0.69612950087 0.44080889225
0.53272271156 0.70392107964 0.38845849037
0.54992324114 0.65072661638 0.64669346809
0.56800425053 0.64641791582 0.59226852655
0.59012866020 0.64488661289 0.52800482512
0.60415470600 0.64349734783 0.47561168671
0.60662662983 0.64626967907 0.41622447968
0.61229628325 0.60570955276 0.69081598520
0.61438596249 0.60917472839 0.62351572514
0.63604658842 0.60557192564 0.56186318398
0.66548418999 0.59921973944 0.50632363558
0.67887407541 0.60153210163 0.44206070900
0.69547343254 0.55615472794 0.72722357512
0.68859070539 0.55657315254 0.66411143541
0.68796807528 0.56150478125 0.59962743521
0.70476412773 0.56358557940 0.52437293530
0.72562009096 0.56163716316 0.46269693971
0.75000596046 0.51051849127 0.75901407003
0.76653707027 0.50196200609 0.69158220291
0.77942490578 0.50174164772 0.62240803242
0.78175508976 0.49817973375 0.55469834805
0.78705543280 0.50516718626 0.48613142967
