graphics/cube/WideGamutSpectral_950.cube
TITLE "QA_WideGamutSpectral_950"
# Copyright (c) 2026 @xsscx David H Hoyt LLC
# https://xss.cx
# Profiles applied (by profile description):
# - Wide Gamut Display Spectral Emission (narrow primaries, gamma 2.2)
LUT_3D_SIZE 14
LUT_3D_INPUT_RANGE 0.2143999934196 0.9387000203133
0.7787520289421 0.6513224840164 0.5544591546059
0.7529174089432 0.6585041284561 0.6190882325172
0.7259725332260 0.6655929684639 0.6764855980873
0.6977705359459 0.6725923418999 0.7285605669022
0.6681295037270 0.6795054078102 0.7765112519264
0.6368194818497 0.6863350868225 0.8211473822594
0.6035432815552 0.6930841803551 0.8630461096764
0.5679046511650 0.6997552514076 0.9026353359222
0.5293557643890 0.7063509225845 0.9402431249619
0.4871017634869 0.7128735184669 0.9761270880699
0.4399110972881 0.7193252444267 1.0104937553406
0.3856848776340 0.7257082462311 1.0435121059418
0.3202619850636 0.7320246100426 1.0753217935562
0.2325962036848 0.7382762432098 1.1060405969620
0.7587756514549 0.7630587220192 0.5479021668434
0.7320902943611 0.7690091133118 0.6133526563644
0.7041832804680 0.7749047875404 0.6713340878487
0.6748813986778 0.7807471156120 0.7238509654999
0.6439669728279 0.7865374088287 0.7721506357193
0.6111598610878 0.7922770380974 0.8170712590218
0.5760895013809 0.7979671955109 0.8592074513435
0.5382484197617 0.8036090731621 0.8989986777306
0.4969084560871 0.8092038035393 0.9367811083794
0.4509605169296 0.8147524595261 0.9728177785873
0.3985607922077 0.8202561736107 1.0073194503784
0.3362010717392 0.8257159590721 1.0404583215714
0.2553491294384 0.8311327695847 1.0723766088486
0.1136358007789 0.8365074396133 1.1031935214996
0.7381473183632 0.8579405546188 0.5412496328354
0.7105266451836 0.8631157279015 0.6075520515442
0.6815531849861 0.8682539463043 0.6661346554756
0.6510204076767 0.8733559250832 0.7191042304039
0.6186641454697 0.8784223794937 0.7677602767944
0.5841372013092 0.8834540247917 0.8129705786705
0.5469680428505 0.8884515166283 0.8553481101990
0.5064882040024 0.8934155106544 0.8953443765640
0.4616942405701 0.8983466029167 0.9333036541939
0.4109556972980 0.9032453894615 0.9694949388504
0.3512810766697 0.9081125855446 1.0041332244873
0.2758958637714 0.9129486083984 1.0373938083649
0.1592809408903 0.9177541732788 1.0694215297699
-0.0236963033676 0.9225296378136 1.1003375053406
0.7168028354645 0.9416430592537 0.5344974994659
0.6881475448608 0.9462742805481 0.6016841530800
0.6579833626747 0.9508785605431 0.6608861088753
0.6260607838631 0.9554561972618 0.7143196463585
0.5920540094376 0.9600076675415 0.7633395791054
0.5555241107941 0.9645333886147 0.8088449239731
0.5158552527428 0.9690337777138 0.8514677286148
0.4721366763115 0.9735091924667 0.8916720747948
0.4229176044464 0.9779600501060 0.9298105835915
0.3656214475632 0.9823867678642 0.9661583304405
0.2947525382042 0.9867897033691 1.0009347200394
0.1929182559252 0.9911691546440 1.0343184471130
-0.0144852995872 0.9955254793167 1.0664566755295
-0.0557511448860 0.9998590946198 1.0974726676941
0.6946669220924 1.0172468423843 0.5276413559914
0.6648589968681 1.0214701890945 0.5957468152046
0.6333540081978 1.0256725549698 0.6555870175362
0.5998457670212 1.0298544168472 0.7094963192940
0.5639248490334 1.0340161323547 0.7588879466057
0.5250226259232 1.0381577014923 0.8046938776970
0.4823089241982 1.0422796010971 0.8475660681725
0.4344867169857 1.0463819503784 0.8879815340042
0.3793168365955 1.0504651069641 0.9263016581535
0.3122617602348 1.0545294284821 0.9628078937531
0.2206626385450 1.0585749149323 0.9977239966393
-0.0052741765976 1.0626020431519 1.0312321186066
-0.0465401411057 1.0666108131409 1.0634819269180
-0.0878059864044 1.0706017017365 1.0945987701416
0.6716504096985 1.0866430997849 0.5206766724586
0.6405478119850 1.0905461311340 0.5897375345230
0.6075178980827 1.0944324731827 0.6502360701561
0.5721780061722 1.0983023643494 0.7046332955360
0.5340017676353 1.1021559238434 0.7544047236443
0.4922301471233 1.1059933900833 0.8005169034004
0.4456973373890 1.1098150014877 0.8436427116394
0.3924431502819 1.1136207580566 0.8842724561691
0.3286654949188 1.1174111366272 0.9227767586708
0.2447436600924 1.1211860179901 0.9594433307648
0.0807031840086 1.1249457597733 0.9945007562637
-0.0373290181160 1.1286904811859 1.0281345844269
-0.0785949826241 1.1324204206467 1.0604971647263
-0.1198608279228 1.1361355781555 1.0917158126831
0.6476460099220 1.1510894298553 0.5135983228683
0.6150755286217 1.1547327041626 0.5836538672447
0.5802907943726 1.1583621501923 0.6448316574097
0.5428032875061 1.1619781255722 0.6997296214104
0.5019170045853 1.1655806303024 0.7498893141747
0.4565795063972 1.1691697835922 0.7963136434555
0.4050624370575 1.1727457046509 0.8396973013878
0.3441411256790 1.1763086318970 0.8805446028709
0.2662702202797 1.1798586845398 0.9192355871201
0.1396160870790 1.1833959817886 0.9560645818710
-0.0281178951263 1.1869205236435 0.9912649989128
-0.0693838596344 1.1904326677322 1.0250258445740
-0.1106498241425 1.1939324140549 1.0575021505356
-0.1519156694412 1.1974198818207 1.0888236761093
0.6225233674049 1.2114717960358 0.5064010024071
0.5882696509361 1.2148989439011 0.5774932503700
0.5514368414879 1.2183145284653 0.6393724083900
0.5113844871521 1.2217186689377 0.6947844028473
0.4671590328217 1.2251114845276 0.7453411221504
0.4172269701958 1.2284929752350 0.7920836806297
0.3588234782219 1.2318633794785 0.8357295989990
0.2858871519566 1.2352226972580 0.8767977356911
0.1777264028788 1.2385711669922 0.9156780242920
-0.0189068317413 1.2419087886810 0.9526714682579
-0.0601726770401 1.2452356815338 0.9880164861679
-0.1014386415482 1.2485519647598 1.0219056606293
-0.1427046060562 1.2518577575684 1.0544971227646
-0.1839704513550 1.2551529407501 1.0859223604202
0.5961207151413 1.2684422731400 0.4990786910057
0.5599110722542 1.2716860771179 0.5712526440620
0.5206461548805 1.2749198675156 0.6338566541672
0.4774583280087 1.2781440019608 0.6897965073586
0.4289798736572 1.2813583612442 0.7407592535019
0.3728179633617 1.2845630645752 0.7878262996674
0.3040076494217 1.2877582311630 0.8317390680313
0.2078992426395 1.2909438610077 0.8730315566063
-0.0096958279610 1.2941200733185 0.9121037721634
-0.0509617626667 1.2972869873047 0.9492638111115
-0.0922276079655 1.3004447221756 0.9847550392151
-0.1334935724735 1.3035931587219 1.0187741518021
-0.1747595369816 1.3067326545715 1.0514817237854
-0.2160253822803 1.3098629713058 1.0830116271973
0.5682341456413 1.3224960565567 0.4916251897812
0.5297142267227 1.3255817890167 0.5649291276932
0.4874978959560 1.3286589384079 0.6282826662064
0.4403585493565 1.3317276239395 0.6847650408745
0.3862088918686 1.3347877264023 0.7361432313919
0.3209167420864 1.3378396034241 0.7835412621498
0.2335557639599 1.3408830165863 0.8277255296707
-0.0004847049713 1.3439182043076 0.8692458271980
-0.0417506694794 1.3469451665878 0.9085125923157
-0.0830166041851 1.3499640226364 0.9458413720131
-0.1242824494839 1.3529747724533 0.9814806580544
-0.1655484139919 1.3559775352478 1.0156309604645
-0.2068143785000 1.3589723110199 1.0484558343887
-0.2480802237988 1.3619592189789 1.0800914764404
0.5385998487473 1.3740202188492 0.4840335547924
0.4972952604294 1.3769680261612 0.5585195422173
0.4513950645924 1.3799082040787 0.6226487159729
0.3990645706654 1.3828409910202 0.6796887516975
0.3368188738823 1.3857662677765 0.7314921617508
0.2562078237534 1.3886840343475 0.7792277932167
0.1158817335963 1.3915946483612 0.8236884474754
-0.0325394868851 1.3944978713989 0.8654401302338
-0.0738054513931 1.3973939418793 0.9049043655396
-0.1150713860989 1.4002827405930 0.9424039721489
-0.1563372313976 1.4031645059586 0.9781931042671
-0.1976031959057 1.4060391187668 1.0124759674072
-0.2388691604137 1.4089066982269 1.0454194545746
-0.2801350057125 1.4117673635483 1.0771619081497
0.5068662166595 1.4233242273331 0.4762962460518
0.4621166884899 1.4261502027512 0.5520204305649
0.4114414155483 1.4289693832397 0.6169528961182
0.3518671095371 1.4317820072174 0.6745666265488
0.2766786217690 1.4345879554749 0.7268053293228
0.1607883274555 1.4373872280121 0.7748855352402
-0.0233285427094 1.4401801824570 0.8196274638176
-0.0645943880081 1.4429665803909 0.8616142868996
-0.1058603525162 1.4457465410233 0.9012787938118
-0.1471262872219 1.4485200643539 0.9389514923096
-0.1883921325207 1.4512871503830 0.9748921990395
-0.2296580970287 1.4540480375290 1.0093092918396
-0.2709240615368 1.4568026065826 1.0423724651337
-0.3121899068356 1.4595509767532 1.0742225646973
0.4725478887558 1.4706592559814 0.4684050679207
0.4233868420124 1.4733766317368 0.5454282164574
0.3661801815033 1.4760879278183 0.6111932396889
0.2954754829407 1.4787933826447 0.6693973541260
0.1941181570292 1.4814928770065 0.7220819592476
-0.0141174495220 1.4841864109039 0.7705138921738
-0.0553834140301 1.4868742227554 0.8155422210693
-0.0966492593288 1.4895560741425 0.8577679395676
-0.1379152238369 1.4922323226929 0.8976355791092
-0.1791811585426 1.4949026107788 0.9354837536812
-0.2204470038414 1.4975672960281 0.9715778827667
-0.2617129683495 1.5002263784409 1.0061305761337
-0.3029789328575 1.5028796195984 1.0393147468567
-0.3442447781563 1.5055274963379 1.0712736845016
0.4349409937859 1.5162329673767 0.4603510797024
0.3798514306545 1.5188528299332 0.5387389063835
0.3129366636276 1.5214672088623 0.6053677797318
0.2216845899820 1.5240763425827 0.6641796827316
-0.0049063563347 1.5266799926758 0.7173211574554
-0.0461722910404 1.5292782783508 0.7661122679710
-0.0874382555485 1.5318714380264 0.8114322423935
-0.1287041008472 1.5344592332840 0.8539007902145
-0.1699700653553 1.5370419025421 0.8939745426178
-0.2112360000610 1.5396193265915 0.9320004582405
-0.2525018453598 1.5421915054321 0.9682499170303
-0.2937678098679 1.5447586774826 1.0029398202896
-0.3350337743759 1.5473206043243 1.0362461805344
-0.3762996196747 1.5498776435852 1.0683150291443
0.9035969972610 0.5947306752205 0.5572711229324
0.8821072578430 0.6027284264565 0.6215533018112
0.8599701523781 0.6106008291245 0.6787028312683
0.8371270895004 0.6183531880379 0.7305896282196
0.8135104775429 0.6259906888008 0.7783913016319
0.7890408635139 0.6335179805756 0.8229057788849
0.7636248469353 0.6409394741058 0.8647027611732
0.7371508479118 0.6482592225075 0.9042053222656
0.7094834446907 0.6554811000824 0.9417382478714
0.6804564595222 0.6626087427139 0.9775565862656
0.6498616337776 0.6696454882622 1.0118651390076
0.6174320578575 0.6765946745872 1.0448316335678
0.5828169584274 0.6834592819214 1.0765948295593
0.5455392003059 0.6902420520782 1.1072713136673
0.8869583010674 0.7170253396034 0.5507543087006
0.8649704456329 0.7234327197075 0.6158453226089
0.8422905206680 0.7297726869583 0.6735716462135
0.8188529610634 0.7360472679138 0.7258957624435
0.7945812940598 0.7422582507133 0.7740433812141
0.7693855166435 0.7484075427055 0.8188401460648
0.7431584596634 0.7544967532158 0.8608729839325
0.7157706022263 0.7605275511742 0.9005763530731
0.6870634555817 0.7665015459061 0.9382827877998
0.6568392515182 0.7724201679230 0.9742530584335
0.6248462200165 0.7782848477364 1.0086960792542
0.5907549858093 0.7840970158577 1.0417826175690
0.5541216135025 0.7898579239845 1.0736536979675
0.5143221020699 0.7955688238144 1.1044280529022
0.8699362874031 0.8182924389839 0.5441436767578
0.8474161028862 0.8237677812576 0.6100731492043
0.8241539001465 0.8291998505592 0.6683931350708
0.8000756502151 0.8345895409584 0.7211652398109
0.7750948071480 0.8399376869202 0.7696659564972
0.7491083145142 0.8452454209328 0.8147501349449
0.7219920754433 0.8505133986473 0.8570226430893
0.6935950517654 0.8557424545288 0.8969296813011
0.6637290716171 0.8609334826469 0.9348120689392
0.6321561336517 0.8660872578621 0.9709361195564
0.5985670089722 0.8712044358253 1.0055150985718
0.5625474452972 0.8762858510017 1.0387227535248
0.5235214233398 0.8813321590424 1.0707029104233
0.4806463718414 0.8863439559937 1.1015759706497
0.8525049090385 0.9063751697540 0.5374351739883
0.8294142484665 0.9112222194672 0.6042346954346
0.8055251836777 0.9160386323929 0.6631660461426
0.7807540893555 0.9208248257637 0.7163971662521
0.7550019621849 0.9255812764168 0.7652584910393
0.7281500101089 0.9303086400032 0.8106353282928
0.7000536322594 0.9350073337555 0.8531514406204
0.6705341935158 0.9396778345108 0.8932652473450
0.6393661499023 0.9443206787109 0.9313257932663
0.6062585115433 0.9489362835884 0.9676055312157
0.5708245635033 0.9535251259804 1.0023218393326
0.5325309634209 0.9580876231194 1.0356521606445
0.4906077384949 0.9626241922379 1.0677423477173
0.4438688457012 0.9671351909637 1.0987149477005
0.8346349000931 0.9852172732353 0.5306246876717
0.8109307885170 0.9896050691605 0.5983276963234
0.7863646149635 0.9939696192741 0.6578890085220
0.7608409523964 0.9983113408089 0.7115907073021
0.7342460155487 1.0026304721832 0.7608203291893
0.7064415216446 1.0069274902344 0.8064953088760
0.6772573590279 1.0112024545670 0.8492590188980
0.6464799046516 1.0154559612274 0.8895825743675
0.6138347387314 1.0196881294250 0.9278237819672
0.5789599418640 1.0238993167877 0.9642610549927
0.5413612127304 1.0280898809433 0.9991164803505
0.5003322362900 1.0322600603104 1.0325706005096
0.4548032879829 1.0364100933075 1.0647718906403
0.4030105173588 1.0405403375626 1.0958449840546
0.8162935972214 1.0571298599243 0.5237076282501
0.7919274568558 1.0611635446548 0.5923498868942
0.7666266560555 1.0651788711548 0.6525607109070
0.7402818202972 1.0691760778427 0.7067449688911
0.7127608656883 1.0731555223465 0.7563509345055
0.6839014291763 1.0771172046661 0.8023296594620
0.6535008549690 1.0810616016388 0.8453450798988
0.6213003993034 1.0849887132645 0.8858816027641
0.5869605541229 1.0888988971710 0.9243058562279
0.5500217676163 1.0927922725677 0.9609026908875
0.5098350644112 1.0966690778732 0.9958987236023
0.4654311239719 1.1005295515060 1.0294778347015
0.4152467846870 1.1043738126755 1.0617914199829
0.3564479649067 1.1082020998001 1.0929659605026
0.7974438667297 1.1236026287079 0.5166791677475
0.7723604440689 1.1273527145386 0.5862987637520
0.7462592720985 1.1310878992081 0.6471796631813
0.7190136313438 1.1348083019257 0.7018590569496
0.6904689073563 1.1385141611099 0.7518495321274
0.6604325175285 1.1422055959702 0.7981379032135
0.6286597847939 1.1458827257156 0.8414092659950
0.5948323607445 1.1495457887650 0.8821619153023
0.5585218071938 1.1531949043274 0.9207717180252
0.5191298127174 1.1568301916122 0.9575300812721
0.4757754504681 1.1604518890381 0.9926683902740
0.4270650744438 1.1640599966049 1.0263739824295
0.3705497682095 1.1676547527313 1.0588009357452
0.3011043667793 1.1712362766266 1.0900777578354
0.7780436873436 1.1856610774994 0.5095340609550
0.7521797418594 1.1891776323318 0.5801718235016
0.7252019047737 1.1926817893982 0.6417443752289
0.6969622969627 1.1961735486984 0.6969319581985
0.6672779917717 1.1996532678604 0.7473156452179
0.6359174251556 1.2031208276749 0.7939195632935
0.6025810837746 1.2065764665604 0.8374512791634
0.5668694376945 1.2100201845169 0.8784233331680
0.5282291769981 1.2134522199631 0.9172213077545
0.4858566224575 1.2168726921082 0.9541432261467
0.4385034441948 1.2202816009521 0.9894253611565
0.3840354382992 1.2236791849136 1.0232588052750
0.3181976974010 1.2270654439926 1.0558001995087
0.2295539826155 1.2304404973984 1.0871803760529
0.7580448389053 1.2440469264984 0.5022666454315
0.7313272953033 1.2473669052124 0.5739662051201
0.7033838033676 1.2506763935089 0.6362532973289
0.6740400195122 1.2539753913879 0.6919627189636
0.6430768370628 1.2572640180588 0.7427484393120
0.6102120280266 1.2605423927307 0.7896741032600
0.5750718712807 1.2638105154037 0.8334707021713
0.5371441841125 1.2670685052872 0.8746655583382
0.4956927597523 1.2703166007996 0.9136542677879
0.4495942294598 1.2735546827316 0.9507418870926
0.3969753086567 1.2767828702927 0.9861695766449
0.3342543244362 1.2800012826920 1.0201321840286
0.2526330947876 1.2832101583481 1.0527893304825
0.1062162518501 1.2864092588425 1.0842736959457
0.7373918294907 1.2993161678314 0.4948707818985
0.7097357511520 1.3024679422379 0.5676790475845
0.6807217001915 1.3056105375290 0.6307047009468
0.6501418352127 1.3087441921234 0.6869502663612
0.6177300810814 1.3118687868118 0.7381472587585
0.5831364393234 1.3149845600128 0.7854010462761
0.5458849072456 1.3180913925171 0.8294671177864
0.5053001046181 1.3211895227432 0.8708882927895
0.4603661298752 1.3242789506912 0.9100704789162
0.4094276428223 1.3273597955704 0.9473258256912
0.3494347631931 1.3304319381714 0.9829007983208
0.2734232246876 1.3334957361221 1.0169941186905
0.1544380933046 1.3365510702133 1.0497679710388
-0.0248501300812 1.3395980596542 1.0813577175140
0.7160202860832 1.3518986701965 0.4873398542404
0.6873256564140 1.3549042940140 0.5613071322441
0.6571160554886 1.3579018115997 0.6250969767570
0.6251400113106 1.3608915805817 0.6818935275078
0.5910693407059 1.3638734817505 0.7335114479065
0.5544610619545 1.3668475151062 0.7811000347137
0.5146931409836 1.3698137998581 0.8254402875900
0.4708439111710 1.3727723360062 0.8670913577080
0.4214415550232 1.3757233619690 0.9064697027206
0.3638622760773 1.3786667585373 0.9438949823380
0.2924702465534 1.3816026449203 0.9796189665794
0.1890949755907 1.3845311403275 1.0138442516327
-0.0156390666962 1.3874520063400 1.0467361211777
-0.0569049119949 1.3903657197952 1.0784322023392
0.6938543319702 1.4021344184875 0.4796666204929
0.6640024185181 1.4050116539001 0.5548472404480
0.6324459314346 1.4078817367554 0.6194282174110
0.5988763570786 1.4107447862625 0.6767913699150
0.5628807544708 1.4136009216309 0.7288402318954
0.5238848328590 1.4164501428604 0.7767702937126
0.4810488224030 1.4192925691605 0.8213897347450
0.4330578148365 1.4221280813217 0.8632742762566
0.3776338994503 1.4249569177628 0.9028515815735
0.3101332485676 1.4277789592743 0.9404490590096
0.2174185961485 1.4305943250656 0.9763239026070
-0.0064280033112 1.4334030151367 1.0106825828552
-0.0476939678192 1.4362051486969 1.0436937808990
-0.0889598131180 1.4390008449554 1.0754971504211
0.6708042025566 1.4502980709076 0.4718431532383
0.6396520137787 1.4530612230301 0.5482957959175
0.6065632104874 1.4558180570602 0.6136964559555
0.5711520314217 1.4585686922073 0.6716426610947
0.5328869819641 1.4613130092621 0.7241327762604
0.4910005331039 1.4640511274338 0.7724114656448
0.4443115890026 1.4667832851410 0.8173150420189
0.3908278048038 1.4695092439651 0.8594368696213
0.3266646862030 1.4722291231155 0.8992160558701
0.2418839931488 1.4749430418015 0.9369879961014
0.0689324215055 1.4776508808136 0.9730154275894
-0.0384828448296 1.4803529977798 1.0075091123581
-0.0797488093376 1.4830490350723 1.0406407117844
-0.1210146546364 1.4857392311096 1.0725524425507
0.6467620134354 1.4966146945953 0.4638608694077
0.6141349077225 1.4992756843567 0.5416490435600
0.5792819857597 1.5019310712814 0.6078997254372
0.5417101383209 1.5045808553696 0.6664461493492
0.5007158517838 1.5072250366211 0.7193883061409
0.4552334249020 1.5098636150360 0.7680228948593
0.4035075902939 1.5124967098236 0.8132158517838
0.3422484695911 1.5151243209839 0.8555787205696
0.2636887729168 1.5177464485168 0.8955627679825
0.1339071691036 1.5203630924225 0.9335114359856
-0.0292717218399 1.5229744911194 0.9696933627129
-0.0705376863480 1.5255804061890 1.0043236017227
-0.1118036508560 1.5281810760498 1.0375769138336
-0.1530694961548 1.5307763814926 1.0695980787277
1.0105381011963 0.5307939052582 0.5600661635399
0.9918072223663 0.5399405360222 0.6240067481995
0.9726420044899 0.5489048957825 0.6809114217758
0.9530125260353 0.5576969385147 0.7326118946075
0.9328854680061 0.5663257241249 0.7802658677101
0.9122232794762 0.5747995376587 0.8246595859528
0.8909835815430 0.5831260681152 0.8663555979729
0.8691182136536 0.5913122892380 0.9057720899582
0.8465719223022 0.5993646979332 0.9432304501534
0.8232809305191 0.6072893738747 0.9789835214615
0.7991710901260 0.6150918006897 1.0132343769073
0.7741550803185 0.6227772831917 1.0461492538452
0.7481291890144 0.6303505897522 1.0778659582138
0.7209687232971 0.6378162503242 1.1085004806519
0.9960249066353 0.6671385765076 0.5535888671875
0.9769591093063 0.6741187572479 0.6183259487152
0.9574360251427 0.6810132265091 0.6758003830910
0.9374231100082 0.6878249645233 0.7279337644577
0.9168838262558 0.6945567131042 0.7759305834770
0.8957770466805 0.7012110352516 0.8206044435501
0.8740558028221 0.7077904343605 0.8625346422195
0.8516667485237 0.7142972350121 0.9021506905556
0.8285480141640 0.7207337021828 0.9397816658020
0.8046279549599 0.7271019220352 0.9756858944893
0.7798225879669 0.7334038615227 1.0100704431534
0.7540321350098 0.7396414875984 1.0431048870087
0.7271369695663 0.7458167076111 1.0749291181564
0.6989915966988 0.7519310712814 1.1056609153748
0.9812533855438 0.7761930227280 0.5470193624496
0.9618350267410 0.7820237874985 0.6125817894936
0.9419344663620 0.7878028750420 0.6706424951553
0.9215160608292 0.7935315370560 0.7232192158699
0.9005398154259 0.7992109656334 0.7715660333633
0.8789601325989 0.8048423528671 0.8165250420570
0.8567251563072 0.8104268908501 0.8586932420731
0.8337751626968 0.8159655928612 0.8985117077827
0.8100407719612 0.8214595913887 0.9363175630569
0.7854409813881 0.8269097805023 0.9723747968674
0.7598800659180 0.8323172926903 1.0068947076797
0.7332430481911 0.8376829028130 1.0400496721268
0.7053909301758 0.8430076241493 1.0719825029373
0.6761521697044 0.8482922315598 1.1028126478195
0.9662101268768 0.8693782091141 0.5403537154198
0.9464201331139 0.8744723200798 0.6067723035812
0.9261206388474 0.8795310854912 0.6654366254807
0.9052726030350 0.8845551609993 0.7184674739838
0.8838319182396 0.8895452022552 0.7671716809273
0.8617480993271 0.8945019245148 0.8124210238457
0.8389632701874 0.8994258642197 0.8548310995102
0.8154106140137 0.9043176770210 0.8948550224304
0.7910117506981 0.9091779589653 0.9328380823135
0.7656744718552 0.9140072464943 0.9690501093864
0.7392888069153 0.9188061356544 1.0037066936493
0.7117215394974 0.9235751032829 1.0369837284088
0.6828091144562 0.9283146858215 1.0690261125565
0.6523472666740 0.9330254197121 1.0999554395676
0.9508803486824 0.9518865942955 0.5335879325867
0.9306977987289 0.9564584493637 0.6008952856064
0.9099758267403 0.9610041975975 0.6601813435555
0.8886715769768 0.9655243158340 0.7136777639389
0.8667359948158 0.9700192213058 0.7627468705177
0.8441131711006 0.9744892120361 0.8082920312881
0.8207381963730 0.9789347648621 0.8509479165077
0.7965356707573 0.9833561778069 0.8911802172661
0.7714167237282 0.9877539277077 0.9293428659439
0.7452756762505 0.9921282529831 0.9657116532326
0.7179851531982 0.9964795708656 1.0005067586899
0.6893890500069 1.0008082389832 1.0339069366455
0.6592933535576 1.0051145553589 1.0660600662231
0.6274511814117 1.0093986988068 1.0970894098282
0.9352481365204 1.0265933275223 0.5267176628113
0.9146500825882 1.0307706594467 0.5949484705925
0.8934798240662 1.0349278450012 0.6548754572868
0.8716897368431 1.0390651226044 0.7088491916656
0.8492255806923 1.0431827306747 0.7582910656929
0.8260246515274 1.0472809076309 0.8041375279427
0.8020139932632 1.0513598918915 0.8470433950424
0.7771081924438 1.0554199218750 0.8874872326851
0.7512054443359 1.0594613552094 0.9258318543434
0.7241837978363 1.0634844303131 0.9623593688011
0.6958944797516 1.0674892663956 0.9972942471504
0.6661527752876 1.0714762210846 1.0308190584183
0.6347251534462 1.0754454135895 1.0630838871002
0.6013091206551 1.0793970823288 1.0942143201828
0.9192959666252 1.0952843427658 0.5197380781174
0.8982572555542 1.0991506576538 0.5889294743538
0.8766099810600 1.1030006408691 0.6495174169540
0.8543013930321 1.1068346500397 0.7039807438850
0.8312708735466 1.1106526851654 0.7538036108017
0.8074479103088 1.1144551038742 0.7999570965767
0.7827500104904 1.1182420253754 0.8431171178818
0.7570796608925 1.1220135688782 0.8837756514549
0.7303196191788 1.1257699728012 0.9223048090935
0.7023277878761 1.1295114755630 0.9589929580688
0.6729285717010 1.1332380771637 0.9940693974495
0.6419006586075 1.1369501352310 1.0277200937271
0.6089591979980 1.1406476497650 1.0600976943970
0.5737265348434 1.1443307399750 1.0913301706314
0.9030044674873 1.1591577529907 0.5126441717148
0.8814973235130 1.1627707481384 0.5828356742859
