graphics/cube/XYZ_int-D65_2deg-MAT_825.cube
TITLE "QA_XYZ_int-D65_2deg-MAT_825"
# Copyright (c) 2026 @xsscx David H Hoyt LLC
# https://xss.cx
# Profiles applied (by profile description):
# - Level 1 XYZ colorimetric PCC profile using D65 illuminant with Standard 2deg observer using Wpt based MAT
LUT_3D_SIZE 21
LUT_3D_INPUT_RANGE 0.12840000 0.82880002
0.12840000 0.12840000 0.12840000
0.12840000 0.12840000 0.16341999
0.12840000 0.12840000 0.19844000
0.12840000 0.12840000 0.23346001
0.12840000 0.12840000 0.26848000
0.12840000 0.12840000 0.30350000
0.12840000 0.12840000 0.33851999
0.12840000 0.12840000 0.37353998
0.12840000 0.12840000 0.40856001
0.12840000 0.12840000 0.44358000
0.12840000 0.12840000 0.47860000
0.12840000 0.12840000 0.51362002
0.12840000 0.12840000 0.54864001
0.12840000 0.12840000 0.58366001
0.12840000 0.12840000 0.61868000
0.12840000 0.12840000 0.65369999
0.12840000 0.12840000 0.68871999
0.12840000 0.12840000 0.72373998
0.12840000 0.12840000 0.75875998
0.12840000 0.12840000 0.79377997
0.12840000 0.12840000 0.82879996
0.12840000 0.16341999 0.12840000
0.12840000 0.16341999 0.16341999
0.12840000 0.16341999 0.19844000
0.12840000 0.16341999 0.23346001
0.12840000 0.16341999 0.26848000
0.12840000 0.16341999 0.30350000
0.12840000 0.16341999 0.33851999
0.12840000 0.16341999 0.37353998
0.12840000 0.16341999 0.40856001
0.12840000 0.16341999 0.44358000
0.12840000 0.16341999 0.47860000
0.12840000 0.16341999 0.51362002
0.12840000 0.16341999 0.54864001
0.12840000 0.16341999 0.58366001
0.12840000 0.16341999 0.61868000
0.12840000 0.16341999 0.65369999
0.12840000 0.16341999 0.68871999
0.12840000 0.16341999 0.72373998
0.12840000 0.16341999 0.75875998
0.12840000 0.16341999 0.79377997
0.12840000 0.16341999 0.82879996
0.12840000 0.19844000 0.12840000
0.12840000 0.19844000 0.16341999
0.12840000 0.19844000 0.19844000
0.12840000 0.19844000 0.23346001
0.12840000 0.19844000 0.26848000
0.12840000 0.19844000 0.30350000
0.12840000 0.19844000 0.33851999
0.12840000 0.19844000 0.37353998
0.12840000 0.19844000 0.40856001
0.12840000 0.19844000 0.44358000
0.12840000 0.19844000 0.47860000
0.12840000 0.19844000 0.51362002
0.12840000 0.19844000 0.54864001
0.12840000 0.19844000 0.58366001
0.12840000 0.19844000 0.61868000
0.12840000 0.19844000 0.65369999
0.12840000 0.19844000 0.68871999
0.12840000 0.19844000 0.72373998
0.12840000 0.19844000 0.75875998
0.12840000 0.19844000 0.79377997
0.12840000 0.19844000 0.82879996
0.12840000 0.23346001 0.12840000
0.12840000 0.23346001 0.16341999
0.12840000 0.23346001 0.19844000
0.12840000 0.23346001 0.23346001
0.12840000 0.23346001 0.26848000
0.12840000 0.23346001 0.30350000
0.12840000 0.23346001 0.33851999
0.12840000 0.23346001 0.37353998
0.12840000 0.23346001 0.40856001
0.12840000 0.23346001 0.44358000
0.12840000 0.23346001 0.47860000
0.12840000 0.23346001 0.51362002
0.12840000 0.23346001 0.54864001
0.12840000 0.23346001 0.58366001
0.12840000 0.23346001 0.61868000
0.12840000 0.23346001 0.65369999
0.12840000 0.23346001 0.68871999
0.12840000 0.23346001 0.72373998
0.12840000 0.23346001 0.75875998
0.12840000 0.23346001 0.79377997
0.12840000 0.23346001 0.82879996
0.12840000 0.26848000 0.12840000
0.12840000 0.26848000 0.16341999
0.12840000 0.26848000 0.19844000
0.12840000 0.26848000 0.23346001
0.12840000 0.26848000 0.26848000
0.12840000 0.26848000 0.30350000
0.12840000 0.26848000 0.33851999
0.12840000 0.26848000 0.37353998
0.12840000 0.26848000 0.40856001
0.12840000 0.26848000 0.44358000
0.12840000 0.26848000 0.47860000
0.12840000 0.26848000 0.51362002
0.12840000 0.26848000 0.54864001
0.12840000 0.26848000 0.58366001
0.12840000 0.26848000 0.61868000
0.12840000 0.26848000 0.65369999
0.12840000 0.26848000 0.68871999
0.12840000 0.26848000 0.72373998
0.12840000 0.26848000 0.75875998
0.12840000 0.26848000 0.79377997
0.12840000 0.26848000 0.82879996
0.12840000 0.30350000 0.12840000
0.12840000 0.30350000 0.16341999
0.12840000 0.30350000 0.19844000
0.12840000 0.30350000 0.23346001
0.12840000 0.30350000 0.26848000
0.12840000 0.30350000 0.30350000
0.12840000 0.30350000 0.33851999
0.12840000 0.30350000 0.37353998
0.12840000 0.30350000 0.40856001
0.12840000 0.30350000 0.44358000
0.12840000 0.30350000 0.47860000
0.12840000 0.30350000 0.51362002
0.12840000 0.30350000 0.54864001
0.12840000 0.30350000 0.58366001
0.12840000 0.30350000 0.61868000
0.12840000 0.30350000 0.65369999
0.12840000 0.30350000 0.68871999
0.12840000 0.30350000 0.72373998
0.12840000 0.30350000 0.75875998
0.12840000 0.30350000 0.79377997
0.12840000 0.30350000 0.82879996
0.12840000 0.33851999 0.12840000
0.12840000 0.33851999 0.16341999
0.12840000 0.33851999 0.19844000
0.12840000 0.33851999 0.23346001
0.12840000 0.33851999 0.26848000
0.12840000 0.33851999 0.30350000
0.12840000 0.33851999 0.33851999
0.12840000 0.33851999 0.37353998
0.12840000 0.33851999 0.40856001
0.12840000 0.33851999 0.44358000
0.12840000 0.33851999 0.47860000
0.12840000 0.33851999 0.51362002
0.12840000 0.33851999 0.54864001
0.12840000 0.33851999 0.58366001
0.12840000 0.33851999 0.61868000
0.12840000 0.33851999 0.65369999
0.12840000 0.33851999 0.68871999
0.12840000 0.33851999 0.72373998
0.12840000 0.33851999 0.75875998
0.12840000 0.33851999 0.79377997
0.12840000 0.33851999 0.82879996
0.12840000 0.37353998 0.12840000
0.12840000 0.37353998 0.16341999
0.12840000 0.37353998 0.19844000
0.12840000 0.37353998 0.23346001
0.12840000 0.37353998 0.26848000
0.12840000 0.37353998 0.30350000
0.12840000 0.37353998 0.33851999
0.12840000 0.37353998 0.37353998
0.12840000 0.37353998 0.40856001
0.12840000 0.37353998 0.44358000
0.12840000 0.37353998 0.47860000
0.12840000 0.37353998 0.51362002
0.12840000 0.37353998 0.54864001
0.12840000 0.37353998 0.58366001
0.12840000 0.37353998 0.61868000
0.12840000 0.37353998 0.65369999
0.12840000 0.37353998 0.68871999
0.12840000 0.37353998 0.72373998
0.12840000 0.37353998 0.75875998
0.12840000 0.37353998 0.79377997
0.12840000 0.37353998 0.82879996
0.12840000 0.40856001 0.12840000
0.12840000 0.40856001 0.16341999
0.12840000 0.40856001 0.19844000
0.12840000 0.40856001 0.23346001
0.12840000 0.40856001 0.26848000
0.12840000 0.40856001 0.30350000
0.12840000 0.40856001 0.33851999
0.12840000 0.40856001 0.37353998
0.12840000 0.40856001 0.40856001
0.12840000 0.40856001 0.44358000
0.12840000 0.40856001 0.47860000
0.12840000 0.40856001 0.51362002
0.12840000 0.40856001 0.54864001
0.12840000 0.40856001 0.58366001
0.12840000 0.40856001 0.61868000
0.12840000 0.40856001 0.65369999
0.12840000 0.40856001 0.68871999
0.12840000 0.40856001 0.72373998
0.12840000 0.40856001 0.75875998
0.12840000 0.40856001 0.79377997
0.12840000 0.40856001 0.82879996
0.12840000 0.44358000 0.12840000
0.12840000 0.44358000 0.16341999
0.12840000 0.44358000 0.19844000
0.12840000 0.44358000 0.23346001
0.12840000 0.44358000 0.26848000
0.12840000 0.44358000 0.30350000
0.12840000 0.44358000 0.33851999
0.12840000 0.44358000 0.37353998
0.12840000 0.44358000 0.40856001
0.12840000 0.44358000 0.44358000
0.12840000 0.44358000 0.47860000
0.12840000 0.44358000 0.51362002
0.12840000 0.44358000 0.54864001
0.12840000 0.44358000 0.58366001
0.12840000 0.44358000 0.61868000
0.12840000 0.44358000 0.65369999
0.12840000 0.44358000 0.68871999
0.12840000 0.44358000 0.72373998
0.12840000 0.44358000 0.75875998
0.12840000 0.44358000 0.79377997
0.12840000 0.44358000 0.82879996
0.12840000 0.47860000 0.12840000
0.12840000 0.47860000 0.16341999
0.12840000 0.47860000 0.19844000
0.12840000 0.47860000 0.23346001
0.12840000 0.47860000 0.26848000
0.12840000 0.47860000 0.30350000
0.12840000 0.47860000 0.33851999
0.12840000 0.47860000 0.37353998
0.12840000 0.47860000 0.40856001
0.12840000 0.47860000 0.44358000
0.12840000 0.47860000 0.47860000
0.12840000 0.47860000 0.51362002
0.12840000 0.47860000 0.54864001
0.12840000 0.47860000 0.58366001
0.12840000 0.47860000 0.61868000
0.12840000 0.47860000 0.65369999
0.12840000 0.47860000 0.68871999
0.12840000 0.47860000 0.72373998
0.12840000 0.47860000 0.75875998
0.12840000 0.47860000 0.79377997
0.12840000 0.47860000 0.82879996
0.12840000 0.51362002 0.12840000
0.12840000 0.51362002 0.16341999
0.12840000 0.51362002 0.19844000
0.12840000 0.51362002 0.23346001
0.12840000 0.51362002 0.26848000
0.12840000 0.51362002 0.30350000
0.12840000 0.51362002 0.33851999
0.12840000 0.51362002 0.37353998
0.12840000 0.51362002 0.40856001
0.12840000 0.51362002 0.44358000
0.12840000 0.51362002 0.47860000
0.12840000 0.51362002 0.51362002
0.12840000 0.51362002 0.54864001
0.12840000 0.51362002 0.58366001
0.12840000 0.51362002 0.61868000
0.12840000 0.51362002 0.65369999
0.12840000 0.51362002 0.68871999
0.12840000 0.51362002 0.72373998
0.12840000 0.51362002 0.75875998
0.12840000 0.51362002 0.79377997
0.12840000 0.51362002 0.82879996
0.12840000 0.54864001 0.12840000
0.12840000 0.54864001 0.16341999
0.12840000 0.54864001 0.19844000
0.12840000 0.54864001 0.23346001
0.12840000 0.54864001 0.26848000
0.12840000 0.54864001 0.30350000
0.12840000 0.54864001 0.33851999
0.12840000 0.54864001 0.37353998
0.12840000 0.54864001 0.40856001
0.12840000 0.54864001 0.44358000
0.12840000 0.54864001 0.47860000
0.12840000 0.54864001 0.51362002
0.12840000 0.54864001 0.54864001
0.12840000 0.54864001 0.58366001
0.12840000 0.54864001 0.61868000
0.12840000 0.54864001 0.65369999
0.12840000 0.54864001 0.68871999
0.12840000 0.54864001 0.72373998
0.12840000 0.54864001 0.75875998
0.12840000 0.54864001 0.79377997
0.12840000 0.54864001 0.82879996
0.12840000 0.58366001 0.12840000
0.12840000 0.58366001 0.16341999
0.12840000 0.58366001 0.19844000
0.12840000 0.58366001 0.23346001
0.12840000 0.58366001 0.26848000
0.12840000 0.58366001 0.30350000
0.12840000 0.58366001 0.33851999
0.12840000 0.58366001 0.37353998
0.12840000 0.58366001 0.40856001
0.12840000 0.58366001 0.44358000
0.12840000 0.58366001 0.47860000
0.12840000 0.58366001 0.51362002
0.12840000 0.58366001 0.54864001
0.12840000 0.58366001 0.58366001
0.12840000 0.58366001 0.61868000
0.12840000 0.58366001 0.65369999
0.12840000 0.58366001 0.68871999
0.12840000 0.58366001 0.72373998
0.12840000 0.58366001 0.75875998
0.12840000 0.58366001 0.79377997
0.12840000 0.58366001 0.82879996
0.12840000 0.61868000 0.12840000
0.12840000 0.61868000 0.16341999
0.12840000 0.61868000 0.19844000
0.12840000 0.61868000 0.23346001
0.12840000 0.61868000 0.26848000
0.12840000 0.61868000 0.30350000
0.12840000 0.61868000 0.33851999
0.12840000 0.61868000 0.37353998
0.12840000 0.61868000 0.40856001
0.12840000 0.61868000 0.44358000
0.12840000 0.61868000 0.47860000
0.12840000 0.61868000 0.51362002
0.12840000 0.61868000 0.54864001
0.12840000 0.61868000 0.58366001
0.12840000 0.61868000 0.61868000
0.12840000 0.61868000 0.65369999
0.12840000 0.61868000 0.68871999
0.12840000 0.61868000 0.72373998
0.12840000 0.61868000 0.75875998
0.12840000 0.61868000 0.79377997
0.12840000 0.61868000 0.82879996
0.12840000 0.65369999 0.12840000
0.12840000 0.65369999 0.16341999
0.12840000 0.65369999 0.19844000
0.12840000 0.65369999 0.23346001
0.12840000 0.65369999 0.26848000
0.12840000 0.65369999 0.30350000
0.12840000 0.65369999 0.33851999
0.12840000 0.65369999 0.37353998
0.12840000 0.65369999 0.40856001
0.12840000 0.65369999 0.44358000
0.12840000 0.65369999 0.47860000
0.12840000 0.65369999 0.51362002
0.12840000 0.65369999 0.54864001
0.12840000 0.65369999 0.58366001
0.12840000 0.65369999 0.61868000
0.12840000 0.65369999 0.65369999
0.12840000 0.65369999 0.68871999
0.12840000 0.65369999 0.72373998
0.12840000 0.65369999 0.75875998
0.12840000 0.65369999 0.79377997
0.12840000 0.65369999 0.82879996
0.12840000 0.68871999 0.12840000
0.12840000 0.68871999 0.16341999
0.12840000 0.68871999 0.19844000
0.12840000 0.68871999 0.23346001
0.12840000 0.68871999 0.26848000
0.12840000 0.68871999 0.30350000
0.12840000 0.68871999 0.33851999
0.12840000 0.68871999 0.37353998
0.12840000 0.68871999 0.40856001
0.12840000 0.68871999 0.44358000
0.12840000 0.68871999 0.47860000
0.12840000 0.68871999 0.51362002
0.12840000 0.68871999 0.54864001
0.12840000 0.68871999 0.58366001
0.12840000 0.68871999 0.61868000
0.12840000 0.68871999 0.65369999
0.12840000 0.68871999 0.68871999
0.12840000 0.68871999 0.72373998
0.12840000 0.68871999 0.75875998
0.12840000 0.68871999 0.79377997
0.12840000 0.68871999 0.82879996
0.12840000 0.72373998 0.12840000
0.12840000 0.72373998 0.16341999
0.12840000 0.72373998 0.19844000
0.12840000 0.72373998 0.23346001
0.12840000 0.72373998 0.26848000
0.12840000 0.72373998 0.30350000
0.12840000 0.72373998 0.33851999
0.12840000 0.72373998 0.37353998
0.12840000 0.72373998 0.40856001
0.12840000 0.72373998 0.44358000
0.12840000 0.72373998 0.47860000
0.12840000 0.72373998 0.51362002
0.12840000 0.72373998 0.54864001
0.12840000 0.72373998 0.58366001
0.12840000 0.72373998 0.61868000
0.12840000 0.72373998 0.65369999
0.12840000 0.72373998 0.68871999
0.12840000 0.72373998 0.72373998
0.12840000 0.72373998 0.75875998
0.12840000 0.72373998 0.79377997
0.12840000 0.72373998 0.82879996
0.12840000 0.75875998 0.12840000
0.12840000 0.75875998 0.16341999
0.12840000 0.75875998 0.19844000
0.12840000 0.75875998 0.23346001
0.12840000 0.75875998 0.26848000
0.12840000 0.75875998 0.30350000
0.12840000 0.75875998 0.33851999
0.12840000 0.75875998 0.37353998
0.12840000 0.75875998 0.40856001
0.12840000 0.75875998 0.44358000
0.12840000 0.75875998 0.47860000
0.12840000 0.75875998 0.51362002
0.12840000 0.75875998 0.54864001
0.12840000 0.75875998 0.58366001
0.12840000 0.75875998 0.61868000
0.12840000 0.75875998 0.65369999
0.12840000 0.75875998 0.68871999
0.12840000 0.75875998 0.72373998
0.12840000 0.75875998 0.75875998
0.12840000 0.75875998 0.79377997
0.12840000 0.75875998 0.82879996
0.12840000 0.79377997 0.12840000
0.12840000 0.79377997 0.16341999
0.12840000 0.79377997 0.19844000
0.12840000 0.79377997 0.23346001
0.12840000 0.79377997 0.26848000
0.12840000 0.79377997 0.30350000
0.12840000 0.79377997 0.33851999
0.12840000 0.79377997 0.37353998
0.12840000 0.79377997 0.40856001
0.12840000 0.79377997 0.44358000
0.12840000 0.79377997 0.47860000
0.12840000 0.79377997 0.51362002
0.12840000 0.79377997 0.54864001
0.12840000 0.79377997 0.58366001
0.12840000 0.79377997 0.61868000
0.12840000 0.79377997 0.65369999
0.12840000 0.79377997 0.68871999
0.12840000 0.79377997 0.72373998
0.12840000 0.79377997 0.75875998
0.12840000 0.79377997 0.79377997
0.12840000 0.79377997 0.82879996
0.12840000 0.82879996 0.12840000
0.12840000 0.82879996 0.16341999
0.12840000 0.82879996 0.19844000
0.12840000 0.82879996 0.23346001
0.12840000 0.82879996 0.26848000
0.12840000 0.82879996 0.30350000
0.12840000 0.82879996 0.33851999
0.12840000 0.82879996 0.37353998
0.12840000 0.82879996 0.40856001
0.12840000 0.82879996 0.44358000
0.12840000 0.82879996 0.47860000
0.12840000 0.82879996 0.51362002
0.12840000 0.82879996 0.54864001
0.12840000 0.82879996 0.58366001
0.12840000 0.82879996 0.61868000
0.12840000 0.82879996 0.65369999
0.12840000 0.82879996 0.68871999
0.12840000 0.82879996 0.72373998
0.12840000 0.82879996 0.75875998
0.12840000 0.82879996 0.79377997
0.12840000 0.82879996 0.82879996
0.16341999 0.12840000 0.12840000
0.16341999 0.12840000 0.16341999
0.16341999 0.12840000 0.19844000
0.16341999 0.12840000 0.23346001
0.16341999 0.12840000 0.26848000
0.16341999 0.12840000 0.30350000
0.16341999 0.12840000 0.33851999
0.16341999 0.12840000 0.37353998
0.16341999 0.12840000 0.40856001
0.16341999 0.12840000 0.44358000
0.16341999 0.12840000 0.47860000
0.16341999 0.12840000 0.51362002
0.16341999 0.12840000 0.54864001
0.16341999 0.12840000 0.58366001
0.16341999 0.12840000 0.61868000
0.16341999 0.12840000 0.65369999
0.16341999 0.12840000 0.68871999
0.16341999 0.12840000 0.72373998
0.16341999 0.12840000 0.75875998
0.16341999 0.12840000 0.79377997
0.16341999 0.12840000 0.82879996
0.16341999 0.16341999 0.12840000
0.16341999 0.16341999 0.16341999
0.16341999 0.16341999 0.19844000
0.16341999 0.16341999 0.23346001
0.16341999 0.16341999 0.26848000
0.16341999 0.16341999 0.30350000
0.16341999 0.16341999 0.33851999
0.16341999 0.16341999 0.37353998
0.16341999 0.16341999 0.40856001
0.16341999 0.16341999 0.44358000
0.16341999 0.16341999 0.47860000
0.16341999 0.16341999 0.51362002
0.16341999 0.16341999 0.54864001
0.16341999 0.16341999 0.58366001
0.16341999 0.16341999 0.61868000
0.16341999 0.16341999 0.65369999
0.16341999 0.16341999 0.68871999
0.16341999 0.16341999 0.72373998
0.16341999 0.16341999 0.75875998
0.16341999 0.16341999 0.79377997
0.16341999 0.16341999 0.82879996
0.16341999 0.19844000 0.12840000
0.16341999 0.19844000 0.16341999
0.16341999 0.19844000 0.19844000
0.16341999 0.19844000 0.23346001
0.16341999 0.19844000 0.26848000
0.16341999 0.19844000 0.30350000
0.16341999 0.19844000 0.33851999
0.16341999 0.19844000 0.37353998
0.16341999 0.19844000 0.40856001
0.16341999 0.19844000 0.44358000
0.16341999 0.19844000 0.47860000
0.16341999 0.19844000 0.51362002
0.16341999 0.19844000 0.54864001
0.16341999 0.19844000 0.58366001
0.16341999 0.19844000 0.61868000
0.16341999 0.19844000 0.65369999
0.16341999 0.19844000 0.68871999
0.16341999 0.19844000 0.72373998
0.16341999 0.19844000 0.75875998
0.16341999 0.19844000 0.79377997
0.16341999 0.19844000 0.82879996
0.16341999 0.23346001 0.12840000
0.16341999 0.23346001 0.16341999
0.16341999 0.23346001 0.19844000
0.16341999 0.23346001 0.23346001
0.16341999 0.23346001 0.26848000
0.16341999 0.23346001 0.30350000
0.16341999 0.23346001 0.33851999
0.16341999 0.23346001 0.37353998
0.16341999 0.23346001 0.40856001
0.16341999 0.23346001 0.44358000
0.16341999 0.23346001 0.47860000
0.16341999 0.23346001 0.51362002
0.16341999 0.23346001 0.54864001
0.16341999 0.23346001 0.58366001
0.16341999 0.23346001 0.61868000
0.16341999 0.23346001 0.65369999
0.16341999 0.23346001 0.68871999
0.16341999 0.23346001 0.72373998
0.16341999 0.23346001 0.75875998
0.16341999 0.23346001 0.79377997
0.16341999 0.23346001 0.82879996
0.16341999 0.26848000 0.12840000
0.16341999 0.26848000 0.16341999
0.16341999 0.26848000 0.19844000
0.16341999 0.26848000 0.23346001
0.16341999 0.26848000 0.26848000
0.16341999 0.26848000 0.30350000
0.16341999 0.26848000 0.33851999
0.16341999 0.26848000 0.37353998
0.16341999 0.26848000 0.40856001
0.16341999 0.26848000 0.44358000
0.16341999 0.26848000 0.47860000
0.16341999 0.26848000 0.51362002
0.16341999 0.26848000 0.54864001
0.16341999 0.26848000 0.58366001
0.16341999 0.26848000 0.61868000
0.16341999 0.26848000 0.65369999
0.16341999 0.26848000 0.68871999
0.16341999 0.26848000 0.72373998
0.16341999 0.26848000 0.75875998
0.16341999 0.26848000 0.79377997
0.16341999 0.26848000 0.82879996
0.16341999 0.30350000 0.12840000
0.16341999 0.30350000 0.16341999
0.16341999 0.30350000 0.19844000
0.16341999 0.30350000 0.23346001
0.16341999 0.30350000 0.26848000
0.16341999 0.30350000 0.30350000
0.16341999 0.30350000 0.33851999
0.16341999 0.30350000 0.37353998
0.16341999 0.30350000 0.40856001
0.16341999 0.30350000 0.44358000
0.16341999 0.30350000 0.47860000
0.16341999 0.30350000 0.51362002
0.16341999 0.30350000 0.54864001
0.16341999 0.30350000 0.58366001
0.16341999 0.30350000 0.61868000
0.16341999 0.30350000 0.65369999
0.16341999 0.30350000 0.68871999
0.16341999 0.30350000 0.72373998
0.16341999 0.30350000 0.75875998
0.16341999 0.30350000 0.79377997
0.16341999 0.30350000 0.82879996
0.16341999 0.33851999 0.12840000
0.16341999 0.33851999 0.16341999
0.16341999 0.33851999 0.19844000
0.16341999 0.33851999 0.23346001
0.16341999 0.33851999 0.26848000
0.16341999 0.33851999 0.30350000
0.16341999 0.33851999 0.33851999
0.16341999 0.33851999 0.37353998
0.16341999 0.33851999 0.40856001
0.16341999 0.33851999 0.44358000
0.16341999 0.33851999 0.47860000
0.16341999 0.33851999 0.51362002
0.16341999 0.33851999 0.54864001
0.16341999 0.33851999 0.58366001
0.16341999 0.33851999 0.61868000
0.16341999 0.33851999 0.65369999
0.16341999 0.33851999 0.68871999
0.16341999 0.33851999 0.72373998
0.16341999 0.33851999 0.75875998
0.16341999 0.33851999 0.79377997
0.16341999 0.33851999 0.82879996
0.16341999 0.37353998 0.12840000
0.16341999 0.37353998 0.16341999
0.16341999 0.37353998 0.19844000
0.16341999 0.37353998 0.23346001
0.16341999 0.37353998 0.26848000
0.16341999 0.37353998 0.30350000
0.16341999 0.37353998 0.33851999
0.16341999 0.37353998 0.37353998
0.16341999 0.37353998 0.40856001
0.16341999 0.37353998 0.44358000
0.16341999 0.37353998 0.47860000
0.16341999 0.37353998 0.51362002
0.16341999 0.37353998 0.54864001
0.16341999 0.37353998 0.58366001
0.16341999 0.37353998 0.61868000
0.16341999 0.37353998 0.65369999
0.16341999 0.37353998 0.68871999
0.16341999 0.37353998 0.72373998
0.16341999 0.37353998 0.75875998
0.16341999 0.37353998 0.79377997
0.16341999 0.37353998 0.82879996
0.16341999 0.40856001 0.12840000
0.16341999 0.40856001 0.16341999
0.16341999 0.40856001 0.19844000
0.16341999 0.40856001 0.23346001
0.16341999 0.40856001 0.26848000
0.16341999 0.40856001 0.30350000
0.16341999 0.40856001 0.33851999
0.16341999 0.40856001 0.37353998
0.16341999 0.40856001 0.40856001
0.16341999 0.40856001 0.44358000
0.16341999 0.40856001 0.47860000
0.16341999 0.40856001 0.51362002
0.16341999 0.40856001 0.54864001
0.16341999 0.40856001 0.58366001
0.16341999 0.40856001 0.61868000
0.16341999 0.40856001 0.65369999
0.16341999 0.40856001 0.68871999
0.16341999 0.40856001 0.72373998
0.16341999 0.40856001 0.75875998
0.16341999 0.40856001 0.79377997
0.16341999 0.40856001 0.82879996
0.16341999 0.44358000 0.12840000
0.16341999 0.44358000 0.16341999
0.16341999 0.44358000 0.19844000
0.16341999 0.44358000 0.23346001
0.16341999 0.44358000 0.26848000
0.16341999 0.44358000 0.30350000
0.16341999 0.44358000 0.33851999
0.16341999 0.44358000 0.37353998
0.16341999 0.44358000 0.40856001
0.16341999 0.44358000 0.44358000
0.16341999 0.44358000 0.47860000
0.16341999 0.44358000 0.51362002
0.16341999 0.44358000 0.54864001
0.16341999 0.44358000 0.58366001
0.16341999 0.44358000 0.61868000
0.16341999 0.44358000 0.65369999
0.16341999 0.44358000 0.68871999
0.16341999 0.44358000 0.72373998
0.16341999 0.44358000 0.75875998
0.16341999 0.44358000 0.79377997
0.16341999 0.44358000 0.82879996
0.16341999 0.47860000 0.12840000
0.16341999 0.47860000 0.16341999
0.16341999 0.47860000 0.19844000
0.16341999 0.47860000 0.23346001
0.16341999 0.47860000 0.26848000
0.16341999 0.47860000 0.30350000
0.16341999 0.47860000 0.33851999
0.16341999 0.47860000 0.37353998
0.16341999 0.47860000 0.40856001
0.16341999 0.47860000 0.44358000
0.16341999 0.47860000 0.47860000
0.16341999 0.47860000 0.51362002
0.16341999 0.47860000 0.54864001
0.16341999 0.47860000 0.58366001
0.16341999 0.47860000 0.61868000
0.16341999 0.47860000 0.65369999
0.16341999 0.47860000 0.68871999
0.16341999 0.47860000 0.72373998
0.16341999 0.47860000 0.75875998
0.16341999 0.47860000 0.79377997
0.16341999 0.47860000 0.82879996
0.16341999 0.51362002 0.12840000
0.16341999 0.51362002 0.16341999
0.16341999 0.51362002 0.19844000
0.16341999 0.51362002 0.23346001
0.16341999 0.51362002 0.26848000
0.16341999 0.51362002 0.30350000
0.16341999 0.51362002 0.33851999
0.16341999 0.51362002 0.37353998
0.16341999 0.51362002 0.40856001
0.16341999 0.51362002 0.44358000
0.16341999 0.51362002 0.47860000
0.16341999 0.51362002 0.51362002
0.16341999 0.51362002 0.54864001
0.16341999 0.51362002 0.58366001
0.16341999 0.51362002 0.61868000
0.16341999 0.51362002 0.65369999
0.16341999 0.51362002 0.68871999
0.16341999 0.51362002 0.72373998
0.16341999 0.51362002 0.75875998
0.16341999 0.51362002 0.79377997
0.16341999 0.51362002 0.82879996
0.16341999 0.54864001 0.12840000
0.16341999 0.54864001 0.16341999
0.16341999 0.54864001 0.19844000
0.16341999 0.54864001 0.23346001
0.16341999 0.54864001 0.26848000
0.16341999 0.54864001 0.30350000
0.16341999 0.54864001 0.33851999
0.16341999 0.54864001 0.37353998
0.16341999 0.54864001 0.40856001
0.16341999 0.54864001 0.44358000
0.16341999 0.54864001 0.47860000
0.16341999 0.54864001 0.51362002
0.16341999 0.54864001 0.54864001
0.16341999 0.54864001 0.58366001
0.16341999 0.54864001 0.61868000
0.16341999 0.54864001 0.65369999
0.16341999 0.54864001 0.68871999
0.16341999 0.54864001 0.72373998
0.16341999 0.54864001 0.75875998
0.16341999 0.54864001 0.79377997
0.16341999 0.54864001 0.82879996
0.16341999 0.58366001 0.12840000
0.16341999 0.58366001 0.16341999
0.16341999 0.58366001 0.19844000
