graphics/cube/XYZ_int-D65_2deg-MAT-Lvl2_998.cube
TITLE "QA_XYZ_int-D65_2deg-MAT-Lvl2_998"
# Copyright (c) 2026 @xsscx David H Hoyt LLC
# https://xss.cx
# Profiles applied (by profile description):
# - Level 2 XYZ colorimetric PCC profile using D65 illuminant with Standard 2deg observer using Wpt based MAT
LUT_3D_SIZE 5
LUT_3D_INPUT_RANGE 0.16700000 0.79030001
0.16700000 0.16700000 0.16700000
0.16700000 0.16700000 0.32282501
0.16700000 0.16700000 0.47865000
0.16700000 0.16700000 0.63447499
0.16700000 0.16700000 0.79030001
0.16700000 0.32282501 0.16700000
0.16700000 0.32282501 0.32282501
0.16700000 0.32282501 0.47865000
0.16700000 0.32282501 0.63447499
0.16700000 0.32282501 0.79030001
0.16700000 0.47865000 0.16700000
0.16700000 0.47865000 0.32282501
0.16700000 0.47865000 0.47865000
0.16700000 0.47865000 0.63447499
0.16700000 0.47865000 0.79030001
0.16700000 0.63447499 0.16700000
0.16700000 0.63447499 0.32282501
0.16700000 0.63447499 0.47865000
0.16700000 0.63447499 0.63447499
0.16700000 0.63447499 0.79030001
0.16700000 0.79030001 0.16700000
0.16700000 0.79030001 0.32282501
0.16700000 0.79030001 0.47865000
0.16700000 0.79030001 0.63447499
0.16700000 0.79030001 0.79030001
0.32282501 0.16700000 0.16700000
0.32282501 0.16700000 0.32282501
0.32282501 0.16700000 0.47865000
0.32282501 0.16700000 0.63447499
0.32282501 0.16700000 0.79030001
0.32282501 0.32282501 0.16700000
0.32282501 0.32282501 0.32282501
0.32282501 0.32282501 0.47865000
0.32282501 0.32282501 0.63447499
0.32282501 0.32282501 0.79030001
0.32282501 0.47865000 0.16700000
0.32282501 0.47865000 0.32282501
0.32282501 0.47865000 0.47865000
0.32282501 0.47865000 0.63447499
0.32282501 0.47865000 0.79030001
0.32282501 0.63447499 0.16700000
0.32282501 0.63447499 0.32282501
0.32282501 0.63447499 0.47865000
0.32282501 0.63447499 0.63447499
0.32282501 0.63447499 0.79030001
0.32282501 0.79030001 0.16700000
0.32282501 0.79030001 0.32282501
0.32282501 0.79030001 0.47865000
0.32282501 0.79030001 0.63447499
0.32282501 0.79030001 0.79030001
0.47865000 0.16700000 0.16700000
0.47865000 0.16700000 0.32282501
0.47865000 0.16700000 0.47865000
0.47865000 0.16700000 0.63447499
0.47865000 0.16700000 0.79030001
0.47865000 0.32282501 0.16700000
0.47865000 0.32282501 0.32282501
0.47865000 0.32282501 0.47865000
0.47865000 0.32282501 0.63447499
0.47865000 0.32282501 0.79030001
0.47865000 0.47865000 0.16700000
0.47865000 0.47865000 0.32282501
0.47865000 0.47865000 0.47865000
0.47865000 0.47865000 0.63447499
0.47865000 0.47865000 0.79030001
0.47865000 0.63447499 0.16700000
0.47865000 0.63447499 0.32282501
0.47865000 0.63447499 0.47865000
0.47865000 0.63447499 0.63447499
0.47865000 0.63447499 0.79030001
0.47865000 0.79030001 0.16700000
0.47865000 0.79030001 0.32282501
0.47865000 0.79030001 0.47865000
0.47865000 0.79030001 0.63447499
0.47865000 0.79030001 0.79030001
0.63447499 0.16700000 0.16700000
0.63447499 0.16700000 0.32282501
0.63447499 0.16700000 0.47865000
0.63447499 0.16700000 0.63447499
0.63447499 0.16700000 0.79030001
0.63447499 0.32282501 0.16700000
0.63447499 0.32282501 0.32282501
0.63447499 0.32282501 0.47865000
0.63447499 0.32282501 0.63447499
0.63447499 0.32282501 0.79030001
0.63447499 0.47865000 0.16700000
0.63447499 0.47865000 0.32282501
0.63447499 0.47865000 0.47865000
0.63447499 0.47865000 0.63447499
0.63447499 0.47865000 0.79030001
0.63447499 0.63447499 0.16700000
0.63447499 0.63447499 0.32282501
0.63447499 0.63447499 0.47865000
0.63447499 0.63447499 0.63447499
0.63447499 0.63447499 0.79030001
0.63447499 0.79030001 0.16700000
0.63447499 0.79030001 0.32282501
0.63447499 0.79030001 0.47865000
0.63447499 0.79030001 0.63447499
0.63447499 0.79030001 0.79030001
0.79030001 0.16700000 0.16700000
0.79030001 0.16700000 0.32282501
0.79030001 0.16700000 0.47865000
0.79030001 0.16700000 0.63447499
0.79030001 0.16700000 0.79030001
0.79030001 0.32282501 0.16700000
0.79030001 0.32282501 0.32282501
0.79030001 0.32282501 0.47865000
0.79030001 0.32282501 0.63447499
0.79030001 0.32282501 0.79030001
0.79030001 0.47865000 0.16700000
0.79030001 0.47865000 0.32282501
0.79030001 0.47865000 0.47865000
0.79030001 0.47865000 0.63447499
0.79030001 0.47865000 0.79030001
0.79030001 0.63447499 0.16700000
0.79030001 0.63447499 0.32282501
0.79030001 0.63447499 0.47865000
0.79030001 0.63447499 0.63447499
0.79030001 0.63447499 0.79030001
0.79030001 0.79030001 0.16700000
0.79030001 0.79030001 0.32282501
0.79030001 0.79030001 0.47865000
0.79030001 0.79030001 0.63447499
0.79030001 0.79030001 0.79030001
