graphics/cube/XYZ_float-D65_2deg-Part1_841.cube
TITLE "QA_XYZ_float-D65_2deg-Part1_841"
# Copyright (c) 2026 @xsscx David H Hoyt LLC
# https://xss.cx
# Profiles applied (by profile description):
# - Float encoding of CIEXYZ for standard 2deg observer under D65 illuminant using Wpt based MAT PCC
LUT_3D_SIZE 5
LUT_3D_INPUT_RANGE 0.028 0.818
0.014 0.014 0.014
0.014 0.014 0.113
0.014 0.014 0.211
0.014 0.014 0.310
0.014 0.014 0.409
0.014 0.113 0.014
0.014 0.113 0.113
0.014 0.113 0.211
0.014 0.113 0.310
0.014 0.113 0.409
0.014 0.211 0.014
0.014 0.211 0.113
0.014 0.211 0.211
0.014 0.211 0.310
0.014 0.211 0.409
0.014 0.310 0.014
0.014 0.310 0.113
0.014 0.310 0.211
0.014 0.310 0.310
0.014 0.310 0.409
0.014 0.409 0.014
0.014 0.409 0.113
0.014 0.409 0.211
0.014 0.409 0.310
0.014 0.409 0.409
0.113 0.014 0.014
0.113 0.014 0.113
0.113 0.014 0.211
0.113 0.014 0.310
0.113 0.014 0.409
0.113 0.113 0.014
0.113 0.113 0.113
0.113 0.113 0.211
0.113 0.113 0.310
0.113 0.113 0.409
0.113 0.211 0.014
0.113 0.211 0.113
0.113 0.211 0.211
0.113 0.211 0.310
0.113 0.211 0.409
0.113 0.310 0.014
0.113 0.310 0.113
0.113 0.310 0.211
0.113 0.310 0.310
0.113 0.310 0.409
0.113 0.409 0.014
0.113 0.409 0.113
0.113 0.409 0.211
0.113 0.409 0.310
0.113 0.409 0.409
0.211 0.014 0.014
0.211 0.014 0.113
0.211 0.014 0.211
0.211 0.014 0.310
0.211 0.014 0.409
0.211 0.113 0.014
0.211 0.113 0.113
0.211 0.113 0.211
0.211 0.113 0.310
0.211 0.113 0.409
0.211 0.211 0.014
0.211 0.211 0.113
0.211 0.211 0.211
0.211 0.211 0.310
0.211 0.211 0.409
0.211 0.310 0.014
0.211 0.310 0.113
0.211 0.310 0.211
0.211 0.310 0.310
0.211 0.310 0.409
0.211 0.409 0.014
0.211 0.409 0.113
0.211 0.409 0.211
0.211 0.409 0.310
0.211 0.409 0.409
0.310 0.014 0.014
0.310 0.014 0.113
0.310 0.014 0.211
0.310 0.014 0.310
0.310 0.014 0.409
0.310 0.113 0.014
0.310 0.113 0.113
0.310 0.113 0.211
0.310 0.113 0.310
0.310 0.113 0.409
0.310 0.211 0.014
0.310 0.211 0.113
0.310 0.211 0.211
0.310 0.211 0.310
0.310 0.211 0.409
0.310 0.310 0.014
0.310 0.310 0.113
0.310 0.310 0.211
0.310 0.310 0.310
0.310 0.310 0.409
0.310 0.409 0.014
0.310 0.409 0.113
0.310 0.409 0.211
0.310 0.409 0.310
0.310 0.409 0.409
0.409 0.014 0.014
0.409 0.014 0.113
0.409 0.014 0.211
0.409 0.014 0.310
0.409 0.014 0.409
0.409 0.113 0.014
0.409 0.113 0.113
0.409 0.113 0.211
0.409 0.113 0.310
0.409 0.113 0.409
0.409 0.211 0.014
0.409 0.211 0.113
0.409 0.211 0.211
0.409 0.211 0.310
0.409 0.211 0.409
0.409 0.310 0.014
0.409 0.310 0.113
0.409 0.310 0.211
0.409 0.310 0.310
0.409 0.310 0.409
0.409 0.409 0.014
0.409 0.409 0.113
0.409 0.409 0.211
0.409 0.409 0.310
0.409 0.409 0.409
