graphics/cube/XYZ_int-D65_2deg-MAT_825.cube
TITLE "QA_XYZ_int-D65_2deg-MAT_825"
# Copyright (c) 2026 @xsscx David H Hoyt LLC
# https://xss.cx
# Profiles applied (by profile description):
# - Level 1 XYZ colorimetric PCC profile using D65 illuminant with Standard 2deg observer using Wpt based MAT
LUT_3D_SIZE 6
LUT_3D_INPUT_RANGE 0.12840000 0.82880002
0.12840000 0.12840000 0.12840000
0.12840000 0.12840000 0.26848000
0.12840000 0.12840000 0.40856001
0.12840000 0.12840000 0.54864001
0.12840000 0.12840000 0.68871999
0.12840000 0.12840000 0.82879996
0.12840000 0.26848000 0.12840000
0.12840000 0.26848000 0.26848000
0.12840000 0.26848000 0.40856001
0.12840000 0.26848000 0.54864001
0.12840000 0.26848000 0.68871999
0.12840000 0.26848000 0.82879996
0.12840000 0.40856001 0.12840000
0.12840000 0.40856001 0.26848000
0.12840000 0.40856001 0.40856001
0.12840000 0.40856001 0.54864001
0.12840000 0.40856001 0.68871999
0.12840000 0.40856001 0.82879996
0.12840000 0.54864001 0.12840000
0.12840000 0.54864001 0.26848000
0.12840000 0.54864001 0.40856001
0.12840000 0.54864001 0.54864001
0.12840000 0.54864001 0.68871999
0.12840000 0.54864001 0.82879996
0.12840000 0.68871999 0.12840000
0.12840000 0.68871999 0.26848000
0.12840000 0.68871999 0.40856001
0.12840000 0.68871999 0.54864001
0.12840000 0.68871999 0.68871999
0.12840000 0.68871999 0.82879996
0.12840000 0.82879996 0.12840000
0.12840000 0.82879996 0.26848000
0.12840000 0.82879996 0.40856001
0.12840000 0.82879996 0.54864001
0.12840000 0.82879996 0.68871999
0.12840000 0.82879996 0.82879996
0.26848000 0.12840000 0.12840000
0.26848000 0.12840000 0.26848000
0.26848000 0.12840000 0.40856001
0.26848000 0.12840000 0.54864001
0.26848000 0.12840000 0.68871999
0.26848000 0.12840000 0.82879996
0.26848000 0.26848000 0.12840000
0.26848000 0.26848000 0.26848000
0.26848000 0.26848000 0.40856001
0.26848000 0.26848000 0.54864001
0.26848000 0.26848000 0.68871999
0.26848000 0.26848000 0.82879996
0.26848000 0.40856001 0.12840000
0.26848000 0.40856001 0.26848000
0.26848000 0.40856001 0.40856001
0.26848000 0.40856001 0.54864001
0.26848000 0.40856001 0.68871999
0.26848000 0.40856001 0.82879996
0.26848000 0.54864001 0.12840000
0.26848000 0.54864001 0.26848000
0.26848000 0.54864001 0.40856001
0.26848000 0.54864001 0.54864001
0.26848000 0.54864001 0.68871999
0.26848000 0.54864001 0.82879996
0.26848000 0.68871999 0.12840000
0.26848000 0.68871999 0.26848000
0.26848000 0.68871999 0.40856001
0.26848000 0.68871999 0.54864001
0.26848000 0.68871999 0.68871999
0.26848000 0.68871999 0.82879996
0.26848000 0.82879996 0.12840000
0.26848000 0.82879996 0.26848000
0.26848000 0.82879996 0.40856001
0.26848000 0.82879996 0.54864001
0.26848000 0.82879996 0.68871999
0.26848000 0.82879996 0.82879996
0.40856001 0.12840000 0.12840000
0.40856001 0.12840000 0.26848000
0.40856001 0.12840000 0.40856001
0.40856001 0.12840000 0.54864001
0.40856001 0.12840000 0.68871999
0.40856001 0.12840000 0.82879996
0.40856001 0.26848000 0.12840000
0.40856001 0.26848000 0.26848000
0.40856001 0.26848000 0.40856001
0.40856001 0.26848000 0.54864001
0.40856001 0.26848000 0.68871999
0.40856001 0.26848000 0.82879996
0.40856001 0.40856001 0.12840000
0.40856001 0.40856001 0.26848000
0.40856001 0.40856001 0.40856001
0.40856001 0.40856001 0.54864001
0.40856001 0.40856001 0.68871999
0.40856001 0.40856001 0.82879996
0.40856001 0.54864001 0.12840000
0.40856001 0.54864001 0.26848000
0.40856001 0.54864001 0.40856001
0.40856001 0.54864001 0.54864001
0.40856001 0.54864001 0.68871999
0.40856001 0.54864001 0.82879996
0.40856001 0.68871999 0.12840000
0.40856001 0.68871999 0.26848000
0.40856001 0.68871999 0.40856001
0.40856001 0.68871999 0.54864001
0.40856001 0.68871999 0.68871999
0.40856001 0.68871999 0.82879996
0.40856001 0.82879996 0.12840000
0.40856001 0.82879996 0.26848000
0.40856001 0.82879996 0.40856001
0.40856001 0.82879996 0.54864001
0.40856001 0.82879996 0.68871999
0.40856001 0.82879996 0.82879996
0.54864001 0.12840000 0.12840000
0.54864001 0.12840000 0.26848000
0.54864001 0.12840000 0.40856001
0.54864001 0.12840000 0.54864001
0.54864001 0.12840000 0.68871999
0.54864001 0.12840000 0.82879996
0.54864001 0.26848000 0.12840000
0.54864001 0.26848000 0.26848000
0.54864001 0.26848000 0.40856001
0.54864001 0.26848000 0.54864001
0.54864001 0.26848000 0.68871999
0.54864001 0.26848000 0.82879996
0.54864001 0.40856001 0.12840000
0.54864001 0.40856001 0.26848000
0.54864001 0.40856001 0.40856001
0.54864001 0.40856001 0.54864001
0.54864001 0.40856001 0.68871999
0.54864001 0.40856001 0.82879996
0.54864001 0.54864001 0.12840000
0.54864001 0.54864001 0.26848000
0.54864001 0.54864001 0.40856001
0.54864001 0.54864001 0.54864001
0.54864001 0.54864001 0.68871999
0.54864001 0.54864001 0.82879996
0.54864001 0.68871999 0.12840000
0.54864001 0.68871999 0.26848000
0.54864001 0.68871999 0.40856001
0.54864001 0.68871999 0.54864001
0.54864001 0.68871999 0.68871999
0.54864001 0.68871999 0.82879996
0.54864001 0.82879996 0.12840000
0.54864001 0.82879996 0.26848000
0.54864001 0.82879996 0.40856001
0.54864001 0.82879996 0.54864001
0.54864001 0.82879996 0.68871999
0.54864001 0.82879996 0.82879996
0.68871999 0.12840000 0.12840000
0.68871999 0.12840000 0.26848000
0.68871999 0.12840000 0.40856001
0.68871999 0.12840000 0.54864001
0.68871999 0.12840000 0.68871999
0.68871999 0.12840000 0.82879996
0.68871999 0.26848000 0.12840000
0.68871999 0.26848000 0.26848000
0.68871999 0.26848000 0.40856001
0.68871999 0.26848000 0.54864001
0.68871999 0.26848000 0.68871999
0.68871999 0.26848000 0.82879996
0.68871999 0.40856001 0.12840000
0.68871999 0.40856001 0.26848000
0.68871999 0.40856001 0.40856001
0.68871999 0.40856001 0.54864001
0.68871999 0.40856001 0.68871999
0.68871999 0.40856001 0.82879996
0.68871999 0.54864001 0.12840000
0.68871999 0.54864001 0.26848000
0.68871999 0.54864001 0.40856001
0.68871999 0.54864001 0.54864001
0.68871999 0.54864001 0.68871999
0.68871999 0.54864001 0.82879996
0.68871999 0.68871999 0.12840000
0.68871999 0.68871999 0.26848000
0.68871999 0.68871999 0.40856001
0.68871999 0.68871999 0.54864001
0.68871999 0.68871999 0.68871999
0.68871999 0.68871999 0.82879996
0.68871999 0.82879996 0.12840000
0.68871999 0.82879996 0.26848000
0.68871999 0.82879996 0.40856001
0.68871999 0.82879996 0.54864001
0.68871999 0.82879996 0.68871999
0.68871999 0.82879996 0.82879996
0.82879996 0.12840000 0.12840000
0.82879996 0.12840000 0.26848000
0.82879996 0.12840000 0.40856001
0.82879996 0.12840000 0.54864001
0.82879996 0.12840000 0.68871999
0.82879996 0.12840000 0.82879996
0.82879996 0.26848000 0.12840000
0.82879996 0.26848000 0.26848000
0.82879996 0.26848000 0.40856001
0.82879996 0.26848000 0.54864001
0.82879996 0.26848000 0.68871999
0.82879996 0.26848000 0.82879996
0.82879996 0.40856001 0.12840000
0.82879996 0.40856001 0.26848000
0.82879996 0.40856001 0.40856001
0.82879996 0.40856001 0.54864001
0.82879996 0.40856001 0.68871999
0.82879996 0.40856001 0.82879996
0.82879996 0.54864001 0.12840000
0.82879996 0.54864001 0.26848000
0.82879996 0.54864001 0.40856001
0.82879996 0.54864001 0.54864001
0.82879996 0.54864001 0.68871999
0.82879996 0.54864001 0.82879996
0.82879996 0.68871999 0.12840000
0.82879996 0.68871999 0.26848000
0.82879996 0.68871999 0.40856001
0.82879996 0.68871999 0.54864001
0.82879996 0.68871999 0.68871999
0.82879996 0.68871999 0.82879996
0.82879996 0.82879996 0.12840000
0.82879996 0.82879996 0.26848000
0.82879996 0.82879996 0.40856001
0.82879996 0.82879996 0.54864001
0.82879996 0.82879996 0.68871999
0.82879996 0.82879996 0.82879996
