graphics/cube/XYZ_float-D65_2deg-Part1_841.cube
TITLE "QA_XYZ_float-D65_2deg-Part1_841"
# Copyright (c) 2026 @xsscx David H Hoyt LLC
# https://xss.cx
# Profiles applied (by profile description):
# - Float encoding of CIEXYZ for standard 2deg observer under D65 illuminant using Wpt based MAT PCC
LUT_3D_SIZE 53
LUT_3D_INPUT_RANGE 0.028 0.818
0.014 0.014 0.014
0.014 0.014 0.021
0.014 0.014 0.029
0.014 0.014 0.037
0.014 0.014 0.044
0.014 0.014 0.052
0.014 0.014 0.059
0.014 0.014 0.067
0.014 0.014 0.075
0.014 0.014 0.082
0.014 0.014 0.090
0.014 0.014 0.097
0.014 0.014 0.105
0.014 0.014 0.113
0.014 0.014 0.120
0.014 0.014 0.128
0.014 0.014 0.135
0.014 0.014 0.143
0.014 0.014 0.151
0.014 0.014 0.158
0.014 0.014 0.166
0.014 0.014 0.173
0.014 0.014 0.181
0.014 0.014 0.189
0.014 0.014 0.196
0.014 0.014 0.204
0.014 0.014 0.211
0.014 0.014 0.219
0.014 0.014 0.227
0.014 0.014 0.234
0.014 0.014 0.242
0.014 0.014 0.249
0.014 0.014 0.257
0.014 0.014 0.265
0.014 0.014 0.272
0.014 0.014 0.280
0.014 0.014 0.287
0.014 0.014 0.295
0.014 0.014 0.303
0.014 0.014 0.310
0.014 0.014 0.318
0.014 0.014 0.325
0.014 0.014 0.333
0.014 0.014 0.341
0.014 0.014 0.348
0.014 0.014 0.356
0.014 0.014 0.363
0.014 0.014 0.371
0.014 0.014 0.379
0.014 0.014 0.386
0.014 0.014 0.394
0.014 0.014 0.401
0.014 0.014 0.409
0.014 0.021 0.014
0.014 0.021 0.021
0.014 0.021 0.029
0.014 0.021 0.037
0.014 0.021 0.044
0.014 0.021 0.052
0.014 0.021 0.059
0.014 0.021 0.067
0.014 0.021 0.075
0.014 0.021 0.082
0.014 0.021 0.090
0.014 0.021 0.097
0.014 0.021 0.105
0.014 0.021 0.113
0.014 0.021 0.120
0.014 0.021 0.128
0.014 0.021 0.135
0.014 0.021 0.143
0.014 0.021 0.151
0.014 0.021 0.158
0.014 0.021 0.166
0.014 0.021 0.173
0.014 0.021 0.181
0.014 0.021 0.189
0.014 0.021 0.196
0.014 0.021 0.204
0.014 0.021 0.211
0.014 0.021 0.219
0.014 0.021 0.227
0.014 0.021 0.234
0.014 0.021 0.242
0.014 0.021 0.249
0.014 0.021 0.257
0.014 0.021 0.265
0.014 0.021 0.272
0.014 0.021 0.280
0.014 0.021 0.287
0.014 0.021 0.295
0.014 0.021 0.303
0.014 0.021 0.310
0.014 0.021 0.318
0.014 0.021 0.325
0.014 0.021 0.333
0.014 0.021 0.341
0.014 0.021 0.348
0.014 0.021 0.356
0.014 0.021 0.363
0.014 0.021 0.371
0.014 0.021 0.379
0.014 0.021 0.386
0.014 0.021 0.394
0.014 0.021 0.401
0.014 0.021 0.409
0.014 0.029 0.014
0.014 0.029 0.021
0.014 0.029 0.029
0.014 0.029 0.037
0.014 0.029 0.044
0.014 0.029 0.052
0.014 0.029 0.059
0.014 0.029 0.067
0.014 0.029 0.075
0.014 0.029 0.082
0.014 0.029 0.090
0.014 0.029 0.097
0.014 0.029 0.105
0.014 0.029 0.113
0.014 0.029 0.120
0.014 0.029 0.128
0.014 0.029 0.135
0.014 0.029 0.143
0.014 0.029 0.151
0.014 0.029 0.158
0.014 0.029 0.166
0.014 0.029 0.173
0.014 0.029 0.181
0.014 0.029 0.189
0.014 0.029 0.196
0.014 0.029 0.204
0.014 0.029 0.211
0.014 0.029 0.219
0.014 0.029 0.227
0.014 0.029 0.234
0.014 0.029 0.242
0.014 0.029 0.249
0.014 0.029 0.257
0.014 0.029 0.265
0.014 0.029 0.272
0.014 0.029 0.280
0.014 0.029 0.287
0.014 0.029 0.295
0.014 0.029 0.303
0.014 0.029 0.310
0.014 0.029 0.318
0.014 0.029 0.325
0.014 0.029 0.333
0.014 0.029 0.341
0.014 0.029 0.348
0.014 0.029 0.356
0.014 0.029 0.363
0.014 0.029 0.371
0.014 0.029 0.379
0.014 0.029 0.386
0.014 0.029 0.394
0.014 0.029 0.401
0.014 0.029 0.409
0.014 0.037 0.014
0.014 0.037 0.021
0.014 0.037 0.029
0.014 0.037 0.037
0.014 0.037 0.044
0.014 0.037 0.052
0.014 0.037 0.059
0.014 0.037 0.067
0.014 0.037 0.075
0.014 0.037 0.082
0.014 0.037 0.090
0.014 0.037 0.097
0.014 0.037 0.105
0.014 0.037 0.113
0.014 0.037 0.120
0.014 0.037 0.128
0.014 0.037 0.135
0.014 0.037 0.143
0.014 0.037 0.151
0.014 0.037 0.158
0.014 0.037 0.166
0.014 0.037 0.173
0.014 0.037 0.181
0.014 0.037 0.189
0.014 0.037 0.196
0.014 0.037 0.204
0.014 0.037 0.211
0.014 0.037 0.219
0.014 0.037 0.227
0.014 0.037 0.234
0.014 0.037 0.242
0.014 0.037 0.249
0.014 0.037 0.257
0.014 0.037 0.265
0.014 0.037 0.272
0.014 0.037 0.280
0.014 0.037 0.287
0.014 0.037 0.295
0.014 0.037 0.303
0.014 0.037 0.310
0.014 0.037 0.318
0.014 0.037 0.325
0.014 0.037 0.333
0.014 0.037 0.341
0.014 0.037 0.348
0.014 0.037 0.356
0.014 0.037 0.363
0.014 0.037 0.371
0.014 0.037 0.379
0.014 0.037 0.386
0.014 0.037 0.394
0.014 0.037 0.401
0.014 0.037 0.409
0.014 0.044 0.014
0.014 0.044 0.021
0.014 0.044 0.029
0.014 0.044 0.037
0.014 0.044 0.044
0.014 0.044 0.052
0.014 0.044 0.059
0.014 0.044 0.067
0.014 0.044 0.075
0.014 0.044 0.082
0.014 0.044 0.090
0.014 0.044 0.097
0.014 0.044 0.105
0.014 0.044 0.113
0.014 0.044 0.120
0.014 0.044 0.128
0.014 0.044 0.135
0.014 0.044 0.143
0.014 0.044 0.151
0.014 0.044 0.158
0.014 0.044 0.166
0.014 0.044 0.173
0.014 0.044 0.181
0.014 0.044 0.189
0.014 0.044 0.196
0.014 0.044 0.204
0.014 0.044 0.211
0.014 0.044 0.219
0.014 0.044 0.227
0.014 0.044 0.234
0.014 0.044 0.242
0.014 0.044 0.249
0.014 0.044 0.257
0.014 0.044 0.265
0.014 0.044 0.272
0.014 0.044 0.280
0.014 0.044 0.287
0.014 0.044 0.295
0.014 0.044 0.303
0.014 0.044 0.310
0.014 0.044 0.318
0.014 0.044 0.325
0.014 0.044 0.333
0.014 0.044 0.341
0.014 0.044 0.348
0.014 0.044 0.356
0.014 0.044 0.363
0.014 0.044 0.371
0.014 0.044 0.379
0.014 0.044 0.386
0.014 0.044 0.394
0.014 0.044 0.401
0.014 0.044 0.409
0.014 0.052 0.014
0.014 0.052 0.021
0.014 0.052 0.029
0.014 0.052 0.037
0.014 0.052 0.044
0.014 0.052 0.052
0.014 0.052 0.059
0.014 0.052 0.067
0.014 0.052 0.075
0.014 0.052 0.082
0.014 0.052 0.090
0.014 0.052 0.097
0.014 0.052 0.105
0.014 0.052 0.113
0.014 0.052 0.120
0.014 0.052 0.128
0.014 0.052 0.135
0.014 0.052 0.143
0.014 0.052 0.151
0.014 0.052 0.158
0.014 0.052 0.166
0.014 0.052 0.173
0.014 0.052 0.181
0.014 0.052 0.189
0.014 0.052 0.196
0.014 0.052 0.204
0.014 0.052 0.211
0.014 0.052 0.219
0.014 0.052 0.227
0.014 0.052 0.234
0.014 0.052 0.242
0.014 0.052 0.249
0.014 0.052 0.257
0.014 0.052 0.265
0.014 0.052 0.272
0.014 0.052 0.280
0.014 0.052 0.287
0.014 0.052 0.295
0.014 0.052 0.303
0.014 0.052 0.310
0.014 0.052 0.318
0.014 0.052 0.325
0.014 0.052 0.333
0.014 0.052 0.341
0.014 0.052 0.348
0.014 0.052 0.356
0.014 0.052 0.363
0.014 0.052 0.371
0.014 0.052 0.379
0.014 0.052 0.386
0.014 0.052 0.394
0.014 0.052 0.401
0.014 0.052 0.409
0.014 0.059 0.014
0.014 0.059 0.021
0.014 0.059 0.029
0.014 0.059 0.037
0.014 0.059 0.044
0.014 0.059 0.052
0.014 0.059 0.059
0.014 0.059 0.067
0.014 0.059 0.075
0.014 0.059 0.082
0.014 0.059 0.090
0.014 0.059 0.097
0.014 0.059 0.105
0.014 0.059 0.113
0.014 0.059 0.120
0.014 0.059 0.128
0.014 0.059 0.135
0.014 0.059 0.143
0.014 0.059 0.151
0.014 0.059 0.158
0.014 0.059 0.166
0.014 0.059 0.173
0.014 0.059 0.181
0.014 0.059 0.189
0.014 0.059 0.196
0.014 0.059 0.204
0.014 0.059 0.211
0.014 0.059 0.219
0.014 0.059 0.227
0.014 0.059 0.234
0.014 0.059 0.242
0.014 0.059 0.249
0.014 0.059 0.257
0.014 0.059 0.265
0.014 0.059 0.272
0.014 0.059 0.280
0.014 0.059 0.287
0.014 0.059 0.295
0.014 0.059 0.303
0.014 0.059 0.310
0.014 0.059 0.318
0.014 0.059 0.325
0.014 0.059 0.333
0.014 0.059 0.341
0.014 0.059 0.348
0.014 0.059 0.356
0.014 0.059 0.363
0.014 0.059 0.371
0.014 0.059 0.379
0.014 0.059 0.386
0.014 0.059 0.394
0.014 0.059 0.401
0.014 0.059 0.409
0.014 0.067 0.014
0.014 0.067 0.021
0.014 0.067 0.029
0.014 0.067 0.037
0.014 0.067 0.044
0.014 0.067 0.052
0.014 0.067 0.059
0.014 0.067 0.067
0.014 0.067 0.075
0.014 0.067 0.082
0.014 0.067 0.090
0.014 0.067 0.097
0.014 0.067 0.105
0.014 0.067 0.113
0.014 0.067 0.120
0.014 0.067 0.128
0.014 0.067 0.135
0.014 0.067 0.143
0.014 0.067 0.151
0.014 0.067 0.158
0.014 0.067 0.166
0.014 0.067 0.173
0.014 0.067 0.181
0.014 0.067 0.189
0.014 0.067 0.196
0.014 0.067 0.204
0.014 0.067 0.211
0.014 0.067 0.219
0.014 0.067 0.227
0.014 0.067 0.234
0.014 0.067 0.242
0.014 0.067 0.249
0.014 0.067 0.257
0.014 0.067 0.265
0.014 0.067 0.272
0.014 0.067 0.280
0.014 0.067 0.287
0.014 0.067 0.295
0.014 0.067 0.303
0.014 0.067 0.310
0.014 0.067 0.318
0.014 0.067 0.325
0.014 0.067 0.333
0.014 0.067 0.341
0.014 0.067 0.348
0.014 0.067 0.356
0.014 0.067 0.363
0.014 0.067 0.371
0.014 0.067 0.379
0.014 0.067 0.386
0.014 0.067 0.394
0.014 0.067 0.401
0.014 0.067 0.409
0.014 0.075 0.014
0.014 0.075 0.021
0.014 0.075 0.029
0.014 0.075 0.037
0.014 0.075 0.044
0.014 0.075 0.052
0.014 0.075 0.059
0.014 0.075 0.067
0.014 0.075 0.075
0.014 0.075 0.082
0.014 0.075 0.090
0.014 0.075 0.097
0.014 0.075 0.105
0.014 0.075 0.113
0.014 0.075 0.120
0.014 0.075 0.128
0.014 0.075 0.135
0.014 0.075 0.143
0.014 0.075 0.151
0.014 0.075 0.158
0.014 0.075 0.166
0.014 0.075 0.173
0.014 0.075 0.181
0.014 0.075 0.189
0.014 0.075 0.196
0.014 0.075 0.204
0.014 0.075 0.211
0.014 0.075 0.219
0.014 0.075 0.227
0.014 0.075 0.234
0.014 0.075 0.242
0.014 0.075 0.249
0.014 0.075 0.257
0.014 0.075 0.265
0.014 0.075 0.272
0.014 0.075 0.280
0.014 0.075 0.287
0.014 0.075 0.295
0.014 0.075 0.303
0.014 0.075 0.310
0.014 0.075 0.318
0.014 0.075 0.325
0.014 0.075 0.333
0.014 0.075 0.341
0.014 0.075 0.348
0.014 0.075 0.356
0.014 0.075 0.363
0.014 0.075 0.371
0.014 0.075 0.379
0.014 0.075 0.386
0.014 0.075 0.394
0.014 0.075 0.401
0.014 0.075 0.409
0.014 0.082 0.014
0.014 0.082 0.021
0.014 0.082 0.029
0.014 0.082 0.037
0.014 0.082 0.044
0.014 0.082 0.052
0.014 0.082 0.059
0.014 0.082 0.067
0.014 0.082 0.075
0.014 0.082 0.082
0.014 0.082 0.090
0.014 0.082 0.097
0.014 0.082 0.105
0.014 0.082 0.113
0.014 0.082 0.120
0.014 0.082 0.128
0.014 0.082 0.135
0.014 0.082 0.143
0.014 0.082 0.151
0.014 0.082 0.158
0.014 0.082 0.166
0.014 0.082 0.173
0.014 0.082 0.181
0.014 0.082 0.189
0.014 0.082 0.196
0.014 0.082 0.204
0.014 0.082 0.211
0.014 0.082 0.219
0.014 0.082 0.227
0.014 0.082 0.234
0.014 0.082 0.242
0.014 0.082 0.249
0.014 0.082 0.257
0.014 0.082 0.265
0.014 0.082 0.272
0.014 0.082 0.280
0.014 0.082 0.287
0.014 0.082 0.295
0.014 0.082 0.303
0.014 0.082 0.310
0.014 0.082 0.318
0.014 0.082 0.325
0.014 0.082 0.333
0.014 0.082 0.341
0.014 0.082 0.348
0.014 0.082 0.356
0.014 0.082 0.363
0.014 0.082 0.371
0.014 0.082 0.379
0.014 0.082 0.386
0.014 0.082 0.394
0.014 0.082 0.401
0.014 0.082 0.409
0.014 0.090 0.014
0.014 0.090 0.021
0.014 0.090 0.029
0.014 0.090 0.037
0.014 0.090 0.044
0.014 0.090 0.052
0.014 0.090 0.059
0.014 0.090 0.067
0.014 0.090 0.075
0.014 0.090 0.082
0.014 0.090 0.090
0.014 0.090 0.097
0.014 0.090 0.105
0.014 0.090 0.113
0.014 0.090 0.120
0.014 0.090 0.128
0.014 0.090 0.135
0.014 0.090 0.143
0.014 0.090 0.151
0.014 0.090 0.158
0.014 0.090 0.166
0.014 0.090 0.173
0.014 0.090 0.181
0.014 0.090 0.189
0.014 0.090 0.196
0.014 0.090 0.204
0.014 0.090 0.211
0.014 0.090 0.219
0.014 0.090 0.227
0.014 0.090 0.234
0.014 0.090 0.242
0.014 0.090 0.249
0.014 0.090 0.257
0.014 0.090 0.265
0.014 0.090 0.272
0.014 0.090 0.280
0.014 0.090 0.287
0.014 0.090 0.295
0.014 0.090 0.303
0.014 0.090 0.310
0.014 0.090 0.318
0.014 0.090 0.325
0.014 0.090 0.333
0.014 0.090 0.341
0.014 0.090 0.348
0.014 0.090 0.356
0.014 0.090 0.363
0.014 0.090 0.371
0.014 0.090 0.379
0.014 0.090 0.386
0.014 0.090 0.394
0.014 0.090 0.401
0.014 0.090 0.409
0.014 0.097 0.014
0.014 0.097 0.021
0.014 0.097 0.029
0.014 0.097 0.037
0.014 0.097 0.044
0.014 0.097 0.052
0.014 0.097 0.059
0.014 0.097 0.067
0.014 0.097 0.075
0.014 0.097 0.082
0.014 0.097 0.090
0.014 0.097 0.097
0.014 0.097 0.105
0.014 0.097 0.113
0.014 0.097 0.120
0.014 0.097 0.128
0.014 0.097 0.135
0.014 0.097 0.143
0.014 0.097 0.151
0.014 0.097 0.158
0.014 0.097 0.166
0.014 0.097 0.173
0.014 0.097 0.181
0.014 0.097 0.189
0.014 0.097 0.196
0.014 0.097 0.204
0.014 0.097 0.211
0.014 0.097 0.219
0.014 0.097 0.227
0.014 0.097 0.234
0.014 0.097 0.242
0.014 0.097 0.249
0.014 0.097 0.257
0.014 0.097 0.265
0.014 0.097 0.272
0.014 0.097 0.280
0.014 0.097 0.287
0.014 0.097 0.295
0.014 0.097 0.303
0.014 0.097 0.310
0.014 0.097 0.318
0.014 0.097 0.325
0.014 0.097 0.333
0.014 0.097 0.341
0.014 0.097 0.348
0.014 0.097 0.356
0.014 0.097 0.363
0.014 0.097 0.371
0.014 0.097 0.379
0.014 0.097 0.386
0.014 0.097 0.394
0.014 0.097 0.401
0.014 0.097 0.409
0.014 0.105 0.014
0.014 0.105 0.021
0.014 0.105 0.029
0.014 0.105 0.037
0.014 0.105 0.044
0.014 0.105 0.052
0.014 0.105 0.059
0.014 0.105 0.067
0.014 0.105 0.075
0.014 0.105 0.082
0.014 0.105 0.090
0.014 0.105 0.097
0.014 0.105 0.105
0.014 0.105 0.113
0.014 0.105 0.120
0.014 0.105 0.128
0.014 0.105 0.135
0.014 0.105 0.143
0.014 0.105 0.151
0.014 0.105 0.158
0.014 0.105 0.166
0.014 0.105 0.173
0.014 0.105 0.181
0.014 0.105 0.189
0.014 0.105 0.196
0.014 0.105 0.204
0.014 0.105 0.211
0.014 0.105 0.219
0.014 0.105 0.227
0.014 0.105 0.234
0.014 0.105 0.242
0.014 0.105 0.249
0.014 0.105 0.257
0.014 0.105 0.265
0.014 0.105 0.272
0.014 0.105 0.280
0.014 0.105 0.287
0.014 0.105 0.295
0.014 0.105 0.303
0.014 0.105 0.310
0.014 0.105 0.318
0.014 0.105 0.325
0.014 0.105 0.333
0.014 0.105 0.341
0.014 0.105 0.348
0.014 0.105 0.356
0.014 0.105 0.363
0.014 0.105 0.371
0.014 0.105 0.379
0.014 0.105 0.386
0.014 0.105 0.394
0.014 0.105 0.401
0.014 0.105 0.409
0.014 0.113 0.014
0.014 0.113 0.021
0.014 0.113 0.029
0.014 0.113 0.037
0.014 0.113 0.044
0.014 0.113 0.052
0.014 0.113 0.059
0.014 0.113 0.067
0.014 0.113 0.075
0.014 0.113 0.082
0.014 0.113 0.090
0.014 0.113 0.097
0.014 0.113 0.105
0.014 0.113 0.113
0.014 0.113 0.120
0.014 0.113 0.128
0.014 0.113 0.135
0.014 0.113 0.143
0.014 0.113 0.151
0.014 0.113 0.158
0.014 0.113 0.166
0.014 0.113 0.173
0.014 0.113 0.181
0.014 0.113 0.189
0.014 0.113 0.196
0.014 0.113 0.204
0.014 0.113 0.211
0.014 0.113 0.219
0.014 0.113 0.227
0.014 0.113 0.234
0.014 0.113 0.242
0.014 0.113 0.249
0.014 0.113 0.257
0.014 0.113 0.265
0.014 0.113 0.272
0.014 0.113 0.280
0.014 0.113 0.287
0.014 0.113 0.295
0.014 0.113 0.303
0.014 0.113 0.310
0.014 0.113 0.318
0.014 0.113 0.325
0.014 0.113 0.333
0.014 0.113 0.341
0.014 0.113 0.348
0.014 0.113 0.356
0.014 0.113 0.363
0.014 0.113 0.371
0.014 0.113 0.379
0.014 0.113 0.386
0.014 0.113 0.394
0.014 0.113 0.401
0.014 0.113 0.409
0.014 0.120 0.014
0.014 0.120 0.021
0.014 0.120 0.029
0.014 0.120 0.037
0.014 0.120 0.044
0.014 0.120 0.052
0.014 0.120 0.059
0.014 0.120 0.067
0.014 0.120 0.075
0.014 0.120 0.082
0.014 0.120 0.090
0.014 0.120 0.097
0.014 0.120 0.105
0.014 0.120 0.113
0.014 0.120 0.120
0.014 0.120 0.128
0.014 0.120 0.135
0.014 0.120 0.143
0.014 0.120 0.151
0.014 0.120 0.158
0.014 0.120 0.166
0.014 0.120 0.173
0.014 0.120 0.181
0.014 0.120 0.189
0.014 0.120 0.196
0.014 0.120 0.204
0.014 0.120 0.211
0.014 0.120 0.219
0.014 0.120 0.227
0.014 0.120 0.234
0.014 0.120 0.242
0.014 0.120 0.249
0.014 0.120 0.257
0.014 0.120 0.265
0.014 0.120 0.272
0.014 0.120 0.280
0.014 0.120 0.287
0.014 0.120 0.295
0.014 0.120 0.303
0.014 0.120 0.310
0.014 0.120 0.318
0.014 0.120 0.325
0.014 0.120 0.333
0.014 0.120 0.341
0.014 0.120 0.348
0.014 0.120 0.356
0.014 0.120 0.363
0.014 0.120 0.371
0.014 0.120 0.379
0.014 0.120 0.386
0.014 0.120 0.394
0.014 0.120 0.401
0.014 0.120 0.409
0.014 0.128 0.014
0.014 0.128 0.021
0.014 0.128 0.029
0.014 0.128 0.037
0.014 0.128 0.044
0.014 0.128 0.052
0.014 0.128 0.059
0.014 0.128 0.067
0.014 0.128 0.075
0.014 0.128 0.082
0.014 0.128 0.090
0.014 0.128 0.097
0.014 0.128 0.105
0.014 0.128 0.113
0.014 0.128 0.120
0.014 0.128 0.128
0.014 0.128 0.135
0.014 0.128 0.143
0.014 0.128 0.151
0.014 0.128 0.158
0.014 0.128 0.166
0.014 0.128 0.173
0.014 0.128 0.181
0.014 0.128 0.189
0.014 0.128 0.196
0.014 0.128 0.204
0.014 0.128 0.211
0.014 0.128 0.219
0.014 0.128 0.227
0.014 0.128 0.234
0.014 0.128 0.242
0.014 0.128 0.249
0.014 0.128 0.257
0.014 0.128 0.265
0.014 0.128 0.272
0.014 0.128 0.280
0.014 0.128 0.287
0.014 0.128 0.295
0.014 0.128 0.303
0.014 0.128 0.310
0.014 0.128 0.318
0.014 0.128 0.325
0.014 0.128 0.333
0.014 0.128 0.341
0.014 0.128 0.348
0.014 0.128 0.356
0.014 0.128 0.363
0.014 0.128 0.371
0.014 0.128 0.379
0.014 0.128 0.386
0.014 0.128 0.394
0.014 0.128 0.401
0.014 0.128 0.409
0.014 0.135 0.014
0.014 0.135 0.021
0.014 0.135 0.029
0.014 0.135 0.037
0.014 0.135 0.044
0.014 0.135 0.052
0.014 0.135 0.059
0.014 0.135 0.067
0.014 0.135 0.075
0.014 0.135 0.082
0.014 0.135 0.090
0.014 0.135 0.097
0.014 0.135 0.105
0.014 0.135 0.113
0.014 0.135 0.120
0.014 0.135 0.128
0.014 0.135 0.135
0.014 0.135 0.143
0.014 0.135 0.151
0.014 0.135 0.158
0.014 0.135 0.166
0.014 0.135 0.173
0.014 0.135 0.181
0.014 0.135 0.189
0.014 0.135 0.196
0.014 0.135 0.204
0.014 0.135 0.211
0.014 0.135 0.219
0.014 0.135 0.227
0.014 0.135 0.234
0.014 0.135 0.242
0.014 0.135 0.249
0.014 0.135 0.257
0.014 0.135 0.265
0.014 0.135 0.272
0.014 0.135 0.280
0.014 0.135 0.287
0.014 0.135 0.295
0.014 0.135 0.303
0.014 0.135 0.310
0.014 0.135 0.318
0.014 0.135 0.325
0.014 0.135 0.333
0.014 0.135 0.341
0.014 0.135 0.348
0.014 0.135 0.356
0.014 0.135 0.363
0.014 0.135 0.371
0.014 0.135 0.379
0.014 0.135 0.386
0.014 0.135 0.394
0.014 0.135 0.401
