graphics/cube/XYZ_int-D65_2deg-MAT-Lvl2_998.cube
TITLE "QA_XYZ_int-D65_2deg-MAT-Lvl2_998"
# Copyright (c) 2026 @xsscx David H Hoyt LLC
# https://xss.cx
# Profiles applied (by profile description):
# - Level 2 XYZ colorimetric PCC profile using D65 illuminant with Standard 2deg observer using Wpt based MAT
LUT_3D_SIZE 17
LUT_3D_INPUT_RANGE 0.16700000 0.79030001
0.16700000 0.16700000 0.16700000
0.16700000 0.16700000 0.20595625
0.16700000 0.16700000 0.24491251
0.16700000 0.16700000 0.28386873
0.16700000 0.16700000 0.32282501
0.16700000 0.16700000 0.36178124
0.16700000 0.16700000 0.40073749
0.16700000 0.16700000 0.43969375
0.16700000 0.16700000 0.47865000
0.16700000 0.16700000 0.51760626
0.16700000 0.16700000 0.55656254
0.16700000 0.16700000 0.59551877
0.16700000 0.16700000 0.63447499
0.16700000 0.16700000 0.67343128
0.16700000 0.16700000 0.71238750
0.16700000 0.16700000 0.75134379
0.16700000 0.16700000 0.79030001
0.16700000 0.20595625 0.16700000
0.16700000 0.20595625 0.20595625
0.16700000 0.20595625 0.24491251
0.16700000 0.20595625 0.28386873
0.16700000 0.20595625 0.32282501
0.16700000 0.20595625 0.36178124
0.16700000 0.20595625 0.40073749
0.16700000 0.20595625 0.43969375
0.16700000 0.20595625 0.47865000
0.16700000 0.20595625 0.51760626
0.16700000 0.20595625 0.55656254
0.16700000 0.20595625 0.59551877
0.16700000 0.20595625 0.63447499
0.16700000 0.20595625 0.67343128
0.16700000 0.20595625 0.71238750
0.16700000 0.20595625 0.75134379
0.16700000 0.20595625 0.79030001
0.16700000 0.24491251 0.16700000
0.16700000 0.24491251 0.20595625
0.16700000 0.24491251 0.24491251
0.16700000 0.24491251 0.28386873
0.16700000 0.24491251 0.32282501
0.16700000 0.24491251 0.36178124
0.16700000 0.24491251 0.40073749
0.16700000 0.24491251 0.43969375
0.16700000 0.24491251 0.47865000
0.16700000 0.24491251 0.51760626
0.16700000 0.24491251 0.55656254
0.16700000 0.24491251 0.59551877
0.16700000 0.24491251 0.63447499
0.16700000 0.24491251 0.67343128
0.16700000 0.24491251 0.71238750
0.16700000 0.24491251 0.75134379
0.16700000 0.24491251 0.79030001
0.16700000 0.28386873 0.16700000
0.16700000 0.28386873 0.20595625
0.16700000 0.28386873 0.24491251
0.16700000 0.28386873 0.28386873
0.16700000 0.28386873 0.32282501
0.16700000 0.28386873 0.36178124
0.16700000 0.28386873 0.40073749
0.16700000 0.28386873 0.43969375
0.16700000 0.28386873 0.47865000
0.16700000 0.28386873 0.51760626
0.16700000 0.28386873 0.55656254
0.16700000 0.28386873 0.59551877
0.16700000 0.28386873 0.63447499
0.16700000 0.28386873 0.67343128
0.16700000 0.28386873 0.71238750
0.16700000 0.28386873 0.75134379
0.16700000 0.28386873 0.79030001
0.16700000 0.32282501 0.16700000
0.16700000 0.32282501 0.20595625
0.16700000 0.32282501 0.24491251
0.16700000 0.32282501 0.28386873
0.16700000 0.32282501 0.32282501
0.16700000 0.32282501 0.36178124
0.16700000 0.32282501 0.40073749
0.16700000 0.32282501 0.43969375
0.16700000 0.32282501 0.47865000
0.16700000 0.32282501 0.51760626
0.16700000 0.32282501 0.55656254
0.16700000 0.32282501 0.59551877
0.16700000 0.32282501 0.63447499
0.16700000 0.32282501 0.67343128
0.16700000 0.32282501 0.71238750
0.16700000 0.32282501 0.75134379
0.16700000 0.32282501 0.79030001
0.16700000 0.36178124 0.16700000
0.16700000 0.36178124 0.20595625
0.16700000 0.36178124 0.24491251
0.16700000 0.36178124 0.28386873
0.16700000 0.36178124 0.32282501
0.16700000 0.36178124 0.36178124
0.16700000 0.36178124 0.40073749
0.16700000 0.36178124 0.43969375
0.16700000 0.36178124 0.47865000
0.16700000 0.36178124 0.51760626
0.16700000 0.36178124 0.55656254
0.16700000 0.36178124 0.59551877
0.16700000 0.36178124 0.63447499
0.16700000 0.36178124 0.67343128
0.16700000 0.36178124 0.71238750
0.16700000 0.36178124 0.75134379
0.16700000 0.36178124 0.79030001
0.16700000 0.40073749 0.16700000
0.16700000 0.40073749 0.20595625
0.16700000 0.40073749 0.24491251
0.16700000 0.40073749 0.28386873
0.16700000 0.40073749 0.32282501
0.16700000 0.40073749 0.36178124
0.16700000 0.40073749 0.40073749
0.16700000 0.40073749 0.43969375
0.16700000 0.40073749 0.47865000
0.16700000 0.40073749 0.51760626
0.16700000 0.40073749 0.55656254
0.16700000 0.40073749 0.59551877
0.16700000 0.40073749 0.63447499
0.16700000 0.40073749 0.67343128
0.16700000 0.40073749 0.71238750
0.16700000 0.40073749 0.75134379
0.16700000 0.40073749 0.79030001
0.16700000 0.43969375 0.16700000
0.16700000 0.43969375 0.20595625
0.16700000 0.43969375 0.24491251
0.16700000 0.43969375 0.28386873
0.16700000 0.43969375 0.32282501
0.16700000 0.43969375 0.36178124
0.16700000 0.43969375 0.40073749
0.16700000 0.43969375 0.43969375
0.16700000 0.43969375 0.47865000
0.16700000 0.43969375 0.51760626
0.16700000 0.43969375 0.55656254
0.16700000 0.43969375 0.59551877
0.16700000 0.43969375 0.63447499
0.16700000 0.43969375 0.67343128
0.16700000 0.43969375 0.71238750
0.16700000 0.43969375 0.75134379
0.16700000 0.43969375 0.79030001
0.16700000 0.47865000 0.16700000
0.16700000 0.47865000 0.20595625
0.16700000 0.47865000 0.24491251
0.16700000 0.47865000 0.28386873
0.16700000 0.47865000 0.32282501
0.16700000 0.47865000 0.36178124
0.16700000 0.47865000 0.40073749
0.16700000 0.47865000 0.43969375
0.16700000 0.47865000 0.47865000
0.16700000 0.47865000 0.51760626
0.16700000 0.47865000 0.55656254
0.16700000 0.47865000 0.59551877
0.16700000 0.47865000 0.63447499
0.16700000 0.47865000 0.67343128
0.16700000 0.47865000 0.71238750
0.16700000 0.47865000 0.75134379
0.16700000 0.47865000 0.79030001
0.16700000 0.51760626 0.16700000
0.16700000 0.51760626 0.20595625
0.16700000 0.51760626 0.24491251
0.16700000 0.51760626 0.28386873
0.16700000 0.51760626 0.32282501
0.16700000 0.51760626 0.36178124
0.16700000 0.51760626 0.40073749
0.16700000 0.51760626 0.43969375
0.16700000 0.51760626 0.47865000
0.16700000 0.51760626 0.51760626
0.16700000 0.51760626 0.55656254
0.16700000 0.51760626 0.59551877
0.16700000 0.51760626 0.63447499
0.16700000 0.51760626 0.67343128
0.16700000 0.51760626 0.71238750
0.16700000 0.51760626 0.75134379
0.16700000 0.51760626 0.79030001
0.16700000 0.55656254 0.16700000
0.16700000 0.55656254 0.20595625
0.16700000 0.55656254 0.24491251
0.16700000 0.55656254 0.28386873
0.16700000 0.55656254 0.32282501
0.16700000 0.55656254 0.36178124
0.16700000 0.55656254 0.40073749
0.16700000 0.55656254 0.43969375
0.16700000 0.55656254 0.47865000
0.16700000 0.55656254 0.51760626
0.16700000 0.55656254 0.55656254
0.16700000 0.55656254 0.59551877
0.16700000 0.55656254 0.63447499
0.16700000 0.55656254 0.67343128
0.16700000 0.55656254 0.71238750
0.16700000 0.55656254 0.75134379
0.16700000 0.55656254 0.79030001
0.16700000 0.59551877 0.16700000
0.16700000 0.59551877 0.20595625
0.16700000 0.59551877 0.24491251
0.16700000 0.59551877 0.28386873
0.16700000 0.59551877 0.32282501
0.16700000 0.59551877 0.36178124
0.16700000 0.59551877 0.40073749
0.16700000 0.59551877 0.43969375
0.16700000 0.59551877 0.47865000
0.16700000 0.59551877 0.51760626
0.16700000 0.59551877 0.55656254
0.16700000 0.59551877 0.59551877
0.16700000 0.59551877 0.63447499
0.16700000 0.59551877 0.67343128
0.16700000 0.59551877 0.71238750
0.16700000 0.59551877 0.75134379
0.16700000 0.59551877 0.79030001
0.16700000 0.63447499 0.16700000
0.16700000 0.63447499 0.20595625
0.16700000 0.63447499 0.24491251
0.16700000 0.63447499 0.28386873
0.16700000 0.63447499 0.32282501
0.16700000 0.63447499 0.36178124
0.16700000 0.63447499 0.40073749
0.16700000 0.63447499 0.43969375
0.16700000 0.63447499 0.47865000
0.16700000 0.63447499 0.51760626
0.16700000 0.63447499 0.55656254
0.16700000 0.63447499 0.59551877
0.16700000 0.63447499 0.63447499
0.16700000 0.63447499 0.67343128
0.16700000 0.63447499 0.71238750
0.16700000 0.63447499 0.75134379
0.16700000 0.63447499 0.79030001
0.16700000 0.67343128 0.16700000
0.16700000 0.67343128 0.20595625
0.16700000 0.67343128 0.24491251
0.16700000 0.67343128 0.28386873
0.16700000 0.67343128 0.32282501
0.16700000 0.67343128 0.36178124
0.16700000 0.67343128 0.40073749
0.16700000 0.67343128 0.43969375
0.16700000 0.67343128 0.47865000
0.16700000 0.67343128 0.51760626
0.16700000 0.67343128 0.55656254
0.16700000 0.67343128 0.59551877
0.16700000 0.67343128 0.63447499
0.16700000 0.67343128 0.67343128
0.16700000 0.67343128 0.71238750
0.16700000 0.67343128 0.75134379
0.16700000 0.67343128 0.79030001
0.16700000 0.71238750 0.16700000
0.16700000 0.71238750 0.20595625
0.16700000 0.71238750 0.24491251
0.16700000 0.71238750 0.28386873
0.16700000 0.71238750 0.32282501
0.16700000 0.71238750 0.36178124
0.16700000 0.71238750 0.40073749
0.16700000 0.71238750 0.43969375
0.16700000 0.71238750 0.47865000
0.16700000 0.71238750 0.51760626
0.16700000 0.71238750 0.55656254
0.16700000 0.71238750 0.59551877
0.16700000 0.71238750 0.63447499
0.16700000 0.71238750 0.67343128
0.16700000 0.71238750 0.71238750
0.16700000 0.71238750 0.75134379
0.16700000 0.71238750 0.79030001
0.16700000 0.75134379 0.16700000
0.16700000 0.75134379 0.20595625
0.16700000 0.75134379 0.24491251
0.16700000 0.75134379 0.28386873
0.16700000 0.75134379 0.32282501
0.16700000 0.75134379 0.36178124
0.16700000 0.75134379 0.40073749
0.16700000 0.75134379 0.43969375
0.16700000 0.75134379 0.47865000
0.16700000 0.75134379 0.51760626
0.16700000 0.75134379 0.55656254
0.16700000 0.75134379 0.59551877
0.16700000 0.75134379 0.63447499
0.16700000 0.75134379 0.67343128
0.16700000 0.75134379 0.71238750
0.16700000 0.75134379 0.75134379
0.16700000 0.75134379 0.79030001
0.16700000 0.79030001 0.16700000
0.16700000 0.79030001 0.20595625
0.16700000 0.79030001 0.24491251
0.16700000 0.79030001 0.28386873
0.16700000 0.79030001 0.32282501
0.16700000 0.79030001 0.36178124
0.16700000 0.79030001 0.40073749
0.16700000 0.79030001 0.43969375
0.16700000 0.79030001 0.47865000
0.16700000 0.79030001 0.51760626
0.16700000 0.79030001 0.55656254
0.16700000 0.79030001 0.59551877
0.16700000 0.79030001 0.63447499
0.16700000 0.79030001 0.67343128
0.16700000 0.79030001 0.71238750
0.16700000 0.79030001 0.75134379
0.16700000 0.79030001 0.79030001
0.20595625 0.16700000 0.16700000
0.20595625 0.16700000 0.20595625
0.20595625 0.16700000 0.24491251
0.20595625 0.16700000 0.28386873
0.20595625 0.16700000 0.32282501
0.20595625 0.16700000 0.36178124
0.20595625 0.16700000 0.40073749
0.20595625 0.16700000 0.43969375
0.20595625 0.16700000 0.47865000
0.20595625 0.16700000 0.51760626
0.20595625 0.16700000 0.55656254
0.20595625 0.16700000 0.59551877
0.20595625 0.16700000 0.63447499
0.20595625 0.16700000 0.67343128
0.20595625 0.16700000 0.71238750
0.20595625 0.16700000 0.75134379
0.20595625 0.16700000 0.79030001
0.20595625 0.20595625 0.16700000
0.20595625 0.20595625 0.20595625
0.20595625 0.20595625 0.24491251
0.20595625 0.20595625 0.28386873
0.20595625 0.20595625 0.32282501
0.20595625 0.20595625 0.36178124
0.20595625 0.20595625 0.40073749
0.20595625 0.20595625 0.43969375
0.20595625 0.20595625 0.47865000
0.20595625 0.20595625 0.51760626
0.20595625 0.20595625 0.55656254
0.20595625 0.20595625 0.59551877
0.20595625 0.20595625 0.63447499
0.20595625 0.20595625 0.67343128
0.20595625 0.20595625 0.71238750
0.20595625 0.20595625 0.75134379
0.20595625 0.20595625 0.79030001
0.20595625 0.24491251 0.16700000
0.20595625 0.24491251 0.20595625
0.20595625 0.24491251 0.24491251
0.20595625 0.24491251 0.28386873
0.20595625 0.24491251 0.32282501
0.20595625 0.24491251 0.36178124
0.20595625 0.24491251 0.40073749
0.20595625 0.24491251 0.43969375
0.20595625 0.24491251 0.47865000
0.20595625 0.24491251 0.51760626
0.20595625 0.24491251 0.55656254
0.20595625 0.24491251 0.59551877
0.20595625 0.24491251 0.63447499
0.20595625 0.24491251 0.67343128
0.20595625 0.24491251 0.71238750
0.20595625 0.24491251 0.75134379
0.20595625 0.24491251 0.79030001
0.20595625 0.28386873 0.16700000
0.20595625 0.28386873 0.20595625
0.20595625 0.28386873 0.24491251
0.20595625 0.28386873 0.28386873
0.20595625 0.28386873 0.32282501
0.20595625 0.28386873 0.36178124
0.20595625 0.28386873 0.40073749
0.20595625 0.28386873 0.43969375
0.20595625 0.28386873 0.47865000
0.20595625 0.28386873 0.51760626
0.20595625 0.28386873 0.55656254
0.20595625 0.28386873 0.59551877
0.20595625 0.28386873 0.63447499
0.20595625 0.28386873 0.67343128
0.20595625 0.28386873 0.71238750
0.20595625 0.28386873 0.75134379
0.20595625 0.28386873 0.79030001
0.20595625 0.32282501 0.16700000
0.20595625 0.32282501 0.20595625
0.20595625 0.32282501 0.24491251
0.20595625 0.32282501 0.28386873
0.20595625 0.32282501 0.32282501
0.20595625 0.32282501 0.36178124
0.20595625 0.32282501 0.40073749
0.20595625 0.32282501 0.43969375
0.20595625 0.32282501 0.47865000
0.20595625 0.32282501 0.51760626
0.20595625 0.32282501 0.55656254
0.20595625 0.32282501 0.59551877
0.20595625 0.32282501 0.63447499
0.20595625 0.32282501 0.67343128
0.20595625 0.32282501 0.71238750
0.20595625 0.32282501 0.75134379
0.20595625 0.32282501 0.79030001
0.20595625 0.36178124 0.16700000
0.20595625 0.36178124 0.20595625
0.20595625 0.36178124 0.24491251
0.20595625 0.36178124 0.28386873
0.20595625 0.36178124 0.32282501
0.20595625 0.36178124 0.36178124
0.20595625 0.36178124 0.40073749
0.20595625 0.36178124 0.43969375
0.20595625 0.36178124 0.47865000
0.20595625 0.36178124 0.51760626
0.20595625 0.36178124 0.55656254
0.20595625 0.36178124 0.59551877
0.20595625 0.36178124 0.63447499
0.20595625 0.36178124 0.67343128
0.20595625 0.36178124 0.71238750
0.20595625 0.36178124 0.75134379
0.20595625 0.36178124 0.79030001
0.20595625 0.40073749 0.16700000
0.20595625 0.40073749 0.20595625
0.20595625 0.40073749 0.24491251
0.20595625 0.40073749 0.28386873
0.20595625 0.40073749 0.32282501
0.20595625 0.40073749 0.36178124
0.20595625 0.40073749 0.40073749
0.20595625 0.40073749 0.43969375
0.20595625 0.40073749 0.47865000
0.20595625 0.40073749 0.51760626
0.20595625 0.40073749 0.55656254
0.20595625 0.40073749 0.59551877
0.20595625 0.40073749 0.63447499
0.20595625 0.40073749 0.67343128
0.20595625 0.40073749 0.71238750
0.20595625 0.40073749 0.75134379
0.20595625 0.40073749 0.79030001
0.20595625 0.43969375 0.16700000
0.20595625 0.43969375 0.20595625
0.20595625 0.43969375 0.24491251
0.20595625 0.43969375 0.28386873
0.20595625 0.43969375 0.32282501
0.20595625 0.43969375 0.36178124
0.20595625 0.43969375 0.40073749
0.20595625 0.43969375 0.43969375
0.20595625 0.43969375 0.47865000
0.20595625 0.43969375 0.51760626
0.20595625 0.43969375 0.55656254
0.20595625 0.43969375 0.59551877
0.20595625 0.43969375 0.63447499
0.20595625 0.43969375 0.67343128
0.20595625 0.43969375 0.71238750
0.20595625 0.43969375 0.75134379
0.20595625 0.43969375 0.79030001
0.20595625 0.47865000 0.16700000
0.20595625 0.47865000 0.20595625
0.20595625 0.47865000 0.24491251
0.20595625 0.47865000 0.28386873
0.20595625 0.47865000 0.32282501
0.20595625 0.47865000 0.36178124
0.20595625 0.47865000 0.40073749
0.20595625 0.47865000 0.43969375
0.20595625 0.47865000 0.47865000
0.20595625 0.47865000 0.51760626
0.20595625 0.47865000 0.55656254
0.20595625 0.47865000 0.59551877
0.20595625 0.47865000 0.63447499
0.20595625 0.47865000 0.67343128
0.20595625 0.47865000 0.71238750
0.20595625 0.47865000 0.75134379
0.20595625 0.47865000 0.79030001
0.20595625 0.51760626 0.16700000
0.20595625 0.51760626 0.20595625
0.20595625 0.51760626 0.24491251
0.20595625 0.51760626 0.28386873
0.20595625 0.51760626 0.32282501
0.20595625 0.51760626 0.36178124
0.20595625 0.51760626 0.40073749
0.20595625 0.51760626 0.43969375
0.20595625 0.51760626 0.47865000
0.20595625 0.51760626 0.51760626
0.20595625 0.51760626 0.55656254
0.20595625 0.51760626 0.59551877
0.20595625 0.51760626 0.63447499
0.20595625 0.51760626 0.67343128
0.20595625 0.51760626 0.71238750
0.20595625 0.51760626 0.75134379
0.20595625 0.51760626 0.79030001
0.20595625 0.55656254 0.16700000
0.20595625 0.55656254 0.20595625
0.20595625 0.55656254 0.24491251
0.20595625 0.55656254 0.28386873
0.20595625 0.55656254 0.32282501
0.20595625 0.55656254 0.36178124
0.20595625 0.55656254 0.40073749
0.20595625 0.55656254 0.43969375
0.20595625 0.55656254 0.47865000
0.20595625 0.55656254 0.51760626
0.20595625 0.55656254 0.55656254
0.20595625 0.55656254 0.59551877
0.20595625 0.55656254 0.63447499
0.20595625 0.55656254 0.67343128
0.20595625 0.55656254 0.71238750
0.20595625 0.55656254 0.75134379
0.20595625 0.55656254 0.79030001
0.20595625 0.59551877 0.16700000
0.20595625 0.59551877 0.20595625
0.20595625 0.59551877 0.24491251
0.20595625 0.59551877 0.28386873
0.20595625 0.59551877 0.32282501
0.20595625 0.59551877 0.36178124
0.20595625 0.59551877 0.40073749
0.20595625 0.59551877 0.43969375
0.20595625 0.59551877 0.47865000
0.20595625 0.59551877 0.51760626
0.20595625 0.59551877 0.55656254
0.20595625 0.59551877 0.59551877
0.20595625 0.59551877 0.63447499
0.20595625 0.59551877 0.67343128
0.20595625 0.59551877 0.71238750
0.20595625 0.59551877 0.75134379
0.20595625 0.59551877 0.79030001
0.20595625 0.63447499 0.16700000
0.20595625 0.63447499 0.20595625
0.20595625 0.63447499 0.24491251
0.20595625 0.63447499 0.28386873
0.20595625 0.63447499 0.32282501
0.20595625 0.63447499 0.36178124
0.20595625 0.63447499 0.40073749
0.20595625 0.63447499 0.43969375
0.20595625 0.63447499 0.47865000
0.20595625 0.63447499 0.51760626
0.20595625 0.63447499 0.55656254
0.20595625 0.63447499 0.59551877
0.20595625 0.63447499 0.63447499
0.20595625 0.63447499 0.67343128
0.20595625 0.63447499 0.71238750
0.20595625 0.63447499 0.75134379
0.20595625 0.63447499 0.79030001
0.20595625 0.67343128 0.16700000
0.20595625 0.67343128 0.20595625
0.20595625 0.67343128 0.24491251
0.20595625 0.67343128 0.28386873
0.20595625 0.67343128 0.32282501
0.20595625 0.67343128 0.36178124
0.20595625 0.67343128 0.40073749
0.20595625 0.67343128 0.43969375
0.20595625 0.67343128 0.47865000
0.20595625 0.67343128 0.51760626
0.20595625 0.67343128 0.55656254
0.20595625 0.67343128 0.59551877
0.20595625 0.67343128 0.63447499
0.20595625 0.67343128 0.67343128
0.20595625 0.67343128 0.71238750
0.20595625 0.67343128 0.75134379
0.20595625 0.67343128 0.79030001
0.20595625 0.71238750 0.16700000
0.20595625 0.71238750 0.20595625
0.20595625 0.71238750 0.24491251
0.20595625 0.71238750 0.28386873
0.20595625 0.71238750 0.32282501
0.20595625 0.71238750 0.36178124
0.20595625 0.71238750 0.40073749
0.20595625 0.71238750 0.43969375
0.20595625 0.71238750 0.47865000
0.20595625 0.71238750 0.51760626
0.20595625 0.71238750 0.55656254
0.20595625 0.71238750 0.59551877
0.20595625 0.71238750 0.63447499
0.20595625 0.71238750 0.67343128
0.20595625 0.71238750 0.71238750
0.20595625 0.71238750 0.75134379
0.20595625 0.71238750 0.79030001
0.20595625 0.75134379 0.16700000
0.20595625 0.75134379 0.20595625
0.20595625 0.75134379 0.24491251
0.20595625 0.75134379 0.28386873
0.20595625 0.75134379 0.32282501
0.20595625 0.75134379 0.36178124
0.20595625 0.75134379 0.40073749
0.20595625 0.75134379 0.43969375
0.20595625 0.75134379 0.47865000
0.20595625 0.75134379 0.51760626
0.20595625 0.75134379 0.55656254
0.20595625 0.75134379 0.59551877
0.20595625 0.75134379 0.63447499
0.20595625 0.75134379 0.67343128
0.20595625 0.75134379 0.71238750
0.20595625 0.75134379 0.75134379
0.20595625 0.75134379 0.79030001
0.20595625 0.79030001 0.16700000
0.20595625 0.79030001 0.20595625
0.20595625 0.79030001 0.24491251
0.20595625 0.79030001 0.28386873
0.20595625 0.79030001 0.32282501
0.20595625 0.79030001 0.36178124
0.20595625 0.79030001 0.40073749
0.20595625 0.79030001 0.43969375
0.20595625 0.79030001 0.47865000
0.20595625 0.79030001 0.51760626
0.20595625 0.79030001 0.55656254
0.20595625 0.79030001 0.59551877
0.20595625 0.79030001 0.63447499
0.20595625 0.79030001 0.67343128
0.20595625 0.79030001 0.71238750
0.20595625 0.79030001 0.75134379
0.20595625 0.79030001 0.79030001
0.24491251 0.16700000 0.16700000
0.24491251 0.16700000 0.20595625
0.24491251 0.16700000 0.24491251
0.24491251 0.16700000 0.28386873
0.24491251 0.16700000 0.32282501
0.24491251 0.16700000 0.36178124
0.24491251 0.16700000 0.40073749
0.24491251 0.16700000 0.43969375
0.24491251 0.16700000 0.47865000
0.24491251 0.16700000 0.51760626
0.24491251 0.16700000 0.55656254
0.24491251 0.16700000 0.59551877
0.24491251 0.16700000 0.63447499
0.24491251 0.16700000 0.67343128
0.24491251 0.16700000 0.71238750
0.24491251 0.16700000 0.75134379
0.24491251 0.16700000 0.79030001
0.24491251 0.20595625 0.16700000
0.24491251 0.20595625 0.20595625
0.24491251 0.20595625 0.24491251
0.24491251 0.20595625 0.28386873
0.24491251 0.20595625 0.32282501
0.24491251 0.20595625 0.36178124
0.24491251 0.20595625 0.40073749
0.24491251 0.20595625 0.43969375
0.24491251 0.20595625 0.47865000
0.24491251 0.20595625 0.51760626
0.24491251 0.20595625 0.55656254
0.24491251 0.20595625 0.59551877
0.24491251 0.20595625 0.63447499
0.24491251 0.20595625 0.67343128
0.24491251 0.20595625 0.71238750
0.24491251 0.20595625 0.75134379
0.24491251 0.20595625 0.79030001
0.24491251 0.24491251 0.16700000
0.24491251 0.24491251 0.20595625
0.24491251 0.24491251 0.24491251
0.24491251 0.24491251 0.28386873
0.24491251 0.24491251 0.32282501
0.24491251 0.24491251 0.36178124
0.24491251 0.24491251 0.40073749
0.24491251 0.24491251 0.43969375
0.24491251 0.24491251 0.47865000
0.24491251 0.24491251 0.51760626
0.24491251 0.24491251 0.55656254
0.24491251 0.24491251 0.59551877
0.24491251 0.24491251 0.63447499
0.24491251 0.24491251 0.67343128
0.24491251 0.24491251 0.71238750
0.24491251 0.24491251 0.75134379
0.24491251 0.24491251 0.79030001
0.24491251 0.28386873 0.16700000
0.24491251 0.28386873 0.20595625
0.24491251 0.28386873 0.24491251
0.24491251 0.28386873 0.28386873
0.24491251 0.28386873 0.32282501
0.24491251 0.28386873 0.36178124
0.24491251 0.28386873 0.40073749
0.24491251 0.28386873 0.43969375
0.24491251 0.28386873 0.47865000
0.24491251 0.28386873 0.51760626
0.24491251 0.28386873 0.55656254
0.24491251 0.28386873 0.59551877
0.24491251 0.28386873 0.63447499
0.24491251 0.28386873 0.67343128
0.24491251 0.28386873 0.71238750
0.24491251 0.28386873 0.75134379
0.24491251 0.28386873 0.79030001
0.24491251 0.32282501 0.16700000
0.24491251 0.32282501 0.20595625
0.24491251 0.32282501 0.24491251
0.24491251 0.32282501 0.28386873
0.24491251 0.32282501 0.32282501
0.24491251 0.32282501 0.36178124
0.24491251 0.32282501 0.40073749
0.24491251 0.32282501 0.43969375
0.24491251 0.32282501 0.47865000
0.24491251 0.32282501 0.51760626
0.24491251 0.32282501 0.55656254
0.24491251 0.32282501 0.59551877
0.24491251 0.32282501 0.63447499
0.24491251 0.32282501 0.67343128
0.24491251 0.32282501 0.71238750
0.24491251 0.32282501 0.75134379
0.24491251 0.32282501 0.79030001
0.24491251 0.36178124 0.16700000
0.24491251 0.36178124 0.20595625
0.24491251 0.36178124 0.24491251
0.24491251 0.36178124 0.28386873
0.24491251 0.36178124 0.32282501
0.24491251 0.36178124 0.36178124
0.24491251 0.36178124 0.40073749
0.24491251 0.36178124 0.43969375
0.24491251 0.36178124 0.47865000
0.24491251 0.36178124 0.51760626
0.24491251 0.36178124 0.55656254
0.24491251 0.36178124 0.59551877
0.24491251 0.36178124 0.63447499
0.24491251 0.36178124 0.67343128
0.24491251 0.36178124 0.71238750
0.24491251 0.36178124 0.75134379
0.24491251 0.36178124 0.79030001
0.24491251 0.40073749 0.16700000
0.24491251 0.40073749 0.20595625
0.24491251 0.40073749 0.24491251
0.24491251 0.40073749 0.28386873
0.24491251 0.40073749 0.32282501
0.24491251 0.40073749 0.36178124
0.24491251 0.40073749 0.40073749
0.24491251 0.40073749 0.43969375
0.24491251 0.40073749 0.47865000
0.24491251 0.40073749 0.51760626
0.24491251 0.40073749 0.55656254
0.24491251 0.40073749 0.59551877
0.24491251 0.40073749 0.63447499
0.24491251 0.40073749 0.67343128
0.24491251 0.40073749 0.71238750
0.24491251 0.40073749 0.75134379
0.24491251 0.40073749 0.79030001
0.24491251 0.43969375 0.16700000
0.24491251 0.43969375 0.20595625
0.24491251 0.43969375 0.24491251
0.24491251 0.43969375 0.28386873
0.24491251 0.43969375 0.32282501
0.24491251 0.43969375 0.36178124
0.24491251 0.43969375 0.40073749
0.24491251 0.43969375 0.43969375
0.24491251 0.43969375 0.47865000
0.24491251 0.43969375 0.51760626
0.24491251 0.43969375 0.55656254
0.24491251 0.43969375 0.59551877
0.24491251 0.43969375 0.63447499
0.24491251 0.43969375 0.67343128
0.24491251 0.43969375 0.71238750
0.24491251 0.43969375 0.75134379
0.24491251 0.43969375 0.79030001
0.24491251 0.47865000 0.16700000
0.24491251 0.47865000 0.20595625
0.24491251 0.47865000 0.24491251
