graphics/cube/XYZ_float-D65_2deg-Part1_428.cube
TITLE "QA_XYZ_float-D65_2deg-Part1_428"
# Copyright (c) 2026 @xsscx David H Hoyt LLC
# https://xss.cx
# Profiles applied (by profile description):
# - Float encoding of CIEXYZ for standard 2deg observer under D65 illuminant using Wpt based MAT PCC
LUT_3D_SIZE 54
LUT_3D_INPUT_RANGE 0.2 0.8
0.1 0.1 0.1
0.1 0.1 0.1
0.1 0.1 0.1
0.1 0.1 0.1
0.1 0.1 0.1
0.1 0.1 0.1
0.1 0.1 0.2
0.1 0.1 0.2
0.1 0.1 0.2
0.1 0.1 0.2
0.1 0.1 0.2
0.1 0.1 0.2
0.1 0.1 0.2
0.1 0.1 0.2
0.1 0.1 0.2
0.1 0.1 0.2
0.1 0.1 0.2
0.1 0.1 0.2
0.1 0.1 0.3
0.1 0.1 0.3
0.1 0.1 0.3
0.1 0.1 0.3
0.1 0.1 0.3
0.1 0.1 0.3
0.1 0.1 0.3
0.1 0.1 0.3
0.1 0.1 0.3
0.1 0.1 0.3
0.1 0.1 0.3
0.1 0.1 0.3
0.1 0.1 0.4
0.1 0.1 0.4
0.1 0.1 0.4
0.1 0.1 0.4
0.1 0.1 0.4
0.1 0.1 0.4
0.1 0.1 0.4
0.1 0.1 0.4
0.1 0.1 0.4
0.1 0.1 0.4
0.1 0.1 0.4
0.1 0.1 0.4
0.1 0.1 0.4
0.1 0.1 0.5
0.1 0.1 0.5
0.1 0.1 0.5
0.1 0.1 0.5
0.1 0.1 0.5
0.1 0.1 0.5
0.1 0.1 0.5
0.1 0.1 0.5
0.1 0.1 0.5
0.1 0.1 0.5
0.1 0.1 0.5
0.1 0.1 0.1
0.1 0.1 0.1
0.1 0.1 0.1
0.1 0.1 0.1
0.1 0.1 0.1
0.1 0.1 0.1
0.1 0.1 0.2
0.1 0.1 0.2
0.1 0.1 0.2
0.1 0.1 0.2
0.1 0.1 0.2
0.1 0.1 0.2
0.1 0.1 0.2
0.1 0.1 0.2
0.1 0.1 0.2
0.1 0.1 0.2
0.1 0.1 0.2
0.1 0.1 0.2
0.1 0.1 0.3
0.1 0.1 0.3
0.1 0.1 0.3
0.1 0.1 0.3
0.1 0.1 0.3
0.1 0.1 0.3
0.1 0.1 0.3
0.1 0.1 0.3
0.1 0.1 0.3
0.1 0.1 0.3
0.1 0.1 0.3
0.1 0.1 0.3
0.1 0.1 0.4
0.1 0.1 0.4
0.1 0.1 0.4
0.1 0.1 0.4
0.1 0.1 0.4
0.1 0.1 0.4
0.1 0.1 0.4
0.1 0.1 0.4
0.1 0.1 0.4
0.1 0.1 0.4
0.1 0.1 0.4
0.1 0.1 0.4
0.1 0.1 0.4
0.1 0.1 0.5
0.1 0.1 0.5
0.1 0.1 0.5
0.1 0.1 0.5
0.1 0.1 0.5
0.1 0.1 0.5
0.1 0.1 0.5
0.1 0.1 0.5
0.1 0.1 0.5
0.1 0.1 0.5
0.1 0.1 0.5
0.1 0.1 0.1
0.1 0.1 0.1
0.1 0.1 0.1
0.1 0.1 0.1
0.1 0.1 0.1
0.1 0.1 0.1
0.1 0.1 0.2
0.1 0.1 0.2
0.1 0.1 0.2
0.1 0.1 0.2
0.1 0.1 0.2
0.1 0.1 0.2
0.1 0.1 0.2
0.1 0.1 0.2
0.1 0.1 0.2
0.1 0.1 0.2
0.1 0.1 0.2
0.1 0.1 0.2
0.1 0.1 0.3
0.1 0.1 0.3
0.1 0.1 0.3
0.1 0.1 0.3
0.1 0.1 0.3
0.1 0.1 0.3
0.1 0.1 0.3
0.1 0.1 0.3
0.1 0.1 0.3
0.1 0.1 0.3
0.1 0.1 0.3
0.1 0.1 0.3
0.1 0.1 0.4
0.1 0.1 0.4
0.1 0.1 0.4
0.1 0.1 0.4
0.1 0.1 0.4
0.1 0.1 0.4
0.1 0.1 0.4
0.1 0.1 0.4
0.1 0.1 0.4
0.1 0.1 0.4
0.1 0.1 0.4
0.1 0.1 0.4
0.1 0.1 0.4
0.1 0.1 0.5
0.1 0.1 0.5
0.1 0.1 0.5
0.1 0.1 0.5
0.1 0.1 0.5
0.1 0.1 0.5
0.1 0.1 0.5
0.1 0.1 0.5
0.1 0.1 0.5
0.1 0.1 0.5
0.1 0.1 0.5
0.1 0.1 0.1
0.1 0.1 0.1
0.1 0.1 0.1
0.1 0.1 0.1
0.1 0.1 0.1
0.1 0.1 0.1
0.1 0.1 0.2
0.1 0.1 0.2
0.1 0.1 0.2
0.1 0.1 0.2
0.1 0.1 0.2
0.1 0.1 0.2
0.1 0.1 0.2
0.1 0.1 0.2
0.1 0.1 0.2
0.1 0.1 0.2
0.1 0.1 0.2
0.1 0.1 0.2
0.1 0.1 0.3
0.1 0.1 0.3
0.1 0.1 0.3
0.1 0.1 0.3
0.1 0.1 0.3
0.1 0.1 0.3
0.1 0.1 0.3
0.1 0.1 0.3
0.1 0.1 0.3
0.1 0.1 0.3
0.1 0.1 0.3
0.1 0.1 0.3
0.1 0.1 0.4
0.1 0.1 0.4
0.1 0.1 0.4
0.1 0.1 0.4
0.1 0.1 0.4
0.1 0.1 0.4
0.1 0.1 0.4
0.1 0.1 0.4
0.1 0.1 0.4
0.1 0.1 0.4
0.1 0.1 0.4
0.1 0.1 0.4
0.1 0.1 0.4
0.1 0.1 0.5
0.1 0.1 0.5
0.1 0.1 0.5
0.1 0.1 0.5
0.1 0.1 0.5
0.1 0.1 0.5
0.1 0.1 0.5
0.1 0.1 0.5
0.1 0.1 0.5
0.1 0.1 0.5
0.1 0.1 0.5
0.1 0.1 0.1
0.1 0.1 0.1
0.1 0.1 0.1
0.1 0.1 0.1
0.1 0.1 0.1
0.1 0.1 0.1
0.1 0.1 0.2
0.1 0.1 0.2
0.1 0.1 0.2
0.1 0.1 0.2
0.1 0.1 0.2
0.1 0.1 0.2
0.1 0.1 0.2
0.1 0.1 0.2
0.1 0.1 0.2
0.1 0.1 0.2
0.1 0.1 0.2
0.1 0.1 0.2
0.1 0.1 0.3
0.1 0.1 0.3
0.1 0.1 0.3
0.1 0.1 0.3
0.1 0.1 0.3
0.1 0.1 0.3
0.1 0.1 0.3
0.1 0.1 0.3
0.1 0.1 0.3
0.1 0.1 0.3
0.1 0.1 0.3
0.1 0.1 0.3
0.1 0.1 0.4
0.1 0.1 0.4
0.1 0.1 0.4
0.1 0.1 0.4
0.1 0.1 0.4
0.1 0.1 0.4
0.1 0.1 0.4
0.1 0.1 0.4
0.1 0.1 0.4
0.1 0.1 0.4
0.1 0.1 0.4
0.1 0.1 0.4
0.1 0.1 0.4
0.1 0.1 0.5
0.1 0.1 0.5
0.1 0.1 0.5
0.1 0.1 0.5
0.1 0.1 0.5
0.1 0.1 0.5
0.1 0.1 0.5
0.1 0.1 0.5
0.1 0.1 0.5
0.1 0.1 0.5
0.1 0.1 0.5
0.1 0.1 0.1
0.1 0.1 0.1
0.1 0.1 0.1
0.1 0.1 0.1
0.1 0.1 0.1
0.1 0.1 0.1
0.1 0.1 0.2
0.1 0.1 0.2
0.1 0.1 0.2
0.1 0.1 0.2
0.1 0.1 0.2
0.1 0.1 0.2
0.1 0.1 0.2
0.1 0.1 0.2
0.1 0.1 0.2
0.1 0.1 0.2
0.1 0.1 0.2
0.1 0.1 0.2
0.1 0.1 0.3
0.1 0.1 0.3
0.1 0.1 0.3
0.1 0.1 0.3
0.1 0.1 0.3
0.1 0.1 0.3
0.1 0.1 0.3
0.1 0.1 0.3
0.1 0.1 0.3
0.1 0.1 0.3
0.1 0.1 0.3
0.1 0.1 0.3
0.1 0.1 0.4
0.1 0.1 0.4
0.1 0.1 0.4
0.1 0.1 0.4
0.1 0.1 0.4
0.1 0.1 0.4
0.1 0.1 0.4
0.1 0.1 0.4
0.1 0.1 0.4
0.1 0.1 0.4
0.1 0.1 0.4
0.1 0.1 0.4
0.1 0.1 0.4
0.1 0.1 0.5
0.1 0.1 0.5
0.1 0.1 0.5
0.1 0.1 0.5
0.1 0.1 0.5
0.1 0.1 0.5
0.1 0.1 0.5
0.1 0.1 0.5
0.1 0.1 0.5
0.1 0.1 0.5
0.1 0.1 0.5
0.1 0.1 0.1
0.1 0.1 0.1
0.1 0.1 0.1
0.1 0.1 0.1
0.1 0.1 0.1
0.1 0.1 0.1
0.1 0.1 0.2
0.1 0.1 0.2
0.1 0.1 0.2
0.1 0.1 0.2
0.1 0.1 0.2
0.1 0.1 0.2
0.1 0.1 0.2
0.1 0.1 0.2
0.1 0.1 0.2
0.1 0.1 0.2
0.1 0.1 0.2
0.1 0.1 0.2
0.1 0.1 0.3
0.1 0.1 0.3
0.1 0.1 0.3
0.1 0.1 0.3
0.1 0.1 0.3
0.1 0.1 0.3
0.1 0.1 0.3
0.1 0.1 0.3
0.1 0.1 0.3
0.1 0.1 0.3
0.1 0.1 0.3
0.1 0.1 0.3
0.1 0.1 0.4
0.1 0.1 0.4
0.1 0.1 0.4
0.1 0.1 0.4
0.1 0.1 0.4
0.1 0.1 0.4
0.1 0.1 0.4
0.1 0.1 0.4
0.1 0.1 0.4
0.1 0.1 0.4
0.1 0.1 0.4
0.1 0.1 0.4
0.1 0.1 0.4
0.1 0.1 0.5
0.1 0.1 0.5
0.1 0.1 0.5
0.1 0.1 0.5
0.1 0.1 0.5
0.1 0.1 0.5
0.1 0.1 0.5
0.1 0.1 0.5
0.1 0.1 0.5
0.1 0.1 0.5
0.1 0.1 0.5
0.1 0.1 0.1
0.1 0.1 0.1
0.1 0.1 0.1
0.1 0.1 0.1
0.1 0.1 0.1
0.1 0.1 0.1
0.1 0.1 0.2
0.1 0.1 0.2
0.1 0.1 0.2
0.1 0.1 0.2
0.1 0.1 0.2
0.1 0.1 0.2
0.1 0.1 0.2
0.1 0.1 0.2
0.1 0.1 0.2
0.1 0.1 0.2
0.1 0.1 0.2
0.1 0.1 0.2
0.1 0.1 0.3
0.1 0.1 0.3
0.1 0.1 0.3
0.1 0.1 0.3
0.1 0.1 0.3
0.1 0.1 0.3
0.1 0.1 0.3
0.1 0.1 0.3
0.1 0.1 0.3
0.1 0.1 0.3
0.1 0.1 0.3
0.1 0.1 0.3
0.1 0.1 0.4
0.1 0.1 0.4
0.1 0.1 0.4
0.1 0.1 0.4
0.1 0.1 0.4
0.1 0.1 0.4
0.1 0.1 0.4
0.1 0.1 0.4
0.1 0.1 0.4
0.1 0.1 0.4
0.1 0.1 0.4
0.1 0.1 0.4
0.1 0.1 0.4
0.1 0.1 0.5
0.1 0.1 0.5
0.1 0.1 0.5
0.1 0.1 0.5
0.1 0.1 0.5
0.1 0.1 0.5
0.1 0.1 0.5
0.1 0.1 0.5
0.1 0.1 0.5
0.1 0.1 0.5
0.1 0.1 0.5
0.1 0.1 0.1
0.1 0.1 0.1
0.1 0.1 0.1
0.1 0.1 0.1
0.1 0.1 0.1
0.1 0.1 0.1
0.1 0.1 0.2
0.1 0.1 0.2
0.1 0.1 0.2
0.1 0.1 0.2
0.1 0.1 0.2
0.1 0.1 0.2
0.1 0.1 0.2
0.1 0.1 0.2
0.1 0.1 0.2
0.1 0.1 0.2
0.1 0.1 0.2
0.1 0.1 0.2
0.1 0.1 0.3
0.1 0.1 0.3
0.1 0.1 0.3
0.1 0.1 0.3
0.1 0.1 0.3
0.1 0.1 0.3
0.1 0.1 0.3
0.1 0.1 0.3
0.1 0.1 0.3
0.1 0.1 0.3
0.1 0.1 0.3
0.1 0.1 0.3
0.1 0.1 0.4
0.1 0.1 0.4
0.1 0.1 0.4
0.1 0.1 0.4
0.1 0.1 0.4
0.1 0.1 0.4
0.1 0.1 0.4
0.1 0.1 0.4
0.1 0.1 0.4
0.1 0.1 0.4
0.1 0.1 0.4
0.1 0.1 0.4
0.1 0.1 0.4
0.1 0.1 0.5
0.1 0.1 0.5
0.1 0.1 0.5
0.1 0.1 0.5
0.1 0.1 0.5
0.1 0.1 0.5
0.1 0.1 0.5
0.1 0.1 0.5
0.1 0.1 0.5
0.1 0.1 0.5
0.1 0.1 0.5
0.1 0.1 0.1
0.1 0.1 0.1
0.1 0.1 0.1
0.1 0.1 0.1
0.1 0.1 0.1
0.1 0.1 0.1
0.1 0.1 0.2
0.1 0.1 0.2
0.1 0.1 0.2
0.1 0.1 0.2
0.1 0.1 0.2
0.1 0.1 0.2
0.1 0.1 0.2
0.1 0.1 0.2
0.1 0.1 0.2
0.1 0.1 0.2
0.1 0.1 0.2
0.1 0.1 0.2
0.1 0.1 0.3
0.1 0.1 0.3
0.1 0.1 0.3
0.1 0.1 0.3
0.1 0.1 0.3
0.1 0.1 0.3
0.1 0.1 0.3
0.1 0.1 0.3
0.1 0.1 0.3
0.1 0.1 0.3
0.1 0.1 0.3
0.1 0.1 0.3
0.1 0.1 0.4
0.1 0.1 0.4
0.1 0.1 0.4
0.1 0.1 0.4
0.1 0.1 0.4
0.1 0.1 0.4
0.1 0.1 0.4
0.1 0.1 0.4
0.1 0.1 0.4
0.1 0.1 0.4
0.1 0.1 0.4
0.1 0.1 0.4
0.1 0.1 0.4
0.1 0.1 0.5
0.1 0.1 0.5
0.1 0.1 0.5
0.1 0.1 0.5
0.1 0.1 0.5
0.1 0.1 0.5
0.1 0.1 0.5
0.1 0.1 0.5
0.1 0.1 0.5
0.1 0.1 0.5
0.1 0.1 0.5
0.1 0.1 0.1
0.1 0.1 0.1
0.1 0.1 0.1
0.1 0.1 0.1
0.1 0.1 0.1
0.1 0.1 0.1
0.1 0.1 0.2
0.1 0.1 0.2
0.1 0.1 0.2
0.1 0.1 0.2
0.1 0.1 0.2
0.1 0.1 0.2
0.1 0.1 0.2
0.1 0.1 0.2
0.1 0.1 0.2
0.1 0.1 0.2
0.1 0.1 0.2
0.1 0.1 0.2
0.1 0.1 0.3
0.1 0.1 0.3
0.1 0.1 0.3
0.1 0.1 0.3
0.1 0.1 0.3
0.1 0.1 0.3
0.1 0.1 0.3
0.1 0.1 0.3
0.1 0.1 0.3
0.1 0.1 0.3
0.1 0.1 0.3
0.1 0.1 0.3
0.1 0.1 0.4
0.1 0.1 0.4
0.1 0.1 0.4
0.1 0.1 0.4
0.1 0.1 0.4
0.1 0.1 0.4
0.1 0.1 0.4
0.1 0.1 0.4
0.1 0.1 0.4
0.1 0.1 0.4
0.1 0.1 0.4
0.1 0.1 0.4
0.1 0.1 0.4
0.1 0.1 0.5
0.1 0.1 0.5
0.1 0.1 0.5
0.1 0.1 0.5
0.1 0.1 0.5
0.1 0.1 0.5
0.1 0.1 0.5
0.1 0.1 0.5
0.1 0.1 0.5
0.1 0.1 0.5
0.1 0.1 0.5
0.1 0.1 0.1
0.1 0.1 0.1
0.1 0.1 0.1
0.1 0.1 0.1
0.1 0.1 0.1
0.1 0.1 0.1
0.1 0.1 0.2
0.1 0.1 0.2
0.1 0.1 0.2
0.1 0.1 0.2
0.1 0.1 0.2
0.1 0.1 0.2
0.1 0.1 0.2
0.1 0.1 0.2
0.1 0.1 0.2
0.1 0.1 0.2
0.1 0.1 0.2
0.1 0.1 0.2
0.1 0.1 0.3
0.1 0.1 0.3
0.1 0.1 0.3
0.1 0.1 0.3
0.1 0.1 0.3
0.1 0.1 0.3
0.1 0.1 0.3
0.1 0.1 0.3
0.1 0.1 0.3
0.1 0.1 0.3
0.1 0.1 0.3
0.1 0.1 0.3
0.1 0.1 0.4
0.1 0.1 0.4
0.1 0.1 0.4
0.1 0.1 0.4
0.1 0.1 0.4
0.1 0.1 0.4
0.1 0.1 0.4
0.1 0.1 0.4
0.1 0.1 0.4
0.1 0.1 0.4
0.1 0.1 0.4
0.1 0.1 0.4
0.1 0.1 0.4
0.1 0.1 0.5
0.1 0.1 0.5
0.1 0.1 0.5
0.1 0.1 0.5
0.1 0.1 0.5
0.1 0.1 0.5
0.1 0.1 0.5
0.1 0.1 0.5
0.1 0.1 0.5
0.1 0.1 0.5
0.1 0.1 0.5
0.1 0.2 0.1
0.1 0.2 0.1
0.1 0.2 0.1
0.1 0.2 0.1
0.1 0.2 0.1
0.1 0.2 0.1
0.1 0.2 0.2
0.1 0.2 0.2
0.1 0.2 0.2
0.1 0.2 0.2
0.1 0.2 0.2
0.1 0.2 0.2
0.1 0.2 0.2
0.1 0.2 0.2
0.1 0.2 0.2
0.1 0.2 0.2
0.1 0.2 0.2
0.1 0.2 0.2
0.1 0.2 0.3
0.1 0.2 0.3
0.1 0.2 0.3
0.1 0.2 0.3
0.1 0.2 0.3
0.1 0.2 0.3
0.1 0.2 0.3
0.1 0.2 0.3
0.1 0.2 0.3
0.1 0.2 0.3
0.1 0.2 0.3
0.1 0.2 0.3
0.1 0.2 0.4
0.1 0.2 0.4
0.1 0.2 0.4
0.1 0.2 0.4
0.1 0.2 0.4
0.1 0.2 0.4
0.1 0.2 0.4
0.1 0.2 0.4
0.1 0.2 0.4
0.1 0.2 0.4
0.1 0.2 0.4
0.1 0.2 0.4
0.1 0.2 0.4
0.1 0.2 0.5
0.1 0.2 0.5
0.1 0.2 0.5
0.1 0.2 0.5
0.1 0.2 0.5
0.1 0.2 0.5
0.1 0.2 0.5
0.1 0.2 0.5
0.1 0.2 0.5
0.1 0.2 0.5
0.1 0.2 0.5
0.1 0.2 0.1
0.1 0.2 0.1
0.1 0.2 0.1
0.1 0.2 0.1
0.1 0.2 0.1
0.1 0.2 0.1
0.1 0.2 0.2
0.1 0.2 0.2
0.1 0.2 0.2
0.1 0.2 0.2
0.1 0.2 0.2
0.1 0.2 0.2
0.1 0.2 0.2
0.1 0.2 0.2
0.1 0.2 0.2
0.1 0.2 0.2
0.1 0.2 0.2
0.1 0.2 0.2
0.1 0.2 0.3
0.1 0.2 0.3
0.1 0.2 0.3
0.1 0.2 0.3
0.1 0.2 0.3
0.1 0.2 0.3
0.1 0.2 0.3
0.1 0.2 0.3
0.1 0.2 0.3
0.1 0.2 0.3
0.1 0.2 0.3
0.1 0.2 0.3
0.1 0.2 0.4
0.1 0.2 0.4
0.1 0.2 0.4
0.1 0.2 0.4
0.1 0.2 0.4
0.1 0.2 0.4
0.1 0.2 0.4
0.1 0.2 0.4
0.1 0.2 0.4
0.1 0.2 0.4
0.1 0.2 0.4
0.1 0.2 0.4
0.1 0.2 0.4
0.1 0.2 0.5
0.1 0.2 0.5
0.1 0.2 0.5
0.1 0.2 0.5
0.1 0.2 0.5
0.1 0.2 0.5
0.1 0.2 0.5
0.1 0.2 0.5
0.1 0.2 0.5
0.1 0.2 0.5
0.1 0.2 0.5
0.1 0.2 0.1
0.1 0.2 0.1
0.1 0.2 0.1
0.1 0.2 0.1
0.1 0.2 0.1
0.1 0.2 0.1
0.1 0.2 0.2
0.1 0.2 0.2
0.1 0.2 0.2
0.1 0.2 0.2
0.1 0.2 0.2
0.1 0.2 0.2
0.1 0.2 0.2
0.1 0.2 0.2
0.1 0.2 0.2
0.1 0.2 0.2
0.1 0.2 0.2
0.1 0.2 0.2
0.1 0.2 0.3
0.1 0.2 0.3
0.1 0.2 0.3
0.1 0.2 0.3
0.1 0.2 0.3
0.1 0.2 0.3
0.1 0.2 0.3
0.1 0.2 0.3
0.1 0.2 0.3
0.1 0.2 0.3
0.1 0.2 0.3
0.1 0.2 0.3
0.1 0.2 0.4
0.1 0.2 0.4
0.1 0.2 0.4
0.1 0.2 0.4
0.1 0.2 0.4
0.1 0.2 0.4
0.1 0.2 0.4
0.1 0.2 0.4
0.1 0.2 0.4
0.1 0.2 0.4
0.1 0.2 0.4
0.1 0.2 0.4
0.1 0.2 0.4
0.1 0.2 0.5
0.1 0.2 0.5
0.1 0.2 0.5
0.1 0.2 0.5
0.1 0.2 0.5
0.1 0.2 0.5
0.1 0.2 0.5
0.1 0.2 0.5
0.1 0.2 0.5
0.1 0.2 0.5
0.1 0.2 0.5
0.1 0.2 0.1
0.1 0.2 0.1
0.1 0.2 0.1
0.1 0.2 0.1
0.1 0.2 0.1
0.1 0.2 0.1
0.1 0.2 0.2
0.1 0.2 0.2
0.1 0.2 0.2
0.1 0.2 0.2
0.1 0.2 0.2
0.1 0.2 0.2
0.1 0.2 0.2
0.1 0.2 0.2
0.1 0.2 0.2
0.1 0.2 0.2
0.1 0.2 0.2
0.1 0.2 0.2
0.1 0.2 0.3
0.1 0.2 0.3
0.1 0.2 0.3
0.1 0.2 0.3
0.1 0.2 0.3
0.1 0.2 0.3
0.1 0.2 0.3
0.1 0.2 0.3
0.1 0.2 0.3
0.1 0.2 0.3
0.1 0.2 0.3
0.1 0.2 0.3
0.1 0.2 0.4
0.1 0.2 0.4
0.1 0.2 0.4
0.1 0.2 0.4
0.1 0.2 0.4
0.1 0.2 0.4
0.1 0.2 0.4
0.1 0.2 0.4
0.1 0.2 0.4
0.1 0.2 0.4
0.1 0.2 0.4
0.1 0.2 0.4
0.1 0.2 0.4
0.1 0.2 0.5
0.1 0.2 0.5
0.1 0.2 0.5
0.1 0.2 0.5
0.1 0.2 0.5
0.1 0.2 0.5
0.1 0.2 0.5
0.1 0.2 0.5
0.1 0.2 0.5
0.1 0.2 0.5
0.1 0.2 0.5
0.1 0.2 0.1
0.1 0.2 0.1
0.1 0.2 0.1
0.1 0.2 0.1
0.1 0.2 0.1
0.1 0.2 0.1
0.1 0.2 0.2
0.1 0.2 0.2
0.1 0.2 0.2
0.1 0.2 0.2
0.1 0.2 0.2
0.1 0.2 0.2
0.1 0.2 0.2
0.1 0.2 0.2
0.1 0.2 0.2
0.1 0.2 0.2
0.1 0.2 0.2
0.1 0.2 0.2
0.1 0.2 0.3
0.1 0.2 0.3
0.1 0.2 0.3
0.1 0.2 0.3
0.1 0.2 0.3
0.1 0.2 0.3
0.1 0.2 0.3
0.1 0.2 0.3
0.1 0.2 0.3
0.1 0.2 0.3
0.1 0.2 0.3
0.1 0.2 0.3
0.1 0.2 0.4
0.1 0.2 0.4
0.1 0.2 0.4
0.1 0.2 0.4
0.1 0.2 0.4
0.1 0.2 0.4
